%%%
  VERSION:1
  LANGUAGE:ENGLISH
%%%

MODULE MOD_Milling
    
    PERS tooldata rdkTool := [TRUE,[[0,0,141.258],[1,0,0,0]],[2,[0,0,15],[1,0,0,0],0,0,0.005]];
    PERS wobjdata rdkWObj := [FALSE, TRUE, "", [[226.5,-1979.7,548.6],[1,0,0,0]],[[0,0,0],[1,0,0,0]]];

    ! -------------------------------
    ! Code added by Matthijs Visser 
    ! Define your variables here
    ! ...
    VAR speeddata v2 := [20,500,500,500];
    VAR speeddata v6 := [40,500,500,500];


    ! -------------------------------
    ! Define your functions here
    ! ...
    PROC Main()
          Milling;
    ENDPROC
    
    PROC Milling()
        ! Program generated by RoboDK 2.5.8 for ABB IRB 6400 2.4 120 on 30/09/2016 12:43:48
        ! Using nominal kinematics.
        MoveL [[78.635, 215.983, -1.500],[0.000000, 0.000000, -1.000000, 0.000000],[-1,0,-1,0],[9E+09,9E+09,9E+09,9E+09,9E+09,9E+09]],v6,fine,rdkTool,\WObj:=rdkWObj;
        MoveL [[78.724, 216.070, -1.500],[0.000000, 0.000000, 1.000000, 0.000000],[-1,0,-1,0],[9E+09,9E+09,9E+09,9E+09,9E+09,9E+09]],v6,fine,rdkTool,\WObj:=rdkWObj;
        MoveL [[78.797, 216.133, -1.500],[0.000000, 0.000000, -1.000000, 0.000000],[-1,0,-1,0],[9E+09,9E+09,9E+09,9E+09,9E+09,9E+09]],v6,fine,rdkTool,\WObj:=rdkWObj;
        MoveL [[79.084, 216.317, -1.500],[0.000000, 0.000000, 1.000000, 0.000000],[-1,0,-1,0],[9E+09,9E+09,9E+09,9E+09,9E+09,9E+09]],v6,fine,rdkTool,\WObj:=rdkWObj;
        MoveL [[79.455, 216.463, -1.500],[0.000000, 0.000000, 1.000000, 0.000000],[-1,0,-1,0],[9E+09,9E+09,9E+09,9E+09,9E+09,9E+09]],v6,fine,rdkTool,\WObj:=rdkWObj;
        MoveL [[79.958, 216.583, -1.500],[0.000000, 0.000000, -1.000000, 0.000000],[-1,0,-1,0],[9E+09,9E+09,9E+09,9E+09,9E+09,9E+09]],v6,fine,rdkTool,\WObj:=rdkWObj;
        MoveL [[80.699, 216.685, -1.500],[0.000000, 0.000000, -1.000000, 0.000000],[-1,0,-1,0],[9E+09,9E+09,9E+09,9E+09,9E+09,9E+09]],v6,fine,rdkTool,\WObj:=rdkWObj;
        MoveL [[81.774, 216.769, -1.500],[0.000000, 0.000000, -1.000000, 0.000000],[-1,0,-1,0],[9E+09,9E+09,9E+09,9E+09,9E+09,9E+09]],v6,fine,rdkTool,\WObj:=rdkWObj;
        MoveL [[83.356, 216.836, -1.500],[0.000000, 0.000000, -1.000000, 0.000000],[-1,0,-1,0],[9E+09,9E+09,9E+09,9E+09,9E+09,9E+09]],v6,fine,rdkTool,\WObj:=rdkWObj;
        MoveL [[85.910, 216.891, -1.500],[0.000000, 0.000000, -1.000000, 0.000000],[-1,0,-1,0],[9E+09,9E+09,9E+09,9E+09,9E+09,9E+09]],v6,fine,rdkTool,\WObj:=rdkWObj;
        MoveL [[89.602, 216.931, -1.500],[0.000000, 0.000000, -1.000000, 0.000000],[-1,0,-1,0],[9E+09,9E+09,9E+09,9E+09,9E+09,9E+09]],v6,fine,rdkTool,\WObj:=rdkWObj;
        MoveL [[89.931, 216.934, -1.500],[0.000000, 0.000000, 1.000000, 0.000000],[-1,0,-1,0],[9E+09,9E+09,9E+09,9E+09,9E+09,9E+09]],v6,fine,rdkTool,\WObj:=rdkWObj;
        MoveL [[93.285, 216.942, -1.500],[0.000000, 0.000000, -1.000000, 0.000000],[-1,0,-1,0],[9E+09,9E+09,9E+09,9E+09,9E+09,9E+09]],v6,fine,rdkTool,\WObj:=rdkWObj;
        MoveL [[96.254, 216.902, -1.500],[0.000000, 0.000000, 1.000000, 0.000000],[-1,0,-1,0],[9E+09,9E+09,9E+09,9E+09,9E+09,9E+09]],v6,fine,rdkTool,\WObj:=rdkWObj;
        MoveL [[98.595, 216.799, -1.500],[0.000000, 0.000000, -1.000000, 0.000000],[-1,0,-1,0],[9E+09,9E+09,9E+09,9E+09,9E+09,9E+09]],v6,fine,rdkTool,\WObj:=rdkWObj;
        MoveL [[100.540, 216.622, -1.500],[0.000000, 0.000000, 1.000000, 0.000000],[-1,0,-1,0],[9E+09,9E+09,9E+09,9E+09,9E+09,9E+09]],v6,fine,rdkTool,\WObj:=rdkWObj;
        MoveL [[102.301, 216.335, -1.500],[0.000000, 0.000000, -1.000000, 0.000000],[-1,0,-1,0],[9E+09,9E+09,9E+09,9E+09,9E+09,9E+09]],v6,fine,rdkTool,\WObj:=rdkWObj;
        MoveL [[104.522, 215.715, -1.500],[0.000000, 0.000000, 1.000000, 0.000000],[-1,0,-1,0],[9E+09,9E+09,9E+09,9E+09,9E+09,9E+09]],v6,fine,rdkTool,\WObj:=rdkWObj;
        MoveL [[105.905, 215.169, -1.500],[0.000000, 0.000000, 1.000000, 0.000000],[-1,0,-1,0],[9E+09,9E+09,9E+09,9E+09,9E+09,9E+09]],v6,fine,rdkTool,\WObj:=rdkWObj;
        MoveL [[107.093, 214.626, -1.500],[0.000000, 0.000000, -1.000000, 0.000000],[-1,0,-1,0],[9E+09,9E+09,9E+09,9E+09,9E+09,9E+09]],v6,fine,rdkTool,\WObj:=rdkWObj;
        MoveL [[108.254, 214.018, -1.500],[0.000000, 0.000000, -1.000000, 0.000000],[-1,0,-1,0],[9E+09,9E+09,9E+09,9E+09,9E+09,9E+09]],v6,fine,rdkTool,\WObj:=rdkWObj;
        MoveL [[110.124, 212.767, -1.500],[0.000000, 0.000000, -1.000000, 0.000000],[-1,0,-1,0],[9E+09,9E+09,9E+09,9E+09,9E+09,9E+09]],v6,fine,rdkTool,\WObj:=rdkWObj;
        MoveL [[112.365, 210.598, -1.500],[0.000000, 0.000000, 1.000000, 0.000000],[-1,0,-1,0],[9E+09,9E+09,9E+09,9E+09,9E+09,9E+09]],v6,fine,rdkTool,\WObj:=rdkWObj;
        MoveL [[113.478, 209.070, -1.500],[0.000000, 0.000000, 1.000000, 0.000000],[-1,0,-1,0],[9E+09,9E+09,9E+09,9E+09,9E+09,9E+09]],v6,fine,rdkTool,\WObj:=rdkWObj;
        MoveL [[114.519, 207.185, -1.500],[0.000000, 0.000000, -1.000000, 0.000000],[-1,0,-1,0],[9E+09,9E+09,9E+09,9E+09,9E+09,9E+09]],v6,fine,rdkTool,\WObj:=rdkWObj;
        MoveL [[115.318, 205.238, -1.500],[0.000000, 0.000000, -1.000000, 0.000000],[-1,0,-1,0],[9E+09,9E+09,9E+09,9E+09,9E+09,9E+09]],v6,fine,rdkTool,\WObj:=rdkWObj;
        MoveL [[115.852, 203.533, -1.500],[0.000000, 0.000000, 1.000000, 0.000000],[-1,0,-1,0],[9E+09,9E+09,9E+09,9E+09,9E+09,9E+09]],v6,fine,rdkTool,\WObj:=rdkWObj;
        MoveL [[115.878, 203.438, -1.500],[0.000000, 0.000000, -1.000000, 0.000000],[-1,0,-1,0],[9E+09,9E+09,9E+09,9E+09,9E+09,9E+09]],v6,fine,rdkTool,\WObj:=rdkWObj;
        MoveL [[116.116, 202.503, -1.500],[0.000000, 0.000000, 1.000000, 0.000000],[-1,0,-1,0],[9E+09,9E+09,9E+09,9E+09,9E+09,9E+09]],v6,fine,rdkTool,\WObj:=rdkWObj;
        MoveL [[116.331, 201.455, -1.500],[0.000000, 0.000000, -1.000000, 0.000000],[-1,0,-1,0],[9E+09,9E+09,9E+09,9E+09,9E+09,9E+09]],v6,fine,rdkTool,\WObj:=rdkWObj;
        MoveL [[116.454, 200.629, -1.500],[0.000000, 0.000000, 1.000000, 0.000000],[-1,0,-1,0],[9E+09,9E+09,9E+09,9E+09,9E+09,9E+09]],v6,fine,rdkTool,\WObj:=rdkWObj;
        MoveL [[116.597, 199.153, -1.500],[0.000000, 0.000000, -1.000000, 0.000000],[-1,0,-1,0],[9E+09,9E+09,9E+09,9E+09,9E+09,9E+09]],v6,fine,rdkTool,\WObj:=rdkWObj;
        MoveL [[116.692, 197.321, -1.500],[0.000000, 0.000000, 1.000000, 0.000000],[-1,0,-1,0],[9E+09,9E+09,9E+09,9E+09,9E+09,9E+09]],v6,fine,rdkTool,\WObj:=rdkWObj;
        MoveL [[116.753, 194.770, -1.500],[0.000000, 0.000000, -1.000000, 0.000000],[-1,0,-1,0],[9E+09,9E+09,9E+09,9E+09,9E+09,9E+09]],v6,fine,rdkTool,\WObj:=rdkWObj;
        MoveL [[116.785, 191.090, -1.500],[0.000000, 0.000000, -1.000000, 0.000000],[-1,0,-1,0],[9E+09,9E+09,9E+09,9E+09,9E+09,9E+09]],v6,fine,rdkTool,\WObj:=rdkWObj;
        MoveL [[116.793, 186.219, -1.500],[0.000000, 0.000000, 1.000000, 0.000000],[-1,0,-1,0],[9E+09,9E+09,9E+09,9E+09,9E+09,9E+09]],v6,fine,rdkTool,\WObj:=rdkWObj;
        MoveL [[116.783, 182.053, -1.500],[0.000000, 0.000000, -1.000000, 0.000000],[-1,0,-1,0],[9E+09,9E+09,9E+09,9E+09,9E+09,9E+09]],v6,fine,rdkTool,\WObj:=rdkWObj;
        MoveL [[116.734, 177.959, -1.500],[0.000000, 0.000000, -1.000000, 0.000000],[-1,0,-1,0],[9E+09,9E+09,9E+09,9E+09,9E+09,9E+09]],v6,fine,rdkTool,\WObj:=rdkWObj;
        MoveL [[116.638, 174.835, -1.500],[0.000000, 0.000000, 1.000000, 0.000000],[-1,0,-1,0],[9E+09,9E+09,9E+09,9E+09,9E+09,9E+09]],v6,fine,rdkTool,\WObj:=rdkWObj;
        MoveL [[116.495, 172.471, -1.500],[0.000000, 0.000000, 1.000000, 0.000000],[-1,0,-1,0],[9E+09,9E+09,9E+09,9E+09,9E+09,9E+09]],v6,fine,rdkTool,\WObj:=rdkWObj;
        MoveL [[116.297, 170.566, -1.500],[0.000000, 0.000000, -1.000000, 0.000000],[-1,0,-1,0],[9E+09,9E+09,9E+09,9E+09,9E+09,9E+09]],v6,fine,rdkTool,\WObj:=rdkWObj;
        MoveL [[116.028, 168.950, -1.500],[0.000000, 0.000000, 1.000000, 0.000000],[-1,0,-1,0],[9E+09,9E+09,9E+09,9E+09,9E+09,9E+09]],v6,fine,rdkTool,\WObj:=rdkWObj;
        MoveL [[115.653, 167.470, -1.500],[0.000000, 0.000000, -1.000000, 0.000000],[-1,0,-1,0],[9E+09,9E+09,9E+09,9E+09,9E+09,9E+09]],v6,fine,rdkTool,\WObj:=rdkWObj;
        MoveL [[115.105, 166.003, -1.500],[0.000000, 0.000000, -1.000000, 0.000000],[-1,0,-1,0],[9E+09,9E+09,9E+09,9E+09,9E+09,9E+09]],v6,fine,rdkTool,\WObj:=rdkWObj;
        MoveL [[114.673, 165.121, -1.500],[0.000000, 0.000000, -1.000000, 0.000000],[-1,0,-1,0],[9E+09,9E+09,9E+09,9E+09,9E+09,9E+09]],v6,fine,rdkTool,\WObj:=rdkWObj;
        MoveL [[114.019, 163.990, -1.500],[0.000000, 0.000000, -1.000000, 0.000000],[-1,0,-1,0],[9E+09,9E+09,9E+09,9E+09,9E+09,9E+09]],v6,fine,rdkTool,\WObj:=rdkWObj;
        MoveL [[113.431, 163.084, -1.500],[0.000000, 0.000000, 1.000000, 0.000000],[-1,0,-1,0],[9E+09,9E+09,9E+09,9E+09,9E+09,9E+09]],v6,fine,rdkTool,\WObj:=rdkWObj;
        MoveL [[112.913, 162.349, -1.500],[0.000000, 0.000000, 1.000000, 0.000000],[-1,0,-1,0],[9E+09,9E+09,9E+09,9E+09,9E+09,9E+09]],v6,fine,rdkTool,\WObj:=rdkWObj;
        MoveL [[111.693, 160.882, -1.500],[0.000000, 0.000000, 1.000000, 0.000000],[-1,0,-1,0],[9E+09,9E+09,9E+09,9E+09,9E+09,9E+09]],v6,fine,rdkTool,\WObj:=rdkWObj;
        MoveL [[109.244, 158.767, -1.500],[0.000000, 0.000000, -1.000000, 0.000000],[-1,0,-1,0],[9E+09,9E+09,9E+09,9E+09,9E+09,9E+09]],v6,fine,rdkTool,\WObj:=rdkWObj;
        MoveL [[107.462, 157.694, -1.500],[0.000000, 0.000000, 1.000000, 0.000000],[-1,0,-1,0],[9E+09,9E+09,9E+09,9E+09,9E+09,9E+09]],v6,fine,rdkTool,\WObj:=rdkWObj;
        MoveL [[105.656, 156.863, -1.500],[0.000000, 0.000000, 1.000000, 0.000000],[-1,0,-1,0],[9E+09,9E+09,9E+09,9E+09,9E+09,9E+09]],v6,fine,rdkTool,\WObj:=rdkWObj;
        MoveL [[104.038, 156.274, -1.500],[0.000000, 0.000000, -1.000000, 0.000000],[-1,0,-1,0],[9E+09,9E+09,9E+09,9E+09,9E+09,9E+09]],v6,fine,rdkTool,\WObj:=rdkWObj;
        MoveL [[103.137, 155.997, -1.500],[0.000000, 0.000000, -1.000000, 0.000000],[-1,0,-1,0],[9E+09,9E+09,9E+09,9E+09,9E+09,9E+09]],v6,fine,rdkTool,\WObj:=rdkWObj;
        MoveL [[101.598, 155.646, -1.500],[0.000000, 0.000000, -1.000000, 0.000000],[-1,0,-1,0],[9E+09,9E+09,9E+09,9E+09,9E+09,9E+09]],v6,fine,rdkTool,\WObj:=rdkWObj;
        MoveL [[100.439, 155.483, -1.500],[0.000000, 0.000000, -1.000000, 0.000000],[-1,0,-1,0],[9E+09,9E+09,9E+09,9E+09,9E+09,9E+09]],v6,fine,rdkTool,\WObj:=rdkWObj;
        MoveL [[98.885, 155.349, -1.500],[0.000000, 0.000000, -1.000000, 0.000000],[-1,0,-1,0],[9E+09,9E+09,9E+09,9E+09,9E+09,9E+09]],v6,fine,rdkTool,\WObj:=rdkWObj;
        MoveL [[96.846, 155.248, -1.500],[0.000000, 0.000000, -1.000000, 0.000000],[-1,0,-1,0],[9E+09,9E+09,9E+09,9E+09,9E+09,9E+09]],v6,fine,rdkTool,\WObj:=rdkWObj;
        MoveL [[94.054, 155.166, -1.500],[0.000000, 0.000000, -1.000000, 0.000000],[-1,0,-1,0],[9E+09,9E+09,9E+09,9E+09,9E+09,9E+09]],v6,fine,rdkTool,\WObj:=rdkWObj;
        MoveL [[90.458, 155.096, -1.500],[0.000000, 0.000000, 1.000000, 0.000000],[-1,0,-1,0],[9E+09,9E+09,9E+09,9E+09,9E+09,9E+09]],v6,fine,rdkTool,\WObj:=rdkWObj;
        MoveL [[88.607, 155.066, -1.500],[0.000000, 0.000000, -1.000000, 0.000000],[-1,0,-1,0],[9E+09,9E+09,9E+09,9E+09,9E+09,9E+09]],v6,fine,rdkTool,\WObj:=rdkWObj;
        MoveL [[85.237, 155.030, -1.500],[0.000000, 0.000000, -1.000000, 0.000000],[-1,0,-1,0],[9E+09,9E+09,9E+09,9E+09,9E+09,9E+09]],v6,fine,rdkTool,\WObj:=rdkWObj;
        MoveL [[82.868, 155.039, -1.500],[0.000000, 0.000000, -1.000000, 0.000000],[-1,0,-1,0],[9E+09,9E+09,9E+09,9E+09,9E+09,9E+09]],v6,fine,rdkTool,\WObj:=rdkWObj;
        MoveL [[81.399, 155.087, -1.500],[0.000000, 0.000000, 1.000000, 0.000000],[-1,0,-1,0],[9E+09,9E+09,9E+09,9E+09,9E+09,9E+09]],v6,fine,rdkTool,\WObj:=rdkWObj;
        MoveL [[80.436, 155.168, -1.500],[0.000000, 0.000000, -1.000000, 0.000000],[-1,0,-1,0],[9E+09,9E+09,9E+09,9E+09,9E+09,9E+09]],v6,fine,rdkTool,\WObj:=rdkWObj;
        MoveL [[79.793, 155.277, -1.500],[0.000000, 0.000000, -1.000000, 0.000000],[-1,0,-1,0],[9E+09,9E+09,9E+09,9E+09,9E+09,9E+09]],v6,fine,rdkTool,\WObj:=rdkWObj;
        MoveL [[79.323, 155.422, -1.500],[0.000000, 0.000000, 1.000000, 0.000000],[-1,0,-1,0],[9E+09,9E+09,9E+09,9E+09,9E+09,9E+09]],v6,fine,rdkTool,\WObj:=rdkWObj;
        MoveL [[78.976, 155.602, -1.500],[0.000000, 0.000000, 1.000000, 0.000000],[-1,0,-1,0],[9E+09,9E+09,9E+09,9E+09,9E+09,9E+09]],v6,fine,rdkTool,\WObj:=rdkWObj;
        MoveL [[78.893, 155.659, -1.500],[0.000000, 0.000000, -1.000000, 0.000000],[-1,0,-1,0],[9E+09,9E+09,9E+09,9E+09,9E+09,9E+09]],v6,fine,rdkTool,\WObj:=rdkWObj;
        MoveL [[78.893, 155.659, 3.000],[0.000000, 0.000000, 1.000000, 0.000000],[-1,0,-1,0],[9E+09,9E+09,9E+09,9E+09,9E+09,9E+09]],v2,fine,rdkTool,\WObj:=rdkWObj;
        MoveL [[78.893, 155.659, 15.000],[0.000000, 0.000000, 1.000000, 0.000000],[-1,0,-1,0],[9E+09,9E+09,9E+09,9E+09,9E+09,9E+09]],v1000,fine,rdkTool,\WObj:=rdkWObj;
        MoveL [[89.542, 212.137, 15.000],[0.000000, 0.000000, 1.000000, 0.000000],[-1,0,-1,0],[9E+09,9E+09,9E+09,9E+09,9E+09,9E+09]],v1000,fine,rdkTool,\WObj:=rdkWObj;
        MoveL [[89.542, 212.137, 3.000],[0.000000, 0.000000, -1.000000, 0.000000],[-1,0,-1,0],[9E+09,9E+09,9E+09,9E+09,9E+09,9E+09]],v1000,fine,rdkTool,\WObj:=rdkWObj;
        MoveL [[89.542, 212.137, -1.500],[0.000000, 0.000000, -1.000000, 0.000000],[-1,0,-1,0],[9E+09,9E+09,9E+09,9E+09,9E+09,9E+09]],v2,fine,rdkTool,\WObj:=rdkWObj;
        MoveL [[92.361, 212.164, -1.500],[0.000000, 0.000000, -1.000000, 0.000000],[-1,0,-1,0],[9E+09,9E+09,9E+09,9E+09,9E+09,9E+09]],v6,fine,rdkTool,\WObj:=rdkWObj;
        MoveL [[95.289, 212.103, -1.500],[0.000000, 0.000000, 1.000000, 0.000000],[-1,0,-1,0],[9E+09,9E+09,9E+09,9E+09,9E+09,9E+09]],v6,fine,rdkTool,\WObj:=rdkWObj;
        MoveL [[97.858, 211.936, -1.500],[0.000000, 0.000000, -1.000000, 0.000000],[-1,0,-1,0],[9E+09,9E+09,9E+09,9E+09,9E+09,9E+09]],v6,fine,rdkTool,\WObj:=rdkWObj;
        MoveL [[100.015, 211.675, -1.500],[0.000000, 0.000000, -1.000000, 0.000000],[-1,0,-1,0],[9E+09,9E+09,9E+09,9E+09,9E+09,9E+09]],v6,fine,rdkTool,\WObj:=rdkWObj;
        MoveL [[101.778, 211.343, -1.500],[0.000000, 0.000000, -1.000000, 0.000000],[-1,0,-1,0],[9E+09,9E+09,9E+09,9E+09,9E+09,9E+09]],v6,fine,rdkTool,\WObj:=rdkWObj;
        MoveL [[103.395, 210.903, -1.500],[0.000000, 0.000000, -1.000000, 0.000000],[-1,0,-1,0],[9E+09,9E+09,9E+09,9E+09,9E+09,9E+09]],v6,fine,rdkTool,\WObj:=rdkWObj;
        MoveL [[104.931, 210.311, -1.500],[0.000000, 0.000000, 1.000000, 0.000000],[-1,0,-1,0],[9E+09,9E+09,9E+09,9E+09,9E+09,9E+09]],v6,fine,rdkTool,\WObj:=rdkWObj;
        MoveL [[106.333, 209.552, -1.500],[0.000000, 0.000000, 1.000000, 0.000000],[-1,0,-1,0],[9E+09,9E+09,9E+09,9E+09,9E+09,9E+09]],v6,fine,rdkTool,\WObj:=rdkWObj;
        MoveL [[107.266, 208.878, -1.500],[0.000000, 0.000000, -1.000000, 0.000000],[-1,0,-1,0],[9E+09,9E+09,9E+09,9E+09,9E+09,9E+09]],v6,fine,rdkTool,\WObj:=rdkWObj;
        MoveL [[108.562, 207.598, -1.500],[0.000000, 0.000000, 1.000000, 0.000000],[-1,0,-1,0],[9E+09,9E+09,9E+09,9E+09,9E+09,9E+09]],v6,fine,rdkTool,\WObj:=rdkWObj;
        MoveL [[109.524, 206.249, -1.500],[0.000000, 0.000000, -1.000000, 0.000000],[-1,0,-1,0],[9E+09,9E+09,9E+09,9E+09,9E+09,9E+09]],v6,fine,rdkTool,\WObj:=rdkWObj;
        MoveL [[110.265, 204.836, -1.500],[0.000000, 0.000000, 1.000000, 0.000000],[-1,0,-1,0],[9E+09,9E+09,9E+09,9E+09,9E+09,9E+09]],v6,fine,rdkTool,\WObj:=rdkWObj;
        MoveL [[110.781, 203.567, -1.500],[0.000000, 0.000000, -1.000000, 0.000000],[-1,0,-1,0],[9E+09,9E+09,9E+09,9E+09,9E+09,9E+09]],v6,fine,rdkTool,\WObj:=rdkWObj;
        MoveL [[110.857, 203.354, -1.500],[0.000000, 0.000000, -1.000000, 0.000000],[-1,0,-1,0],[9E+09,9E+09,9E+09,9E+09,9E+09,9E+09]],v6,fine,rdkTool,\WObj:=rdkWObj;
        MoveL [[111.052, 202.765, -1.500],[0.000000, 0.000000, 1.000000, 0.000000],[-1,0,-1,0],[9E+09,9E+09,9E+09,9E+09,9E+09,9E+09]],v6,fine,rdkTool,\WObj:=rdkWObj;
        MoveL [[111.345, 201.551, -1.500],[0.000000, 0.000000, 1.000000, 0.000000],[-1,0,-1,0],[9E+09,9E+09,9E+09,9E+09,9E+09,9E+09]],v6,fine,rdkTool,\WObj:=rdkWObj;
        MoveL [[111.499, 200.439, -1.500],[0.000000, 0.000000, 1.000000, 0.000000],[-1,0,-1,0],[9E+09,9E+09,9E+09,9E+09,9E+09,9E+09]],v6,fine,rdkTool,\WObj:=rdkWObj;
        MoveL [[111.608, 198.999, -1.500],[0.000000, 0.000000, -1.000000, 0.000000],[-1,0,-1,0],[9E+09,9E+09,9E+09,9E+09,9E+09,9E+09]],v6,fine,rdkTool,\WObj:=rdkWObj;
        MoveL [[111.686, 196.906, -1.500],[0.000000, 0.000000, 1.000000, 0.000000],[-1,0,-1,0],[9E+09,9E+09,9E+09,9E+09,9E+09,9E+09]],v6,fine,rdkTool,\WObj:=rdkWObj;
        MoveL [[111.734, 193.746, -1.500],[0.000000, 0.000000, 1.000000, 0.000000],[-1,0,-1,0],[9E+09,9E+09,9E+09,9E+09,9E+09,9E+09]],v6,fine,rdkTool,\WObj:=rdkWObj;
        MoveL [[111.753, 189.190, -1.500],[0.000000, 0.000000, -1.000000, 0.000000],[-1,0,-1,0],[9E+09,9E+09,9E+09,9E+09,9E+09,9E+09]],v6,fine,rdkTool,\WObj:=rdkWObj;
        MoveL [[111.755, 186.214, -1.500],[0.000000, 0.000000, -1.000000, 0.000000],[-1,0,-1,0],[9E+09,9E+09,9E+09,9E+09,9E+09,9E+09]],v6,fine,rdkTool,\WObj:=rdkWObj;
        MoveL [[111.746, 181.628, -1.500],[0.000000, 0.000000, 1.000000, 0.000000],[-1,0,-1,0],[9E+09,9E+09,9E+09,9E+09,9E+09,9E+09]],v6,fine,rdkTool,\WObj:=rdkWObj;
        MoveL [[111.708, 177.794, -1.500],[0.000000, 0.000000, -1.000000, 0.000000],[-1,0,-1,0],[9E+09,9E+09,9E+09,9E+09,9E+09,9E+09]],v6,fine,rdkTool,\WObj:=rdkWObj;
        MoveL [[111.633, 174.959, -1.500],[0.000000, 0.000000, -1.000000, 0.000000],[-1,0,-1,0],[9E+09,9E+09,9E+09,9E+09,9E+09,9E+09]],v6,fine,rdkTool,\WObj:=rdkWObj;
        MoveL [[111.516, 172.814, -1.500],[0.000000, 0.000000, -1.000000, 0.000000],[-1,0,-1,0],[9E+09,9E+09,9E+09,9E+09,9E+09,9E+09]],v6,fine,rdkTool,\WObj:=rdkWObj;
        MoveL [[111.358, 171.183, -1.500],[0.000000, 0.000000, 1.000000, 0.000000],[-1,0,-1,0],[9E+09,9E+09,9E+09,9E+09,9E+09,9E+09]],v6,fine,rdkTool,\WObj:=rdkWObj;
        MoveL [[111.152, 169.868, -1.500],[0.000000, 0.000000, 1.000000, 0.000000],[-1,0,-1,0],[9E+09,9E+09,9E+09,9E+09,9E+09,9E+09]],v6,fine,rdkTool,\WObj:=rdkWObj;
        MoveL [[110.866, 168.692, -1.500],[0.000000, 0.000000, -1.000000, 0.000000],[-1,0,-1,0],[9E+09,9E+09,9E+09,9E+09,9E+09,9E+09]],v6,fine,rdkTool,\WObj:=rdkWObj;
        MoveL [[110.598, 167.915, -1.500],[0.000000, 0.000000, 1.000000, 0.000000],[-1,0,-1,0],[9E+09,9E+09,9E+09,9E+09,9E+09,9E+09]],v6,fine,rdkTool,\WObj:=rdkWObj;
        MoveL [[110.072, 166.816, -1.500],[0.000000, 0.000000, -1.000000, 0.000000],[-1,0,-1,0],[9E+09,9E+09,9E+09,9E+09,9E+09,9E+09]],v6,fine,rdkTool,\WObj:=rdkWObj;
        MoveL [[109.487, 165.893, -1.500],[0.000000, 0.000000, 1.000000, 0.000000],[-1,0,-1,0],[9E+09,9E+09,9E+09,9E+09,9E+09,9E+09]],v6,fine,rdkTool,\WObj:=rdkWObj;
        MoveL [[108.896, 165.091, -1.500],[0.000000, 0.000000, 1.000000, 0.000000],[-1,0,-1,0],[9E+09,9E+09,9E+09,9E+09,9E+09,9E+09]],v6,fine,rdkTool,\WObj:=rdkWObj;
        MoveL [[108.597, 164.708, -1.500],[0.000000, 0.000000, -1.000000, 0.000000],[-1,0,-1,0],[9E+09,9E+09,9E+09,9E+09,9E+09,9E+09]],v6,fine,rdkTool,\WObj:=rdkWObj;
        MoveL [[107.986, 163.979, -1.500],[0.000000, 0.000000, 1.000000, 0.000000],[-1,0,-1,0],[9E+09,9E+09,9E+09,9E+09,9E+09,9E+09]],v6,fine,rdkTool,\WObj:=rdkWObj;
        MoveL [[107.246, 163.231, -1.500],[0.000000, 0.000000, -1.000000, 0.000000],[-1,0,-1,0],[9E+09,9E+09,9E+09,9E+09,9E+09,9E+09]],v6,fine,rdkTool,\WObj:=rdkWObj;
        MoveL [[106.001, 162.300, -1.500],[0.000000, 0.000000, -1.000000, 0.000000],[-1,0,-1,0],[9E+09,9E+09,9E+09,9E+09,9E+09,9E+09]],v6,fine,rdkTool,\WObj:=rdkWObj;
        MoveL [[105.000, 161.767, -1.500],[0.000000, 0.000000, -1.000000, 0.000000],[-1,0,-1,0],[9E+09,9E+09,9E+09,9E+09,9E+09,9E+09]],v6,fine,rdkTool,\WObj:=rdkWObj;
        MoveL [[104.140, 161.395, -1.500],[0.000000, 0.000000, -1.000000, 0.000000],[-1,0,-1,0],[9E+09,9E+09,9E+09,9E+09,9E+09,9E+09]],v6,fine,rdkTool,\WObj:=rdkWObj;
        MoveL [[103.370, 161.102, -1.500],[0.000000, 0.000000, 1.000000, 0.000000],[-1,0,-1,0],[9E+09,9E+09,9E+09,9E+09,9E+09,9E+09]],v6,fine,rdkTool,\WObj:=rdkWObj;
        MoveL [[102.742, 160.896, -1.500],[0.000000, 0.000000, 1.000000, 0.000000],[-1,0,-1,0],[9E+09,9E+09,9E+09,9E+09,9E+09,9E+09]],v6,fine,rdkTool,\WObj:=rdkWObj;
        MoveL [[101.712, 160.647, -1.500],[0.000000, 0.000000, 1.000000, 0.000000],[-1,0,-1,0],[9E+09,9E+09,9E+09,9E+09,9E+09,9E+09]],v6,fine,rdkTool,\WObj:=rdkWObj;
        MoveL [[100.539, 160.471, -1.500],[0.000000, 0.000000, -1.000000, 0.000000],[-1,0,-1,0],[9E+09,9E+09,9E+09,9E+09,9E+09,9E+09]],v6,fine,rdkTool,\WObj:=rdkWObj;
        MoveL [[99.044, 160.342, -1.500],[0.000000, 0.000000, 1.000000, 0.000000],[-1,0,-1,0],[9E+09,9E+09,9E+09,9E+09,9E+09,9E+09]],v6,fine,rdkTool,\WObj:=rdkWObj;
        MoveL [[96.935, 160.240, -1.500],[0.000000, 0.000000, -1.000000, 0.000000],[-1,0,-1,0],[9E+09,9E+09,9E+09,9E+09,9E+09,9E+09]],v6,fine,rdkTool,\WObj:=rdkWObj;
        MoveL [[94.221, 160.159, -1.500],[0.000000, 0.000000, -1.000000, 0.000000],[-1,0,-1,0],[9E+09,9E+09,9E+09,9E+09,9E+09,9E+09]],v6,fine,rdkTool,\WObj:=rdkWObj;
        MoveL [[92.408, 160.117, -1.500],[0.000000, 0.000000, -1.000000, 0.000000],[-1,0,-1,0],[9E+09,9E+09,9E+09,9E+09,9E+09,9E+09]],v6,fine,rdkTool,\WObj:=rdkWObj;
        MoveL [[89.116, 160.056, -1.500],[0.000000, 0.000000, -1.000000, 0.000000],[-1,0,-1,0],[9E+09,9E+09,9E+09,9E+09,9E+09,9E+09]],v6,fine,rdkTool,\WObj:=rdkWObj;
        MoveL [[86.700, 160.043, -1.500],[0.000000, 0.000000, 1.000000, 0.000000],[-1,0,-1,0],[9E+09,9E+09,9E+09,9E+09,9E+09,9E+09]],v6,fine,rdkTool,\WObj:=rdkWObj;
        MoveL [[85.281, 160.071, -1.500],[0.000000, 0.000000, 1.000000, 0.000000],[-1,0,-1,0],[9E+09,9E+09,9E+09,9E+09,9E+09,9E+09]],v6,fine,rdkTool,\WObj:=rdkWObj;
        MoveL [[84.359, 160.128, -1.500],[0.000000, 0.000000, -1.000000, 0.000000],[-1,0,-1,0],[9E+09,9E+09,9E+09,9E+09,9E+09,9E+09]],v6,fine,rdkTool,\WObj:=rdkWObj;
        MoveL [[83.799, 160.202, -1.500],[0.000000, 0.000000, 1.000000, 0.000000],[-1,0,-1,0],[9E+09,9E+09,9E+09,9E+09,9E+09,9E+09]],v6,fine,rdkTool,\WObj:=rdkWObj;
        MoveL [[83.483, 160.280, -1.500],[0.000000, 0.000000, -1.000000, 0.000000],[-1,0,-1,0],[9E+09,9E+09,9E+09,9E+09,9E+09,9E+09]],v6,fine,rdkTool,\WObj:=rdkWObj;
        MoveL [[83.286, 160.367, -1.500],[0.000000, 0.000000, 1.000000, 0.000000],[-1,0,-1,0],[9E+09,9E+09,9E+09,9E+09,9E+09,9E+09]],v6,fine,rdkTool,\WObj:=rdkWObj;
        MoveL [[83.175, 160.460, -1.500],[0.000000, 0.000000, 1.000000, 0.000000],[-1,0,-1,0],[9E+09,9E+09,9E+09,9E+09,9E+09,9E+09]],v6,fine,rdkTool,\WObj:=rdkWObj;
        MoveL [[83.129, 160.538, -1.500],[0.000000, 0.000000, 1.000000, 0.000000],[-1,0,-1,0],[9E+09,9E+09,9E+09,9E+09,9E+09,9E+09]],v6,fine,rdkTool,\WObj:=rdkWObj;
        MoveL [[83.125, 160.553, -1.500],[0.000000, 0.000000, 1.000000, 0.000000],[-1,0,-1,0],[9E+09,9E+09,9E+09,9E+09,9E+09,9E+09]],v6,fine,rdkTool,\WObj:=rdkWObj;
        MoveL [[83.108, 160.699, -1.500],[0.000000, 0.000000, -1.000000, 0.000000],[-1,0,-1,0],[9E+09,9E+09,9E+09,9E+09,9E+09,9E+09]],v6,fine,rdkTool,\WObj:=rdkWObj;
        MoveL [[83.078, 161.354, -1.500],[0.000000, 0.000000, -1.000000, 0.000000],[-1,0,-1,0],[9E+09,9E+09,9E+09,9E+09,9E+09,9E+09]],v6,fine,rdkTool,\WObj:=rdkWObj;
        MoveL [[83.038, 163.369, -1.500],[0.000000, 0.000000, 1.000000, 0.000000],[-1,0,-1,0],[9E+09,9E+09,9E+09,9E+09,9E+09,9E+09]],v6,fine,rdkTool,\WObj:=rdkWObj;
        MoveL [[82.994, 169.063, -1.500],[0.000000, 0.000000, -1.000000, 0.000000],[-1,0,-1,0],[9E+09,9E+09,9E+09,9E+09,9E+09,9E+09]],v6,fine,rdkTool,\WObj:=rdkWObj;
        MoveL [[83.010, 186.578, -1.500],[0.000000, 0.000000, -1.000000, 0.000000],[-1,0,-1,0],[9E+09,9E+09,9E+09,9E+09,9E+09,9E+09]],v6,fine,rdkTool,\WObj:=rdkWObj;
        MoveL [[83.010, 186.578, 3.000],[0.000000, 0.000000, 1.000000, 0.000000],[-1,0,-1,0],[9E+09,9E+09,9E+09,9E+09,9E+09,9E+09]],v2,fine,rdkTool,\WObj:=rdkWObj;
        MoveL [[83.010, 186.578, 15.000],[0.000000, 0.000000, 1.000000, 0.000000],[-1,0,-1,0],[9E+09,9E+09,9E+09,9E+09,9E+09,9E+09]],v1000,fine,rdkTool,\WObj:=rdkWObj;
        MoveL [[92.668, 210.773, 15.000],[0.000000, 0.000000, -1.000000, 0.000000],[-1,0,-1,0],[9E+09,9E+09,9E+09,9E+09,9E+09,9E+09]],v1000,fine,rdkTool,\WObj:=rdkWObj;
        MoveL [[92.668, 210.773, 3.000],[0.000000, 0.000000, 1.000000, 0.000000],[-1,0,-1,0],[9E+09,9E+09,9E+09,9E+09,9E+09,9E+09]],v1000,fine,rdkTool,\WObj:=rdkWObj;
        MoveL [[92.668, 210.773, -1.500],[0.000000, 0.000000, -1.000000, 0.000000],[-1,0,-1,0],[9E+09,9E+09,9E+09,9E+09,9E+09,9E+09]],v2,fine,rdkTool,\WObj:=rdkWObj;
        MoveL [[93.186, 210.764, -1.500],[0.000000, 0.000000, -1.000000, 0.000000],[-1,0,-1,0],[9E+09,9E+09,9E+09,9E+09,9E+09,9E+09]],v6,fine,rdkTool,\WObj:=rdkWObj;
        MoveL [[95.549, 210.721, -1.500],[0.000000, 0.000000, -1.000000, 0.000000],[-1,0,-1,0],[9E+09,9E+09,9E+09,9E+09,9E+09,9E+09]],v6,fine,rdkTool,\WObj:=rdkWObj;
        MoveL [[97.912, 210.660, -1.500],[0.000000, 0.000000, -1.000000, 0.000000],[-1,0,-1,0],[9E+09,9E+09,9E+09,9E+09,9E+09,9E+09]],v6,fine,rdkTool,\WObj:=rdkWObj;
        MoveL [[99.521, 210.583, -1.500],[0.000000, 0.000000, -1.000000, 0.000000],[-1,0,-1,0],[9E+09,9E+09,9E+09,9E+09,9E+09,9E+09]],v6,fine,rdkTool,\WObj:=rdkWObj;
        MoveL [[100.640, 210.480, -1.500],[0.000000, 0.000000, -1.000000, 0.000000],[-1,0,-1,0],[9E+09,9E+09,9E+09,9E+09,9E+09,9E+09]],v6,fine,rdkTool,\WObj:=rdkWObj;
        MoveL [[101.554, 210.326, -1.500],[0.000000, 0.000000, -1.000000, 0.000000],[-1,0,-1,0],[9E+09,9E+09,9E+09,9E+09,9E+09,9E+09]],v6,fine,rdkTool,\WObj:=rdkWObj;
        MoveL [[102.311, 210.114, -1.500],[0.000000, 0.000000, 1.000000, 0.000000],[-1,0,-1,0],[9E+09,9E+09,9E+09,9E+09,9E+09,9E+09]],v6,fine,rdkTool,\WObj:=rdkWObj;
        MoveL [[102.770, 209.938, -1.500],[0.000000, 0.000000, -1.000000, 0.000000],[-1,0,-1,0],[9E+09,9E+09,9E+09,9E+09,9E+09,9E+09]],v6,fine,rdkTool,\WObj:=rdkWObj;
        MoveL [[103.467, 209.616, -1.500],[0.000000, 0.000000, -1.000000, 0.000000],[-1,0,-1,0],[9E+09,9E+09,9E+09,9E+09,9E+09,9E+09]],v6,fine,rdkTool,\WObj:=rdkWObj;
        MoveL [[104.191, 209.249, -1.500],[0.000000, 0.000000, 1.000000, 0.000000],[-1,0,-1,0],[9E+09,9E+09,9E+09,9E+09,9E+09,9E+09]],v6,fine,rdkTool,\WObj:=rdkWObj;
        MoveL [[104.485, 209.094, -1.500],[0.000000, 0.000000, -1.000000, 0.000000],[-1,0,-1,0],[9E+09,9E+09,9E+09,9E+09,9E+09,9E+09]],v6,fine,rdkTool,\WObj:=rdkWObj;
        MoveL [[105.655, 208.382, -1.500],[0.000000, 0.000000, -1.000000, 0.000000],[-1,0,-1,0],[9E+09,9E+09,9E+09,9E+09,9E+09,9E+09]],v6,fine,rdkTool,\WObj:=rdkWObj;
        MoveL [[107.021, 207.286, -1.500],[0.000000, 0.000000, 1.000000, 0.000000],[-1,0,-1,0],[9E+09,9E+09,9E+09,9E+09,9E+09,9E+09]],v6,fine,rdkTool,\WObj:=rdkWObj;
        MoveL [[108.322, 205.781, -1.500],[0.000000, 0.000000, 1.000000, 0.000000],[-1,0,-1,0],[9E+09,9E+09,9E+09,9E+09,9E+09,9E+09]],v6,fine,rdkTool,\WObj:=rdkWObj;
        MoveL [[108.964, 204.735, -1.500],[0.000000, 0.000000, -1.000000, 0.000000],[-1,0,-1,0],[9E+09,9E+09,9E+09,9E+09,9E+09,9E+09]],v6,fine,rdkTool,\WObj:=rdkWObj;
        MoveL [[109.624, 203.256, -1.500],[0.000000, 0.000000, -1.000000, 0.000000],[-1,0,-1,0],[9E+09,9E+09,9E+09,9E+09,9E+09,9E+09]],v6,fine,rdkTool,\WObj:=rdkWObj;
        MoveL [[110.095, 201.705, -1.500],[0.000000, 0.000000, -1.000000, 0.000000],[-1,0,-1,0],[9E+09,9E+09,9E+09,9E+09,9E+09,9E+09]],v6,fine,rdkTool,\WObj:=rdkWObj;
        MoveL [[110.379, 200.329, -1.500],[0.000000, 0.000000, -1.000000, 0.000000],[-1,0,-1,0],[9E+09,9E+09,9E+09,9E+09,9E+09,9E+09]],v6,fine,rdkTool,\WObj:=rdkWObj;
        MoveL [[110.398, 200.211, -1.500],[0.000000, 0.000000, -1.000000, 0.000000],[-1,0,-1,0],[9E+09,9E+09,9E+09,9E+09,9E+09,9E+09]],v6,fine,rdkTool,\WObj:=rdkWObj;
        MoveL [[110.461, 199.748, -1.500],[0.000000, 0.000000, 1.000000, 0.000000],[-1,0,-1,0],[9E+09,9E+09,9E+09,9E+09,9E+09,9E+09]],v6,fine,rdkTool,\WObj:=rdkWObj;
        MoveL [[110.581, 198.464, -1.500],[0.000000, 0.000000, -1.000000, 0.000000],[-1,0,-1,0],[9E+09,9E+09,9E+09,9E+09,9E+09,9E+09]],v6,fine,rdkTool,\WObj:=rdkWObj;
        MoveL [[110.690, 196.437, -1.500],[0.000000, 0.000000, -1.000000, 0.000000],[-1,0,-1,0],[9E+09,9E+09,9E+09,9E+09,9E+09,9E+09]],v6,fine,rdkTool,\WObj:=rdkWObj;
        MoveL [[110.770, 193.430, -1.500],[0.000000, 0.000000, 1.000000, 0.000000],[-1,0,-1,0],[9E+09,9E+09,9E+09,9E+09,9E+09,9E+09]],v6,fine,rdkTool,\WObj:=rdkWObj;
        MoveL [[110.800, 189.136, -1.500],[0.000000, 0.000000, -1.000000, 0.000000],[-1,0,-1,0],[9E+09,9E+09,9E+09,9E+09,9E+09,9E+09]],v6,fine,rdkTool,\WObj:=rdkWObj;
        MoveL [[110.766, 183.942, -1.500],[0.000000, 0.000000, -1.000000, 0.000000],[-1,0,-1,0],[9E+09,9E+09,9E+09,9E+09,9E+09,9E+09]],v6,fine,rdkTool,\WObj:=rdkWObj;
        MoveL [[110.748, 182.431, -1.500],[0.000000, 0.000000, -1.000000, 0.000000],[-1,0,-1,0],[9E+09,9E+09,9E+09,9E+09,9E+09,9E+09]],v6,fine,rdkTool,\WObj:=rdkWObj;
        MoveL [[110.728, 180.833, -1.500],[0.000000, 0.000000, -1.000000, 0.000000],[-1,0,-1,0],[9E+09,9E+09,9E+09,9E+09,9E+09,9E+09]],v6,fine,rdkTool,\WObj:=rdkWObj;
        MoveL [[110.671, 177.090, -1.500],[0.000000, 0.000000, -1.000000, 0.000000],[-1,0,-1,0],[9E+09,9E+09,9E+09,9E+09,9E+09,9E+09]],v6,fine,rdkTool,\WObj:=rdkWObj;
        MoveL [[110.600, 174.333, -1.500],[0.000000, 0.000000, 1.000000, 0.000000],[-1,0,-1,0],[9E+09,9E+09,9E+09,9E+09,9E+09,9E+09]],v6,fine,rdkTool,\WObj:=rdkWObj;
        MoveL [[110.513, 172.605, -1.500],[0.000000, 0.000000, 1.000000, 0.000000],[-1,0,-1,0],[9E+09,9E+09,9E+09,9E+09,9E+09,9E+09]],v6,fine,rdkTool,\WObj:=rdkWObj;
        MoveL [[110.397, 171.373, -1.500],[0.000000, 0.000000, 1.000000, 0.000000],[-1,0,-1,0],[9E+09,9E+09,9E+09,9E+09,9E+09,9E+09]],v6,fine,rdkTool,\WObj:=rdkWObj;
        MoveL [[110.238, 170.433, -1.500],[0.000000, 0.000000, -1.000000, 0.000000],[-1,0,-1,0],[9E+09,9E+09,9E+09,9E+09,9E+09,9E+09]],v6,fine,rdkTool,\WObj:=rdkWObj;
        MoveL [[109.937, 169.420, -1.500],[0.000000, 0.000000, -1.000000, 0.000000],[-1,0,-1,0],[9E+09,9E+09,9E+09,9E+09,9E+09,9E+09]],v6,fine,rdkTool,\WObj:=rdkWObj;
        MoveL [[109.681, 168.806, -1.500],[0.000000, 0.000000, -1.000000, 0.000000],[-1,0,-1,0],[9E+09,9E+09,9E+09,9E+09,9E+09,9E+09]],v6,fine,rdkTool,\WObj:=rdkWObj;
        MoveL [[109.405, 168.208, -1.500],[0.000000, 0.000000, -1.000000, 0.000000],[-1,0,-1,0],[9E+09,9E+09,9E+09,9E+09,9E+09,9E+09]],v6,fine,rdkTool,\WObj:=rdkWObj;
        MoveL [[108.794, 167.051, -1.500],[0.000000, 0.000000, -1.000000, 0.000000],[-1,0,-1,0],[9E+09,9E+09,9E+09,9E+09,9E+09,9E+09]],v6,fine,rdkTool,\WObj:=rdkWObj;
        MoveL [[107.797, 165.634, -1.500],[0.000000, 0.000000, -1.000000, 0.000000],[-1,0,-1,0],[9E+09,9E+09,9E+09,9E+09,9E+09,9E+09]],v6,fine,rdkTool,\WObj:=rdkWObj;
        MoveL [[106.224, 164.120, -1.500],[0.000000, 0.000000, -1.000000, 0.000000],[-1,0,-1,0],[9E+09,9E+09,9E+09,9E+09,9E+09,9E+09]],v6,fine,rdkTool,\WObj:=rdkWObj;
        MoveL [[105.083, 163.361, -1.500],[0.000000, 0.000000, 1.000000, 0.000000],[-1,0,-1,0],[9E+09,9E+09,9E+09,9E+09,9E+09,9E+09]],v6,fine,rdkTool,\WObj:=rdkWObj;
        MoveL [[103.610, 162.643, -1.500],[0.000000, 0.000000, 1.000000, 0.000000],[-1,0,-1,0],[9E+09,9E+09,9E+09,9E+09,9E+09,9E+09]],v6,fine,rdkTool,\WObj:=rdkWObj;
        MoveL [[102.063, 162.107, -1.500],[0.000000, 0.000000, 1.000000, 0.000000],[-1,0,-1,0],[9E+09,9E+09,9E+09,9E+09,9E+09,9E+09]],v6,fine,rdkTool,\WObj:=rdkWObj;
        MoveL [[100.332, 161.688, -1.500],[0.000000, 0.000000, -1.000000, 0.000000],[-1,0,-1,0],[9E+09,9E+09,9E+09,9E+09,9E+09,9E+09]],v6,fine,rdkTool,\WObj:=rdkWObj;
        MoveL [[98.764, 161.425, -1.500],[0.000000, 0.000000, -1.000000, 0.000000],[-1,0,-1,0],[9E+09,9E+09,9E+09,9E+09,9E+09,9E+09]],v6,fine,rdkTool,\WObj:=rdkWObj;
        MoveL [[98.372, 161.375, -1.500],[0.000000, 0.000000, 1.000000, 0.000000],[-1,0,-1,0],[9E+09,9E+09,9E+09,9E+09,9E+09,9E+09]],v6,fine,rdkTool,\WObj:=rdkWObj;
        MoveL [[96.988, 161.242, -1.500],[0.000000, 0.000000, -1.000000, 0.000000],[-1,0,-1,0],[9E+09,9E+09,9E+09,9E+09,9E+09,9E+09]],v6,fine,rdkTool,\WObj:=rdkWObj;
        MoveL [[94.803, 161.106, -1.500],[0.000000, 0.000000, -1.000000, 0.000000],[-1,0,-1,0],[9E+09,9E+09,9E+09,9E+09,9E+09,9E+09]],v6,fine,rdkTool,\WObj:=rdkWObj;
        MoveL [[88.790, 160.970, -1.500],[0.000000, 0.000000, -1.000000, 0.000000],[-1,0,-1,0],[9E+09,9E+09,9E+09,9E+09,9E+09,9E+09]],v6,fine,rdkTool,\WObj:=rdkWObj;
        MoveL [[86.575, 161.010, -1.500],[0.000000, 0.000000, 1.000000, 0.000000],[-1,0,-1,0],[9E+09,9E+09,9E+09,9E+09,9E+09,9E+09]],v6,fine,rdkTool,\WObj:=rdkWObj;
        MoveL [[85.341, 161.080, -1.500],[0.000000, 0.000000, 1.000000, 0.000000],[-1,0,-1,0],[9E+09,9E+09,9E+09,9E+09,9E+09,9E+09]],v6,fine,rdkTool,\WObj:=rdkWObj;
        MoveL [[84.732, 161.150, -1.500],[0.000000, 0.000000, -1.000000, 0.000000],[-1,0,-1,0],[9E+09,9E+09,9E+09,9E+09,9E+09,9E+09]],v6,fine,rdkTool,\WObj:=rdkWObj;
        MoveL [[84.453, 161.210, -1.500],[0.000000, 0.000000, 1.000000, 0.000000],[-1,0,-1,0],[9E+09,9E+09,9E+09,9E+09,9E+09,9E+09]],v6,fine,rdkTool,\WObj:=rdkWObj;
        MoveL [[84.389, 161.232, -1.500],[0.000000, 0.000000, 1.000000, 0.000000],[-1,0,-1,0],[9E+09,9E+09,9E+09,9E+09,9E+09,9E+09]],v6,fine,rdkTool,\WObj:=rdkWObj;
        MoveL [[84.376, 161.239, -1.500],[0.000000, 0.000000, -1.000000, 0.000000],[-1,0,-1,0],[9E+09,9E+09,9E+09,9E+09,9E+09,9E+09]],v6,fine,rdkTool,\WObj:=rdkWObj;
        MoveL [[84.349, 161.264, -1.500],[0.000000, 0.000000, 1.000000, 0.000000],[-1,0,-1,0],[9E+09,9E+09,9E+09,9E+09,9E+09,9E+09]],v6,fine,rdkTool,\WObj:=rdkWObj;
        MoveL [[84.297, 161.357, -1.500],[0.000000, 0.000000, -1.000000, 0.000000],[-1,0,-1,0],[9E+09,9E+09,9E+09,9E+09,9E+09,9E+09]],v6,fine,rdkTool,\WObj:=rdkWObj;
        MoveL [[84.238, 161.555, -1.500],[0.000000, 0.000000, -1.000000, 0.000000],[-1,0,-1,0],[9E+09,9E+09,9E+09,9E+09,9E+09,9E+09]],v6,fine,rdkTool,\WObj:=rdkWObj;
        MoveL [[84.168, 161.962, -1.500],[0.000000, 0.000000, 1.000000, 0.000000],[-1,0,-1,0],[9E+09,9E+09,9E+09,9E+09,9E+09,9E+09]],v6,fine,rdkTool,\WObj:=rdkWObj;
        MoveL [[84.087, 162.773, -1.500],[0.000000, 0.000000, -1.000000, 0.000000],[-1,0,-1,0],[9E+09,9E+09,9E+09,9E+09,9E+09,9E+09]],v6,fine,rdkTool,\WObj:=rdkWObj;
        MoveL [[84.006, 164.230, -1.500],[0.000000, 0.000000, -1.000000, 0.000000],[-1,0,-1,0],[9E+09,9E+09,9E+09,9E+09,9E+09,9E+09]],v6,fine,rdkTool,\WObj:=rdkWObj;
        MoveL [[83.933, 166.636, -1.500],[0.000000, 0.000000, 1.000000, 0.000000],[-1,0,-1,0],[9E+09,9E+09,9E+09,9E+09,9E+09,9E+09]],v6,fine,rdkTool,\WObj:=rdkWObj;
        MoveL [[83.870, 170.702, -1.500],[0.000000, 0.000000, -1.000000, 0.000000],[-1,0,-1,0],[9E+09,9E+09,9E+09,9E+09,9E+09,9E+09]],v6,fine,rdkTool,\WObj:=rdkWObj;
        MoveL [[83.829, 177.228, -1.500],[0.000000, 0.000000, 1.000000, 0.000000],[-1,0,-1,0],[9E+09,9E+09,9E+09,9E+09,9E+09,9E+09]],v6,fine,rdkTool,\WObj:=rdkWObj;
        MoveL [[83.816, 186.193, -1.500],[0.000000, 0.000000, -1.000000, 0.000000],[-1,0,-1,0],[9E+09,9E+09,9E+09,9E+09,9E+09,9E+09]],v6,fine,rdkTool,\WObj:=rdkWObj;
        MoveL [[83.816, 186.193, 3.000],[0.000000, 0.000000, -1.000000, 0.000000],[-1,0,-1,0],[9E+09,9E+09,9E+09,9E+09,9E+09,9E+09]],v2,fine,rdkTool,\WObj:=rdkWObj;
        MoveL [[83.816, 186.193, 15.000],[0.000000, 0.000000, -1.000000, 0.000000],[-1,0,-1,0],[9E+09,9E+09,9E+09,9E+09,9E+09,9E+09]],v1000,fine,rdkTool,\WObj:=rdkWObj;
        MoveL [[0.000, 0.000, 15.000],[0.000000, 0.000000, -1.000000, 0.000000],[-1,0,-1,0],[9E+09,9E+09,9E+09,9E+09,9E+09,9E+09]],v1000,fine,rdkTool,\WObj:=rdkWObj;
        MoveL [[0.000, 0.000, 15.000],[0.000000, 0.000000, -1.000000, 0.000000],[-1,0,-1,0],[9E+09,9E+09,9E+09,9E+09,9E+09,9E+09]],v1000,fine,rdkTool,\WObj:=rdkWObj;
        MoveL [[0.000, 0.000, 115.000],[0.000000, 0.000000, 1.000000, 0.000000],[-1,0,-1,0],[9E+09,9E+09,9E+09,9E+09,9E+09,9E+09]],v1000,fine,rdkTool,\WObj:=rdkWObj;
    ENDPROC
    
ENDMODULE
