%%%
  VERSION:1
  LANGUAGE:ENGLISH
%%%

MODULE MOD_Milling
    
    PERS tooldata rdkTool := [TRUE,[[0,0,141.258],[1,0,0,0]],[2,[0,0,15],[1,0,0,0],0,0,0.005]];
    PERS wobjdata rdkWObj := [FALSE, TRUE, "", [[226.5,-1979.7,548.6],[1,0,0,0]],[[0,0,0],[1,0,0,0]]];

    ! -------------------------------
    ! Code added by Matthijs Visser 
    ! Define your variables here
    ! ...
    VAR speeddata v2 := [20,500,500,500];
    VAR speeddata v6 := [40,500,500,500];


    ! -------------------------------
    ! Define your functions here
    ! ...
    PROC Main()
          Milling;
    ENDPROC
    
    PROC Milling()
        ! Program generated by RoboDK 2.5.8 for ABB IRB 6400 2.4 120 on 30/09/2016 12:43:48
        ! Using nominal kinematics.
        MoveL [[261.520, -7.017, -1.500],[0.000000, 0.000000, -1.000000, 0.000000],[-1,0,-1,0],[9E+09,9E+09,9E+09,9E+09,9E+09,9E+09]],v6,fine,rdkTool,\WObj:=rdkWObj;
        MoveL [[261.521, -7.365, -1.500],[0.000000, 0.000000, -1.000000, 0.000000],[-1,0,-1,0],[9E+09,9E+09,9E+09,9E+09,9E+09,9E+09]],v6,fine,rdkTool,\WObj:=rdkWObj;
        MoveL [[261.523, -7.884, -1.500],[0.000000, 0.000000, 1.000000, 0.000000],[-1,0,-1,0],[9E+09,9E+09,9E+09,9E+09,9E+09,9E+09]],v6,fine,rdkTool,\WObj:=rdkWObj;
        MoveL [[261.525, -8.566, -1.500],[0.000000, 0.000000, 1.000000, 0.000000],[-1,0,-1,0],[9E+09,9E+09,9E+09,9E+09,9E+09,9E+09]],v6,fine,rdkTool,\WObj:=rdkWObj;
        MoveL [[261.526, -9.047, -1.500],[0.000000, 0.000000, -1.000000, 0.000000],[-1,0,-1,0],[9E+09,9E+09,9E+09,9E+09,9E+09,9E+09]],v6,fine,rdkTool,\WObj:=rdkWObj;
        MoveL [[261.526, -9.047, 3.000],[0.000000, 0.000000, 1.000000, 0.000000],[-1,0,-1,0],[9E+09,9E+09,9E+09,9E+09,9E+09,9E+09]],v2,fine,rdkTool,\WObj:=rdkWObj;
        MoveL [[261.526, -9.047, 15.000],[0.000000, 0.000000, -1.000000, 0.000000],[-1,0,-1,0],[9E+09,9E+09,9E+09,9E+09,9E+09,9E+09]],v1000,fine,rdkTool,\WObj:=rdkWObj;
        MoveL [[265.626, 11.617, 15.000],[0.000000, 0.000000, -1.000000, 0.000000],[-1,0,-1,0],[9E+09,9E+09,9E+09,9E+09,9E+09,9E+09]],v1000,fine,rdkTool,\WObj:=rdkWObj;
        MoveL [[265.626, 11.617, 3.000],[0.000000, 0.000000, 1.000000, 0.000000],[-1,0,-1,0],[9E+09,9E+09,9E+09,9E+09,9E+09,9E+09]],v1000,fine,rdkTool,\WObj:=rdkWObj;
        MoveL [[265.626, 11.617, -1.500],[0.000000, 0.000000, -1.000000, 0.000000],[-1,0,-1,0],[9E+09,9E+09,9E+09,9E+09,9E+09,9E+09]],v2,fine,rdkTool,\WObj:=rdkWObj;
        MoveL [[265.960, 11.615, -1.500],[0.000000, 0.000000, -1.000000, 0.000000],[-1,0,-1,0],[9E+09,9E+09,9E+09,9E+09,9E+09,9E+09]],v6,fine,rdkTool,\WObj:=rdkWObj;
        MoveL [[268.554, 11.491, -1.500],[0.000000, 0.000000, -1.000000, 0.000000],[-1,0,-1,0],[9E+09,9E+09,9E+09,9E+09,9E+09,9E+09]],v6,fine,rdkTool,\WObj:=rdkWObj;
        MoveL [[269.757, 11.354, -1.500],[0.000000, 0.000000, 1.000000, 0.000000],[-1,0,-1,0],[9E+09,9E+09,9E+09,9E+09,9E+09,9E+09]],v6,fine,rdkTool,\WObj:=rdkWObj;
        MoveL [[270.429, 11.231, -1.500],[0.000000, 0.000000, -1.000000, 0.000000],[-1,0,-1,0],[9E+09,9E+09,9E+09,9E+09,9E+09,9E+09]],v6,fine,rdkTool,\WObj:=rdkWObj;
        MoveL [[270.764, 11.137, -1.500],[0.000000, 0.000000, -1.000000, 0.000000],[-1,0,-1,0],[9E+09,9E+09,9E+09,9E+09,9E+09,9E+09]],v6,fine,rdkTool,\WObj:=rdkWObj;
        MoveL [[270.852, 11.103, -1.500],[0.000000, 0.000000, -1.000000, 0.000000],[-1,0,-1,0],[9E+09,9E+09,9E+09,9E+09,9E+09,9E+09]],v6,fine,rdkTool,\WObj:=rdkWObj;
        MoveL [[270.871, 11.095, -1.500],[0.000000, 0.000000, -1.000000, 0.000000],[-1,0,-1,0],[9E+09,9E+09,9E+09,9E+09,9E+09,9E+09]],v6,fine,rdkTool,\WObj:=rdkWObj;
        MoveL [[271.116, 10.966, -1.500],[0.000000, 0.000000, -1.000000, 0.000000],[-1,0,-1,0],[9E+09,9E+09,9E+09,9E+09,9E+09,9E+09]],v6,fine,rdkTool,\WObj:=rdkWObj;
        MoveL [[271.688, 10.528, -1.500],[0.000000, 0.000000, 1.000000, 0.000000],[-1,0,-1,0],[9E+09,9E+09,9E+09,9E+09,9E+09,9E+09]],v6,fine,rdkTool,\WObj:=rdkWObj;
        MoveL [[272.269, 9.841, -1.500],[0.000000, 0.000000, 1.000000, 0.000000],[-1,0,-1,0],[9E+09,9E+09,9E+09,9E+09,9E+09,9E+09]],v6,fine,rdkTool,\WObj:=rdkWObj;
        MoveL [[272.800, 8.876, -1.500],[0.000000, 0.000000, -1.000000, 0.000000],[-1,0,-1,0],[9E+09,9E+09,9E+09,9E+09,9E+09,9E+09]],v6,fine,rdkTool,\WObj:=rdkWObj;
        MoveL [[273.189, 7.565, -1.500],[0.000000, 0.000000, -1.000000, 0.000000],[-1,0,-1,0],[9E+09,9E+09,9E+09,9E+09,9E+09,9E+09]],v6,fine,rdkTool,\WObj:=rdkWObj;
        MoveL [[273.257, 6.595, -1.500],[0.000000, 0.000000, -1.000000, 0.000000],[-1,0,-1,0],[9E+09,9E+09,9E+09,9E+09,9E+09,9E+09]],v6,fine,rdkTool,\WObj:=rdkWObj;
        MoveL [[273.214, 6.130, -1.500],[0.000000, 0.000000, -1.000000, 0.000000],[-1,0,-1,0],[9E+09,9E+09,9E+09,9E+09,9E+09,9E+09]],v6,fine,rdkTool,\WObj:=rdkWObj;
        MoveL [[273.193, 6.007, -1.500],[0.000000, 0.000000, -1.000000, 0.000000],[-1,0,-1,0],[9E+09,9E+09,9E+09,9E+09,9E+09,9E+09]],v6,fine,rdkTool,\WObj:=rdkWObj;
        MoveL [[273.029, 5.283, -1.500],[0.000000, 0.000000, 1.000000, 0.000000],[-1,0,-1,0],[9E+09,9E+09,9E+09,9E+09,9E+09,9E+09]],v6,fine,rdkTool,\WObj:=rdkWObj;
        MoveL [[272.798, 4.583, -1.500],[0.000000, 0.000000, 1.000000, 0.000000],[-1,0,-1,0],[9E+09,9E+09,9E+09,9E+09,9E+09,9E+09]],v6,fine,rdkTool,\WObj:=rdkWObj;
        MoveL [[272.493, 3.967, -1.500],[0.000000, 0.000000, -1.000000, 0.000000],[-1,0,-1,0],[9E+09,9E+09,9E+09,9E+09,9E+09,9E+09]],v6,fine,rdkTool,\WObj:=rdkWObj;
        MoveL [[272.201, 3.559, -1.500],[0.000000, 0.000000, 1.000000, 0.000000],[-1,0,-1,0],[9E+09,9E+09,9E+09,9E+09,9E+09,9E+09]],v6,fine,rdkTool,\WObj:=rdkWObj;
        MoveL [[271.581, 2.999, -1.500],[0.000000, 0.000000, 1.000000, 0.000000],[-1,0,-1,0],[9E+09,9E+09,9E+09,9E+09,9E+09,9E+09]],v6,fine,rdkTool,\WObj:=rdkWObj;
        MoveL [[270.884, 2.625, -1.500],[0.000000, 0.000000, -1.000000, 0.000000],[-1,0,-1,0],[9E+09,9E+09,9E+09,9E+09,9E+09,9E+09]],v6,fine,rdkTool,\WObj:=rdkWObj;
        MoveL [[270.070, 2.361, -1.500],[0.000000, 0.000000, 1.000000, 0.000000],[-1,0,-1,0],[9E+09,9E+09,9E+09,9E+09,9E+09,9E+09]],v6,fine,rdkTool,\WObj:=rdkWObj;
        MoveL [[269.082, 2.175, -1.500],[0.000000, 0.000000, 1.000000, 0.000000],[-1,0,-1,0],[9E+09,9E+09,9E+09,9E+09,9E+09,9E+09]],v6,fine,rdkTool,\WObj:=rdkWObj;
        MoveL [[267.867, 2.057, -1.500],[0.000000, 0.000000, -1.000000, 0.000000],[-1,0,-1,0],[9E+09,9E+09,9E+09,9E+09,9E+09,9E+09]],v6,fine,rdkTool,\WObj:=rdkWObj;
        MoveL [[266.488, 2.005, -1.500],[0.000000, 0.000000, -1.000000, 0.000000],[-1,0,-1,0],[9E+09,9E+09,9E+09,9E+09,9E+09,9E+09]],v6,fine,rdkTool,\WObj:=rdkWObj;
        MoveL [[265.678, 1.998, -1.500],[0.000000, 0.000000, 1.000000, 0.000000],[-1,0,-1,0],[9E+09,9E+09,9E+09,9E+09,9E+09,9E+09]],v6,fine,rdkTool,\WObj:=rdkWObj;
        MoveL [[265.678, 1.998, 3.000],[0.000000, 0.000000, -1.000000, 0.000000],[-1,0,-1,0],[9E+09,9E+09,9E+09,9E+09,9E+09,9E+09]],v2,fine,rdkTool,\WObj:=rdkWObj;
        MoveL [[265.678, 1.998, 15.000],[0.000000, 0.000000, 1.000000, 0.000000],[-1,0,-1,0],[9E+09,9E+09,9E+09,9E+09,9E+09,9E+09]],v1000,fine,rdkTool,\WObj:=rdkWObj;
        MoveL [[266.006, 10.606, 15.000],[0.000000, 0.000000, -1.000000, 0.000000],[-1,0,-1,0],[9E+09,9E+09,9E+09,9E+09,9E+09,9E+09]],v1000,fine,rdkTool,\WObj:=rdkWObj;
        MoveL [[266.006, 10.606, 3.000],[0.000000, 0.000000, -1.000000, 0.000000],[-1,0,-1,0],[9E+09,9E+09,9E+09,9E+09,9E+09,9E+09]],v1000,fine,rdkTool,\WObj:=rdkWObj;
        MoveL [[266.006, 10.606, -1.500],[0.000000, 0.000000, -1.000000, 0.000000],[-1,0,-1,0],[9E+09,9E+09,9E+09,9E+09,9E+09,9E+09]],v2,fine,rdkTool,\WObj:=rdkWObj;
        MoveL [[267.016, 10.642, -1.500],[0.000000, 0.000000, -1.000000, 0.000000],[-1,0,-1,0],[9E+09,9E+09,9E+09,9E+09,9E+09,9E+09]],v6,fine,rdkTool,\WObj:=rdkWObj;
        MoveL [[267.929, 10.650, -1.500],[0.000000, 0.000000, -1.000000, 0.000000],[-1,0,-1,0],[9E+09,9E+09,9E+09,9E+09,9E+09,9E+09]],v6,fine,rdkTool,\WObj:=rdkWObj;
        MoveL [[268.590, 10.610, -1.500],[0.000000, 0.000000, -1.000000, 0.000000],[-1,0,-1,0],[9E+09,9E+09,9E+09,9E+09,9E+09,9E+09]],v6,fine,rdkTool,\WObj:=rdkWObj;
        MoveL [[269.107, 10.513, -1.500],[0.000000, 0.000000, 1.000000, 0.000000],[-1,0,-1,0],[9E+09,9E+09,9E+09,9E+09,9E+09,9E+09]],v6,fine,rdkTool,\WObj:=rdkWObj;
        MoveL [[269.625, 10.296, -1.500],[0.000000, 0.000000, 1.000000, 0.000000],[-1,0,-1,0],[9E+09,9E+09,9E+09,9E+09,9E+09,9E+09]],v6,fine,rdkTool,\WObj:=rdkWObj;
        MoveL [[269.919, 10.097, -1.500],[0.000000, 0.000000, -1.000000, 0.000000],[-1,0,-1,0],[9E+09,9E+09,9E+09,9E+09,9E+09,9E+09]],v6,fine,rdkTool,\WObj:=rdkWObj;
        MoveL [[270.293, 9.777, -1.500],[0.000000, 0.000000, -1.000000, 0.000000],[-1,0,-1,0],[9E+09,9E+09,9E+09,9E+09,9E+09,9E+09]],v6,fine,rdkTool,\WObj:=rdkWObj;
        MoveL [[270.701, 9.382, -1.500],[0.000000, 0.000000, -1.000000, 0.000000],[-1,0,-1,0],[9E+09,9E+09,9E+09,9E+09,9E+09,9E+09]],v6,fine,rdkTool,\WObj:=rdkWObj;
        MoveL [[270.903, 9.167, -1.500],[0.000000, 0.000000, -1.000000, 0.000000],[-1,0,-1,0],[9E+09,9E+09,9E+09,9E+09,9E+09,9E+09]],v6,fine,rdkTool,\WObj:=rdkWObj;
        MoveL [[271.486, 8.344, -1.500],[0.000000, 0.000000, 1.000000, 0.000000],[-1,0,-1,0],[9E+09,9E+09,9E+09,9E+09,9E+09,9E+09]],v6,fine,rdkTool,\WObj:=rdkWObj;
        MoveL [[271.913, 7.160, -1.500],[0.000000, 0.000000, 1.000000, 0.000000],[-1,0,-1,0],[9E+09,9E+09,9E+09,9E+09,9E+09,9E+09]],v6,fine,rdkTool,\WObj:=rdkWObj;
        MoveL [[271.910, 5.858, -1.500],[0.000000, 0.000000, -1.000000, 0.000000],[-1,0,-1,0],[9E+09,9E+09,9E+09,9E+09,9E+09,9E+09]],v6,fine,rdkTool,\WObj:=rdkWObj;
        MoveL [[271.284, 4.476, -1.500],[0.000000, 0.000000, 1.000000, 0.000000],[-1,0,-1,0],[9E+09,9E+09,9E+09,9E+09,9E+09,9E+09]],v6,fine,rdkTool,\WObj:=rdkWObj;
        MoveL [[270.652, 3.854, -1.500],[0.000000, 0.000000, 1.000000, 0.000000],[-1,0,-1,0],[9E+09,9E+09,9E+09,9E+09,9E+09,9E+09]],v6,fine,rdkTool,\WObj:=rdkWObj;
        MoveL [[269.927, 3.423, -1.500],[0.000000, 0.000000, -1.000000, 0.000000],[-1,0,-1,0],[9E+09,9E+09,9E+09,9E+09,9E+09,9E+09]],v6,fine,rdkTool,\WObj:=rdkWObj;
        MoveL [[269.805, 3.372, -1.500],[0.000000, 0.000000, -1.000000, 0.000000],[-1,0,-1,0],[9E+09,9E+09,9E+09,9E+09,9E+09,9E+09]],v6,fine,rdkTool,\WObj:=rdkWObj;
        MoveL [[269.421, 3.248, -1.500],[0.000000, 0.000000, 1.000000, 0.000000],[-1,0,-1,0],[9E+09,9E+09,9E+09,9E+09,9E+09,9E+09]],v6,fine,rdkTool,\WObj:=rdkWObj;
        MoveL [[268.719, 3.098, -1.500],[0.000000, 0.000000, -1.000000, 0.000000],[-1,0,-1,0],[9E+09,9E+09,9E+09,9E+09,9E+09,9E+09]],v6,fine,rdkTool,\WObj:=rdkWObj;
        MoveL [[267.650, 2.969, -1.500],[0.000000, 0.000000, 1.000000, 0.000000],[-1,0,-1,0],[9E+09,9E+09,9E+09,9E+09,9E+09,9E+09]],v6,fine,rdkTool,\WObj:=rdkWObj;
        MoveL [[265.109, 2.931, -1.500],[0.000000, 0.000000, -1.000000, 0.000000],[-1,0,-1,0],[9E+09,9E+09,9E+09,9E+09,9E+09,9E+09]],v6,fine,rdkTool,\WObj:=rdkWObj;
        MoveL [[264.030, 3.027, -1.500],[0.000000, 0.000000, 1.000000, 0.000000],[-1,0,-1,0],[9E+09,9E+09,9E+09,9E+09,9E+09,9E+09]],v6,fine,rdkTool,\WObj:=rdkWObj;
        MoveL [[263.369, 3.148, -1.500],[0.000000, 0.000000, 1.000000, 0.000000],[-1,0,-1,0],[9E+09,9E+09,9E+09,9E+09,9E+09,9E+09]],v6,fine,rdkTool,\WObj:=rdkWObj;
        MoveL [[262.989, 3.266, -1.500],[0.000000, 0.000000, 1.000000, 0.000000],[-1,0,-1,0],[9E+09,9E+09,9E+09,9E+09,9E+09,9E+09]],v6,fine,rdkTool,\WObj:=rdkWObj;
        MoveL [[262.768, 3.380, -1.500],[0.000000, 0.000000, -1.000000, 0.000000],[-1,0,-1,0],[9E+09,9E+09,9E+09,9E+09,9E+09,9E+09]],v6,fine,rdkTool,\WObj:=rdkWObj;
        MoveL [[262.661, 3.482, -1.500],[0.000000, 0.000000, 1.000000, 0.000000],[-1,0,-1,0],[9E+09,9E+09,9E+09,9E+09,9E+09,9E+09]],v6,fine,rdkTool,\WObj:=rdkWObj;
        MoveL [[262.634, 3.532, -1.500],[0.000000, 0.000000, 1.000000, 0.000000],[-1,0,-1,0],[9E+09,9E+09,9E+09,9E+09,9E+09,9E+09]],v6,fine,rdkTool,\WObj:=rdkWObj;
        MoveL [[262.629, 3.545, -1.500],[0.000000, 0.000000, 1.000000, 0.000000],[-1,0,-1,0],[9E+09,9E+09,9E+09,9E+09,9E+09,9E+09]],v6,fine,rdkTool,\WObj:=rdkWObj;
        MoveL [[262.612, 3.605, -1.500],[0.000000, 0.000000, 1.000000, 0.000000],[-1,0,-1,0],[9E+09,9E+09,9E+09,9E+09,9E+09,9E+09]],v6,fine,rdkTool,\WObj:=rdkWObj;
        MoveL [[262.567, 3.882, -1.500],[0.000000, 0.000000, -1.000000, 0.000000],[-1,0,-1,0],[9E+09,9E+09,9E+09,9E+09,9E+09,9E+09]],v6,fine,rdkTool,\WObj:=rdkWObj;
        MoveL [[262.520, 4.525, -1.500],[0.000000, 0.000000, 1.000000, 0.000000],[-1,0,-1,0],[9E+09,9E+09,9E+09,9E+09,9E+09,9E+09]],v6,fine,rdkTool,\WObj:=rdkWObj;
        MoveL [[262.497, 5.650, -1.500],[0.000000, 0.000000, -1.000000, 0.000000],[-1,0,-1,0],[9E+09,9E+09,9E+09,9E+09,9E+09,9E+09]],v6,fine,rdkTool,\WObj:=rdkWObj;
        MoveL [[262.497, 5.697, -1.500],[0.000000, 0.000000, -1.000000, 0.000000],[-1,0,-1,0],[9E+09,9E+09,9E+09,9E+09,9E+09,9E+09]],v6,fine,rdkTool,\WObj:=rdkWObj;
        MoveL [[262.499, 5.977, -1.500],[0.000000, 0.000000, 1.000000, 0.000000],[-1,0,-1,0],[9E+09,9E+09,9E+09,9E+09,9E+09,9E+09]],v6,fine,rdkTool,\WObj:=rdkWObj;
        MoveL [[262.527, 7.143, -1.500],[0.000000, 0.000000, 1.000000, 0.000000],[-1,0,-1,0],[9E+09,9E+09,9E+09,9E+09,9E+09,9E+09]],v6,fine,rdkTool,\WObj:=rdkWObj;
        MoveL [[262.534, 7.311, -1.500],[0.000000, 0.000000, -1.000000, 0.000000],[-1,0,-1,0],[9E+09,9E+09,9E+09,9E+09,9E+09,9E+09]],v6,fine,rdkTool,\WObj:=rdkWObj;
        MoveL [[262.534, 7.311, 3.000],[0.000000, 0.000000, -1.000000, 0.000000],[-1,0,-1,0],[9E+09,9E+09,9E+09,9E+09,9E+09,9E+09]],v2,fine,rdkTool,\WObj:=rdkWObj;
        MoveL [[262.534, 7.311, 15.000],[0.000000, 0.000000, -1.000000, 0.000000],[-1,0,-1,0],[9E+09,9E+09,9E+09,9E+09,9E+09,9E+09]],v1000,fine,rdkTool,\WObj:=rdkWObj;
        MoveL [[286.382, -15.864, 15.000],[0.000000, 0.000000, -1.000000, 0.000000],[-1,0,-1,0],[9E+09,9E+09,9E+09,9E+09,9E+09,9E+09]],v1000,fine,rdkTool,\WObj:=rdkWObj;
        MoveL [[286.382, -15.864, 3.000],[0.000000, 0.000000, -1.000000, 0.000000],[-1,0,-1,0],[9E+09,9E+09,9E+09,9E+09,9E+09,9E+09]],v1000,fine,rdkTool,\WObj:=rdkWObj;
        MoveL [[286.382, -15.864, -1.500],[0.000000, 0.000000, -1.000000, 0.000000],[-1,0,-1,0],[9E+09,9E+09,9E+09,9E+09,9E+09,9E+09]],v2,fine,rdkTool,\WObj:=rdkWObj;
        MoveL [[285.006, -15.842, -1.500],[0.000000, 0.000000, -1.000000, 0.000000],[-1,0,-1,0],[9E+09,9E+09,9E+09,9E+09,9E+09,9E+09]],v6,fine,rdkTool,\WObj:=rdkWObj;
        MoveL [[283.968, -15.780, -1.500],[0.000000, 0.000000, -1.000000, 0.000000],[-1,0,-1,0],[9E+09,9E+09,9E+09,9E+09,9E+09,9E+09]],v6,fine,rdkTool,\WObj:=rdkWObj;
        MoveL [[283.322, -15.698, -1.500],[0.000000, 0.000000, -1.000000, 0.000000],[-1,0,-1,0],[9E+09,9E+09,9E+09,9E+09,9E+09,9E+09]],v6,fine,rdkTool,\WObj:=rdkWObj;
        MoveL [[282.939, -15.610, -1.500],[0.000000, 0.000000, -1.000000, 0.000000],[-1,0,-1,0],[9E+09,9E+09,9E+09,9E+09,9E+09,9E+09]],v6,fine,rdkTool,\WObj:=rdkWObj;
        MoveL [[282.736, -15.526, -1.500],[0.000000, 0.000000, -1.000000, 0.000000],[-1,0,-1,0],[9E+09,9E+09,9E+09,9E+09,9E+09,9E+09]],v6,fine,rdkTool,\WObj:=rdkWObj;
        MoveL [[282.633, -15.446, -1.500],[0.000000, 0.000000, -1.000000, 0.000000],[-1,0,-1,0],[9E+09,9E+09,9E+09,9E+09,9E+09,9E+09]],v6,fine,rdkTool,\WObj:=rdkWObj;
        MoveL [[282.602, -15.395, -1.500],[0.000000, 0.000000, -1.000000, 0.000000],[-1,0,-1,0],[9E+09,9E+09,9E+09,9E+09,9E+09,9E+09]],v6,fine,rdkTool,\WObj:=rdkWObj;
        MoveL [[282.595, -15.360, -1.500],[0.000000, 0.000000, -1.000000, 0.000000],[-1,0,-1,0],[9E+09,9E+09,9E+09,9E+09,9E+09,9E+09]],v6,fine,rdkTool,\WObj:=rdkWObj;
        MoveL [[282.594, -15.350, -1.500],[0.000000, 0.000000, 1.000000, 0.000000],[-1,0,-1,0],[9E+09,9E+09,9E+09,9E+09,9E+09,9E+09]],v6,fine,rdkTool,\WObj:=rdkWObj;
        MoveL [[282.597, -15.317, -1.500],[0.000000, 0.000000, -1.000000, 0.000000],[-1,0,-1,0],[9E+09,9E+09,9E+09,9E+09,9E+09,9E+09]],v6,fine,rdkTool,\WObj:=rdkWObj;
        MoveL [[282.643, -15.102, -1.500],[0.000000, 0.000000, -1.000000, 0.000000],[-1,0,-1,0],[9E+09,9E+09,9E+09,9E+09,9E+09,9E+09]],v6,fine,rdkTool,\WObj:=rdkWObj;
        MoveL [[282.818, -14.507, -1.500],[0.000000, 0.000000, 1.000000, 0.000000],[-1,0,-1,0],[9E+09,9E+09,9E+09,9E+09,9E+09,9E+09]],v6,fine,rdkTool,\WObj:=rdkWObj;
        MoveL [[283.349, -12.896, -1.500],[0.000000, 0.000000, -1.000000, 0.000000],[-1,0,-1,0],[9E+09,9E+09,9E+09,9E+09,9E+09,9E+09]],v6,fine,rdkTool,\WObj:=rdkWObj;
        MoveL [[284.575, -9.389, -1.500],[0.000000, 0.000000, -1.000000, 0.000000],[-1,0,-1,0],[9E+09,9E+09,9E+09,9E+09,9E+09,9E+09]],v6,fine,rdkTool,\WObj:=rdkWObj;
        MoveL [[286.740, -3.391, -1.500],[0.000000, 0.000000, 1.000000, 0.000000],[-1,0,-1,0],[9E+09,9E+09,9E+09,9E+09,9E+09,9E+09]],v6,fine,rdkTool,\WObj:=rdkWObj;
        MoveL [[291.006, 8.091, -1.500],[0.000000, 0.000000, -1.000000, 0.000000],[-1,0,-1,0],[9E+09,9E+09,9E+09,9E+09,9E+09,9E+09]],v6,fine,rdkTool,\WObj:=rdkWObj;
        MoveL [[292.901, 13.039, -1.500],[0.000000, 0.000000, 1.000000, 0.000000],[-1,0,-1,0],[9E+09,9E+09,9E+09,9E+09,9E+09,9E+09]],v6,fine,rdkTool,\WObj:=rdkWObj;
        MoveL [[293.810, 15.335, -1.500],[0.000000, 0.000000, 1.000000, 0.000000],[-1,0,-1,0],[9E+09,9E+09,9E+09,9E+09,9E+09,9E+09]],v6,fine,rdkTool,\WObj:=rdkWObj;
        MoveL [[294.297, 16.507, -1.500],[0.000000, 0.000000, -1.000000, 0.000000],[-1,0,-1,0],[9E+09,9E+09,9E+09,9E+09,9E+09,9E+09]],v6,fine,rdkTool,\WObj:=rdkWObj;
        MoveL [[294.490, 16.936, -1.500],[0.000000, 0.000000, 1.000000, 0.000000],[-1,0,-1,0],[9E+09,9E+09,9E+09,9E+09,9E+09,9E+09]],v6,fine,rdkTool,\WObj:=rdkWObj;
        MoveL [[294.608, 17.165, -1.500],[0.000000, 0.000000, -1.000000, 0.000000],[-1,0,-1,0],[9E+09,9E+09,9E+09,9E+09,9E+09,9E+09]],v6,fine,rdkTool,\WObj:=rdkWObj;
        MoveL [[294.645, 17.219, -1.500],[0.000000, 0.000000, -1.000000, 0.000000],[-1,0,-1,0],[9E+09,9E+09,9E+09,9E+09,9E+09,9E+09]],v6,fine,rdkTool,\WObj:=rdkWObj;
        MoveL [[294.655, 17.228, -1.500],[0.000000, 0.000000, -1.000000, 0.000000],[-1,0,-1,0],[9E+09,9E+09,9E+09,9E+09,9E+09,9E+09]],v6,fine,rdkTool,\WObj:=rdkWObj;
        MoveL [[294.693, 17.249, -1.500],[0.000000, 0.000000, 1.000000, 0.000000],[-1,0,-1,0],[9E+09,9E+09,9E+09,9E+09,9E+09,9E+09]],v6,fine,rdkTool,\WObj:=rdkWObj;
        MoveL [[294.880, 17.315, -1.500],[0.000000, 0.000000, -1.000000, 0.000000],[-1,0,-1,0],[9E+09,9E+09,9E+09,9E+09,9E+09,9E+09]],v6,fine,rdkTool,\WObj:=rdkWObj;
        MoveL [[295.298, 17.392, -1.500],[0.000000, 0.000000, -1.000000, 0.000000],[-1,0,-1,0],[9E+09,9E+09,9E+09,9E+09,9E+09,9E+09]],v6,fine,rdkTool,\WObj:=rdkWObj;
        MoveL [[296.112, 17.462, -1.500],[0.000000, 0.000000, 1.000000, 0.000000],[-1,0,-1,0],[9E+09,9E+09,9E+09,9E+09,9E+09,9E+09]],v6,fine,rdkTool,\WObj:=rdkWObj;
        MoveL [[297.654, 17.463, -1.500],[0.000000, 0.000000, 1.000000, 0.000000],[-1,0,-1,0],[9E+09,9E+09,9E+09,9E+09,9E+09,9E+09]],v6,fine,rdkTool,\WObj:=rdkWObj;
        MoveL [[297.707, 17.461, -1.500],[0.000000, 0.000000, -1.000000, 0.000000],[-1,0,-1,0],[9E+09,9E+09,9E+09,9E+09,9E+09,9E+09]],v6,fine,rdkTool,\WObj:=rdkWObj;
        MoveL [[297.707, 17.461, 3.000],[0.000000, 0.000000, 1.000000, 0.000000],[-1,0,-1,0],[9E+09,9E+09,9E+09,9E+09,9E+09,9E+09]],v2,fine,rdkTool,\WObj:=rdkWObj;
        MoveL [[297.707, 17.461, 15.000],[0.000000, 0.000000, -1.000000, 0.000000],[-1,0,-1,0],[9E+09,9E+09,9E+09,9E+09,9E+09,9E+09]],v1000,fine,rdkTool,\WObj:=rdkWObj;
        MoveL [[301.218, 14.594, 15.000],[0.000000, 0.000000, -1.000000, 0.000000],[-1,0,-1,0],[9E+09,9E+09,9E+09,9E+09,9E+09,9E+09]],v1000,fine,rdkTool,\WObj:=rdkWObj;
        MoveL [[301.218, 14.594, 3.000],[0.000000, 0.000000, -1.000000, 0.000000],[-1,0,-1,0],[9E+09,9E+09,9E+09,9E+09,9E+09,9E+09]],v1000,fine,rdkTool,\WObj:=rdkWObj;
        MoveL [[301.218, 14.594, -1.500],[0.000000, 0.000000, 1.000000, 0.000000],[-1,0,-1,0],[9E+09,9E+09,9E+09,9E+09,9E+09,9E+09]],v2,fine,rdkTool,\WObj:=rdkWObj;
        MoveL [[301.320, 14.314, -1.500],[0.000000, 0.000000, -1.000000, 0.000000],[-1,0,-1,0],[9E+09,9E+09,9E+09,9E+09,9E+09,9E+09]],v6,fine,rdkTool,\WObj:=rdkWObj;
        MoveL [[302.316, 11.581, -1.500],[0.000000, 0.000000, -1.000000, 0.000000],[-1,0,-1,0],[9E+09,9E+09,9E+09,9E+09,9E+09,9E+09]],v6,fine,rdkTool,\WObj:=rdkWObj;
        MoveL [[305.635, 2.502, -1.500],[0.000000, 0.000000, 1.000000, 0.000000],[-1,0,-1,0],[9E+09,9E+09,9E+09,9E+09,9E+09,9E+09]],v6,fine,rdkTool,\WObj:=rdkWObj;
        MoveL [[307.059, -1.387, -1.500],[0.000000, 0.000000, 1.000000, 0.000000],[-1,0,-1,0],[9E+09,9E+09,9E+09,9E+09,9E+09,9E+09]],v6,fine,rdkTool,\WObj:=rdkWObj;
        MoveL [[309.768, -8.892, -1.500],[0.000000, 0.000000, -1.000000, 0.000000],[-1,0,-1,0],[9E+09,9E+09,9E+09,9E+09,9E+09,9E+09]],v6,fine,rdkTool,\WObj:=rdkWObj;
        MoveL [[311.100, -12.705, -1.500],[0.000000, 0.000000, -1.000000, 0.000000],[-1,0,-1,0],[9E+09,9E+09,9E+09,9E+09,9E+09,9E+09]],v6,fine,rdkTool,\WObj:=rdkWObj;
        MoveL [[311.662, -14.392, -1.500],[0.000000, 0.000000, 1.000000, 0.000000],[-1,0,-1,0],[9E+09,9E+09,9E+09,9E+09,9E+09,9E+09]],v6,fine,rdkTool,\WObj:=rdkWObj;
        MoveL [[311.857, -15.035, -1.500],[0.000000, 0.000000, -1.000000, 0.000000],[-1,0,-1,0],[9E+09,9E+09,9E+09,9E+09,9E+09,9E+09]],v6,fine,rdkTool,\WObj:=rdkWObj;
        MoveL [[311.901, -15.215, -1.500],[0.000000, 0.000000, -1.000000, 0.000000],[-1,0,-1,0],[9E+09,9E+09,9E+09,9E+09,9E+09,9E+09]],v6,fine,rdkTool,\WObj:=rdkWObj;
        MoveL [[311.906, -15.250, -1.500],[0.000000, 0.000000, -1.000000, 0.000000],[-1,0,-1,0],[9E+09,9E+09,9E+09,9E+09,9E+09,9E+09]],v6,fine,rdkTool,\WObj:=rdkWObj;
        MoveL [[311.907, -15.260, -1.500],[0.000000, 0.000000, -1.000000, 0.000000],[-1,0,-1,0],[9E+09,9E+09,9E+09,9E+09,9E+09,9E+09]],v6,fine,rdkTool,\WObj:=rdkWObj;
        MoveL [[311.897, -15.352, -1.500],[0.000000, 0.000000, 1.000000, 0.000000],[-1,0,-1,0],[9E+09,9E+09,9E+09,9E+09,9E+09,9E+09]],v6,fine,rdkTool,\WObj:=rdkWObj;
        MoveL [[311.807, -15.512, -1.500],[0.000000, 0.000000, -1.000000, 0.000000],[-1,0,-1,0],[9E+09,9E+09,9E+09,9E+09,9E+09,9E+09]],v6,fine,rdkTool,\WObj:=rdkWObj;
        MoveL [[311.653, -15.615, -1.500],[0.000000, 0.000000, -1.000000, 0.000000],[-1,0,-1,0],[9E+09,9E+09,9E+09,9E+09,9E+09,9E+09]],v6,fine,rdkTool,\WObj:=rdkWObj;
        MoveL [[311.384, -15.702, -1.500],[0.000000, 0.000000, 1.000000, 0.000000],[-1,0,-1,0],[9E+09,9E+09,9E+09,9E+09,9E+09,9E+09]],v6,fine,rdkTool,\WObj:=rdkWObj;
        MoveL [[310.944, -15.766, -1.500],[0.000000, 0.000000, -1.000000, 0.000000],[-1,0,-1,0],[9E+09,9E+09,9E+09,9E+09,9E+09,9E+09]],v6,fine,rdkTool,\WObj:=rdkWObj;
        MoveL [[310.218, -15.802, -1.500],[0.000000, 0.000000, -1.000000, 0.000000],[-1,0,-1,0],[9E+09,9E+09,9E+09,9E+09,9E+09,9E+09]],v6,fine,rdkTool,\WObj:=rdkWObj;
        MoveL [[309.117, -15.797, -1.500],[0.000000, 0.000000, -1.000000, 0.000000],[-1,0,-1,0],[9E+09,9E+09,9E+09,9E+09,9E+09,9E+09]],v6,fine,rdkTool,\WObj:=rdkWObj;
        MoveL [[308.128, -15.768, -1.500],[0.000000, 0.000000, 1.000000, 0.000000],[-1,0,-1,0],[9E+09,9E+09,9E+09,9E+09,9E+09,9E+09]],v6,fine,rdkTool,\WObj:=rdkWObj;
        MoveL [[308.128, -15.768, 3.000],[0.000000, 0.000000, 1.000000, 0.000000],[-1,0,-1,0],[9E+09,9E+09,9E+09,9E+09,9E+09,9E+09]],v2,fine,rdkTool,\WObj:=rdkWObj;
        MoveL [[308.128, -15.768, 15.000],[0.000000, 0.000000, -1.000000, 0.000000],[-1,0,-1,0],[9E+09,9E+09,9E+09,9E+09,9E+09,9E+09]],v1000,fine,rdkTool,\WObj:=rdkWObj;
        MoveL [[296.399, -9.209, 15.000],[0.000000, 0.000000, -1.000000, 0.000000],[-1,0,-1,0],[9E+09,9E+09,9E+09,9E+09,9E+09,9E+09]],v1000,fine,rdkTool,\WObj:=rdkWObj;
        MoveL [[296.399, -9.209, 3.000],[0.000000, 0.000000, -1.000000, 0.000000],[-1,0,-1,0],[9E+09,9E+09,9E+09,9E+09,9E+09,9E+09]],v1000,fine,rdkTool,\WObj:=rdkWObj;
        MoveL [[296.399, -9.209, -1.500],[0.000000, 0.000000, -1.000000, 0.000000],[-1,0,-1,0],[9E+09,9E+09,9E+09,9E+09,9E+09,9E+09]],v2,fine,rdkTool,\WObj:=rdkWObj;
        MoveL [[296.581, -9.209, -1.500],[0.000000, 0.000000, -1.000000, 0.000000],[-1,0,-1,0],[9E+09,9E+09,9E+09,9E+09,9E+09,9E+09]],v6,fine,rdkTool,\WObj:=rdkWObj;
        MoveL [[296.829, -9.208, -1.500],[0.000000, 0.000000, -1.000000, 0.000000],[-1,0,-1,0],[9E+09,9E+09,9E+09,9E+09,9E+09,9E+09]],v6,fine,rdkTool,\WObj:=rdkWObj;
        MoveL [[297.242, -9.207, -1.500],[0.000000, 0.000000, 1.000000, 0.000000],[-1,0,-1,0],[9E+09,9E+09,9E+09,9E+09,9E+09,9E+09]],v6,fine,rdkTool,\WObj:=rdkWObj;
        MoveL [[299.110, -9.206, -1.500],[0.000000, 0.000000, -1.000000, 0.000000],[-1,0,-1,0],[9E+09,9E+09,9E+09,9E+09,9E+09,9E+09]],v6,fine,rdkTool,\WObj:=rdkWObj;
        MoveL [[300.520, -9.228, -1.500],[0.000000, 0.000000, -1.000000, 0.000000],[-1,0,-1,0],[9E+09,9E+09,9E+09,9E+09,9E+09,9E+09]],v6,fine,rdkTool,\WObj:=rdkWObj;
        MoveL [[301.506, -9.283, -1.500],[0.000000, 0.000000, -1.000000, 0.000000],[-1,0,-1,0],[9E+09,9E+09,9E+09,9E+09,9E+09,9E+09]],v6,fine,rdkTool,\WObj:=rdkWObj;
        MoveL [[302.218, -9.374, -1.500],[0.000000, 0.000000, -1.000000, 0.000000],[-1,0,-1,0],[9E+09,9E+09,9E+09,9E+09,9E+09,9E+09]],v6,fine,rdkTool,\WObj:=rdkWObj;
        MoveL [[302.728, -9.499, -1.500],[0.000000, 0.000000, -1.000000, 0.000000],[-1,0,-1,0],[9E+09,9E+09,9E+09,9E+09,9E+09,9E+09]],v6,fine,rdkTool,\WObj:=rdkWObj;
        MoveL [[303.144, -9.680, -1.500],[0.000000, 0.000000, -1.000000, 0.000000],[-1,0,-1,0],[9E+09,9E+09,9E+09,9E+09,9E+09,9E+09]],v6,fine,rdkTool,\WObj:=rdkWObj;
        MoveL [[303.613, -10.082, -1.500],[0.000000, 0.000000, -1.000000, 0.000000],[-1,0,-1,0],[9E+09,9E+09,9E+09,9E+09,9E+09,9E+09]],v6,fine,rdkTool,\WObj:=rdkWObj;
        MoveL [[303.859, -10.466, -1.500],[0.000000, 0.000000, -1.000000, 0.000000],[-1,0,-1,0],[9E+09,9E+09,9E+09,9E+09,9E+09,9E+09]],v6,fine,rdkTool,\WObj:=rdkWObj;
        MoveL [[304.068, -10.938, -1.500],[0.000000, 0.000000, -1.000000, 0.000000],[-1,0,-1,0],[9E+09,9E+09,9E+09,9E+09,9E+09,9E+09]],v6,fine,rdkTool,\WObj:=rdkWObj;
        MoveL [[304.271, -11.509, -1.500],[0.000000, 0.000000, -1.000000, 0.000000],[-1,0,-1,0],[9E+09,9E+09,9E+09,9E+09,9E+09,9E+09]],v6,fine,rdkTool,\WObj:=rdkWObj;
        MoveL [[304.390, -11.866, -1.500],[0.000000, 0.000000, -1.000000, 0.000000],[-1,0,-1,0],[9E+09,9E+09,9E+09,9E+09,9E+09,9E+09]],v6,fine,rdkTool,\WObj:=rdkWObj;
        MoveL [[304.444, -12.032, -1.500],[0.000000, 0.000000, -1.000000, 0.000000],[-1,0,-1,0],[9E+09,9E+09,9E+09,9E+09,9E+09,9E+09]],v6,fine,rdkTool,\WObj:=rdkWObj;
        MoveL [[304.477, -12.129, -1.500],[0.000000, 0.000000, -1.000000, 0.000000],[-1,0,-1,0],[9E+09,9E+09,9E+09,9E+09,9E+09,9E+09]],v6,fine,rdkTool,\WObj:=rdkWObj;
        MoveL [[304.477, -12.129, 3.000],[0.000000, 0.000000, -1.000000, 0.000000],[-1,0,-1,0],[9E+09,9E+09,9E+09,9E+09,9E+09,9E+09]],v2,fine,rdkTool,\WObj:=rdkWObj;
        MoveL [[304.477, -12.129, 15.000],[0.000000, 0.000000, -1.000000, 0.000000],[-1,0,-1,0],[9E+09,9E+09,9E+09,9E+09,9E+09,9E+09]],v1000,fine,rdkTool,\WObj:=rdkWObj;
        MoveL [[300.882, 11.960, 15.000],[0.000000, 0.000000, -1.000000, 0.000000],[-1,0,-1,0],[9E+09,9E+09,9E+09,9E+09,9E+09,9E+09]],v1000,fine,rdkTool,\WObj:=rdkWObj;
        MoveL [[300.882, 11.960, 3.000],[0.000000, 0.000000, -1.000000, 0.000000],[-1,0,-1,0],[9E+09,9E+09,9E+09,9E+09,9E+09,9E+09]],v1000,fine,rdkTool,\WObj:=rdkWObj;
        MoveL [[300.882, 11.960, -1.500],[0.000000, 0.000000, -1.000000, 0.000000],[-1,0,-1,0],[9E+09,9E+09,9E+09,9E+09,9E+09,9E+09]],v2,fine,rdkTool,\WObj:=rdkWObj;
        MoveL [[301.031, 11.553, -1.500],[0.000000, 0.000000, -1.000000, 0.000000],[-1,0,-1,0],[9E+09,9E+09,9E+09,9E+09,9E+09,9E+09]],v6,fine,rdkTool,\WObj:=rdkWObj;
        MoveL [[301.485, 10.308, -1.500],[0.000000, 0.000000, 1.000000, 0.000000],[-1,0,-1,0],[9E+09,9E+09,9E+09,9E+09,9E+09,9E+09]],v6,fine,rdkTool,\WObj:=rdkWObj;
        MoveL [[301.770, 9.528, -1.500],[0.000000, 0.000000, -1.000000, 0.000000],[-1,0,-1,0],[9E+09,9E+09,9E+09,9E+09,9E+09,9E+09]],v6,fine,rdkTool,\WObj:=rdkWObj;
        MoveL [[304.694, 1.540, -1.500],[0.000000, 0.000000, -1.000000, 0.000000],[-1,0,-1,0],[9E+09,9E+09,9E+09,9E+09,9E+09,9E+09]],v6,fine,rdkTool,\WObj:=rdkWObj;
        MoveL [[308.472, -8.765, -1.500],[0.000000, 0.000000, 1.000000, 0.000000],[-1,0,-1,0],[9E+09,9E+09,9E+09,9E+09,9E+09,9E+09]],v6,fine,rdkTool,\WObj:=rdkWObj;
        MoveL [[308.708, -9.407, -1.500],[0.000000, 0.000000, 1.000000, 0.000000],[-1,0,-1,0],[9E+09,9E+09,9E+09,9E+09,9E+09,9E+09]],v6,fine,rdkTool,\WObj:=rdkWObj;
        MoveL [[309.027, -10.269, -1.500],[0.000000, 0.000000, 1.000000, 0.000000],[-1,0,-1,0],[9E+09,9E+09,9E+09,9E+09,9E+09,9E+09]],v6,fine,rdkTool,\WObj:=rdkWObj;
        MoveL [[309.594, -11.814, -1.500],[0.000000, 0.000000, 1.000000, 0.000000],[-1,0,-1,0],[9E+09,9E+09,9E+09,9E+09,9E+09,9E+09]],v6,fine,rdkTool,\WObj:=rdkWObj;
        MoveL [[310.000, -12.978, -1.500],[0.000000, 0.000000, -1.000000, 0.000000],[-1,0,-1,0],[9E+09,9E+09,9E+09,9E+09,9E+09,9E+09]],v6,fine,rdkTool,\WObj:=rdkWObj;
        MoveL [[310.209, -13.687, -1.500],[0.000000, 0.000000, -1.000000, 0.000000],[-1,0,-1,0],[9E+09,9E+09,9E+09,9E+09,9E+09,9E+09]],v6,fine,rdkTool,\WObj:=rdkWObj;
        MoveL [[310.299, -14.146, -1.500],[0.000000, 0.000000, -1.000000, 0.000000],[-1,0,-1,0],[9E+09,9E+09,9E+09,9E+09,9E+09,9E+09]],v6,fine,rdkTool,\WObj:=rdkWObj;
        MoveL [[310.309, -14.439, -1.500],[0.000000, 0.000000, -1.000000, 0.000000],[-1,0,-1,0],[9E+09,9E+09,9E+09,9E+09,9E+09,9E+09]],v6,fine,rdkTool,\WObj:=rdkWObj;
        MoveL [[310.262, -14.643, -1.500],[0.000000, 0.000000, -1.000000, 0.000000],[-1,0,-1,0],[9E+09,9E+09,9E+09,9E+09,9E+09,9E+09]],v6,fine,rdkTool,\WObj:=rdkWObj;
        MoveL [[310.172, -14.775, -1.500],[0.000000, 0.000000, 1.000000, 0.000000],[-1,0,-1,0],[9E+09,9E+09,9E+09,9E+09,9E+09,9E+09]],v6,fine,rdkTool,\WObj:=rdkWObj;
        MoveL [[310.078, -14.842, -1.500],[0.000000, 0.000000, -1.000000, 0.000000],[-1,0,-1,0],[9E+09,9E+09,9E+09,9E+09,9E+09,9E+09]],v6,fine,rdkTool,\WObj:=rdkWObj;
        MoveL [[309.881, -14.911, -1.500],[0.000000, 0.000000, -1.000000, 0.000000],[-1,0,-1,0],[9E+09,9E+09,9E+09,9E+09,9E+09,9E+09]],v6,fine,rdkTool,\WObj:=rdkWObj;
        MoveL [[309.602, -14.941, -1.500],[0.000000, 0.000000, -1.000000, 0.000000],[-1,0,-1,0],[9E+09,9E+09,9E+09,9E+09,9E+09,9E+09]],v6,fine,rdkTool,\WObj:=rdkWObj;
        MoveL [[309.170, -14.934, -1.500],[0.000000, 0.000000, -1.000000, 0.000000],[-1,0,-1,0],[9E+09,9E+09,9E+09,9E+09,9E+09,9E+09]],v6,fine,rdkTool,\WObj:=rdkWObj;
        MoveL [[308.648, -14.901, -1.500],[0.000000, 0.000000, -1.000000, 0.000000],[-1,0,-1,0],[9E+09,9E+09,9E+09,9E+09,9E+09,9E+09]],v6,fine,rdkTool,\WObj:=rdkWObj;
        MoveL [[308.258, -14.874, -1.500],[0.000000, 0.000000, 1.000000, 0.000000],[-1,0,-1,0],[9E+09,9E+09,9E+09,9E+09,9E+09,9E+09]],v6,fine,rdkTool,\WObj:=rdkWObj;
        MoveL [[307.974, -14.858, -1.500],[0.000000, 0.000000, -1.000000, 0.000000],[-1,0,-1,0],[9E+09,9E+09,9E+09,9E+09,9E+09,9E+09]],v6,fine,rdkTool,\WObj:=rdkWObj;
        MoveL [[307.974, -14.858, 3.000],[0.000000, 0.000000, 1.000000, 0.000000],[-1,0,-1,0],[9E+09,9E+09,9E+09,9E+09,9E+09,9E+09]],v2,fine,rdkTool,\WObj:=rdkWObj;
        MoveL [[307.974, -14.858, 15.000],[0.000000, 0.000000, 1.000000, 0.000000],[-1,0,-1,0],[9E+09,9E+09,9E+09,9E+09,9E+09,9E+09]],v1000,fine,rdkTool,\WObj:=rdkWObj;
        MoveL [[286.500, -14.858, 15.000],[0.000000, 0.000000, -1.000000, 0.000000],[-1,0,-1,0],[9E+09,9E+09,9E+09,9E+09,9E+09,9E+09]],v1000,fine,rdkTool,\WObj:=rdkWObj;
        MoveL [[286.500, -14.858, 3.000],[0.000000, 0.000000, -1.000000, 0.000000],[-1,0,-1,0],[9E+09,9E+09,9E+09,9E+09,9E+09,9E+09]],v1000,fine,rdkTool,\WObj:=rdkWObj;
        MoveL [[286.500, -14.858, -1.500],[0.000000, 0.000000, 1.000000, 0.000000],[-1,0,-1,0],[9E+09,9E+09,9E+09,9E+09,9E+09,9E+09]],v2,fine,rdkTool,\WObj:=rdkWObj;
        MoveL [[286.439, -14.862, -1.500],[0.000000, 0.000000, -1.000000, 0.000000],[-1,0,-1,0],[9E+09,9E+09,9E+09,9E+09,9E+09,9E+09]],v6,fine,rdkTool,\WObj:=rdkWObj;
        MoveL [[285.509, -14.894, -1.500],[0.000000, 0.000000, -1.000000, 0.000000],[-1,0,-1,0],[9E+09,9E+09,9E+09,9E+09,9E+09,9E+09]],v6,fine,rdkTool,\WObj:=rdkWObj;
        MoveL [[284.832, -14.883, -1.500],[0.000000, 0.000000, -1.000000, 0.000000],[-1,0,-1,0],[9E+09,9E+09,9E+09,9E+09,9E+09,9E+09]],v6,fine,rdkTool,\WObj:=rdkWObj;
        MoveL [[284.444, -14.837, -1.500],[0.000000, 0.000000, -1.000000, 0.000000],[-1,0,-1,0],[9E+09,9E+09,9E+09,9E+09,9E+09,9E+09]],v6,fine,rdkTool,\WObj:=rdkWObj;
        MoveL [[284.225, -14.771, -1.500],[0.000000, 0.000000, 1.000000, 0.000000],[-1,0,-1,0],[9E+09,9E+09,9E+09,9E+09,9E+09,9E+09]],v6,fine,rdkTool,\WObj:=rdkWObj;
        MoveL [[284.106, -14.691, -1.500],[0.000000, 0.000000, -1.000000, 0.000000],[-1,0,-1,0],[9E+09,9E+09,9E+09,9E+09,9E+09,9E+09]],v6,fine,rdkTool,\WObj:=rdkWObj;
        MoveL [[284.050, -14.583, -1.500],[0.000000, 0.000000, -1.000000, 0.000000],[-1,0,-1,0],[9E+09,9E+09,9E+09,9E+09,9E+09,9E+09]],v6,fine,rdkTool,\WObj:=rdkWObj;
        MoveL [[284.045, -14.539, -1.500],[0.000000, 0.000000, 1.000000, 0.000000],[-1,0,-1,0],[9E+09,9E+09,9E+09,9E+09,9E+09,9E+09]],v6,fine,rdkTool,\WObj:=rdkWObj;
        MoveL [[284.046, -14.527, -1.500],[0.000000, 0.000000, 1.000000, 0.000000],[-1,0,-1,0],[9E+09,9E+09,9E+09,9E+09,9E+09,9E+09]],v6,fine,rdkTool,\WObj:=rdkWObj;
        MoveL [[284.050, -14.486, -1.500],[0.000000, 0.000000, 1.000000, 0.000000],[-1,0,-1,0],[9E+09,9E+09,9E+09,9E+09,9E+09,9E+09]],v6,fine,rdkTool,\WObj:=rdkWObj;
        MoveL [[284.074, -14.400, -1.500],[0.000000, 0.000000, -1.000000, 0.000000],[-1,0,-1,0],[9E+09,9E+09,9E+09,9E+09,9E+09,9E+09]],v6,fine,rdkTool,\WObj:=rdkWObj;
        MoveL [[284.084, -14.373, -1.500],[0.000000, 0.000000, -1.000000, 0.000000],[-1,0,-1,0],[9E+09,9E+09,9E+09,9E+09,9E+09,9E+09]],v6,fine,rdkTool,\WObj:=rdkWObj;
        MoveL [[284.784, -12.446, -1.500],[0.000000, 0.000000, -1.000000, 0.000000],[-1,0,-1,0],[9E+09,9E+09,9E+09,9E+09,9E+09,9E+09]],v6,fine,rdkTool,\WObj:=rdkWObj;
        MoveL [[284.870, -12.209, -1.500],[0.000000, 0.000000, 1.000000, 0.000000],[-1,0,-1,0],[9E+09,9E+09,9E+09,9E+09,9E+09,9E+09]],v6,fine,rdkTool,\WObj:=rdkWObj;
        MoveL [[289.725, 1.197, -1.500],[0.000000, 0.000000, -1.000000, 0.000000],[-1,0,-1,0],[9E+09,9E+09,9E+09,9E+09,9E+09,9E+09]],v6,fine,rdkTool,\WObj:=rdkWObj;
        MoveL [[289.725, 1.197, 3.000],[0.000000, 0.000000, -1.000000, 0.000000],[-1,0,-1,0],[9E+09,9E+09,9E+09,9E+09,9E+09,9E+09]],v2,fine,rdkTool,\WObj:=rdkWObj;
        MoveL [[289.725, 1.197, 15.000],[0.000000, 0.000000, 1.000000, 0.000000],[-1,0,-1,0],[9E+09,9E+09,9E+09,9E+09,9E+09,9E+09]],v1000,fine,rdkTool,\WObj:=rdkWObj;
        MoveL [[293.128, -4.060, 15.000],[0.000000, 0.000000, -1.000000, 0.000000],[-1,0,-1,0],[9E+09,9E+09,9E+09,9E+09,9E+09,9E+09]],v1000,fine,rdkTool,\WObj:=rdkWObj;
        MoveL [[293.128, -4.060, 3.000],[0.000000, 0.000000, -1.000000, 0.000000],[-1,0,-1,0],[9E+09,9E+09,9E+09,9E+09,9E+09,9E+09]],v1000,fine,rdkTool,\WObj:=rdkWObj;
        MoveL [[293.128, -4.060, -1.500],[0.000000, 0.000000, -1.000000, 0.000000],[-1,0,-1,0],[9E+09,9E+09,9E+09,9E+09,9E+09,9E+09]],v2,fine,rdkTool,\WObj:=rdkWObj;
        MoveL [[293.131, -4.022, -1.500],[0.000000, 0.000000, 1.000000, 0.000000],[-1,0,-1,0],[9E+09,9E+09,9E+09,9E+09,9E+09,9E+09]],v6,fine,rdkTool,\WObj:=rdkWObj;
        MoveL [[293.175, -3.783, -1.500],[0.000000, 0.000000, -1.000000, 0.000000],[-1,0,-1,0],[9E+09,9E+09,9E+09,9E+09,9E+09,9E+09]],v6,fine,rdkTool,\WObj:=rdkWObj;
        MoveL [[293.352, -3.104, -1.500],[0.000000, 0.000000, 1.000000, 0.000000],[-1,0,-1,0],[9E+09,9E+09,9E+09,9E+09,9E+09,9E+09]],v6,fine,rdkTool,\WObj:=rdkWObj;
        MoveL [[293.853, -1.434, -1.500],[0.000000, 0.000000, -1.000000, 0.000000],[-1,0,-1,0],[9E+09,9E+09,9E+09,9E+09,9E+09,9E+09]],v6,fine,rdkTool,\WObj:=rdkWObj;
        MoveL [[294.936, 1.919, -1.500],[0.000000, 0.000000, -1.000000, 0.000000],[-1,0,-1,0],[9E+09,9E+09,9E+09,9E+09,9E+09,9E+09]],v6,fine,rdkTool,\WObj:=rdkWObj;
        MoveL [[295.956, 4.895, -1.500],[0.000000, 0.000000, -1.000000, 0.000000],[-1,0,-1,0],[9E+09,9E+09,9E+09,9E+09,9E+09,9E+09]],v6,fine,rdkTool,\WObj:=rdkWObj;
        MoveL [[296.494, 6.367, -1.500],[0.000000, 0.000000, -1.000000, 0.000000],[-1,0,-1,0],[9E+09,9E+09,9E+09,9E+09,9E+09,9E+09]],v6,fine,rdkTool,\WObj:=rdkWObj;
        MoveL [[296.755, 7.014, -1.500],[0.000000, 0.000000, -1.000000, 0.000000],[-1,0,-1,0],[9E+09,9E+09,9E+09,9E+09,9E+09,9E+09]],v6,fine,rdkTool,\WObj:=rdkWObj;
        MoveL [[296.867, 7.247, -1.500],[0.000000, 0.000000, -1.000000, 0.000000],[-1,0,-1,0],[9E+09,9E+09,9E+09,9E+09,9E+09,9E+09]],v6,fine,rdkTool,\WObj:=rdkWObj;
        MoveL [[296.895, 7.290, -1.500],[0.000000, 0.000000, -1.000000, 0.000000],[-1,0,-1,0],[9E+09,9E+09,9E+09,9E+09,9E+09,9E+09]],v6,fine,rdkTool,\WObj:=rdkWObj;
        MoveL [[296.905, 7.302, -1.500],[0.000000, 0.000000, -1.000000, 0.000000],[-1,0,-1,0],[9E+09,9E+09,9E+09,9E+09,9E+09,9E+09]],v6,fine,rdkTool,\WObj:=rdkWObj;
        MoveL [[296.994, 7.369, -1.500],[0.000000, 0.000000, -1.000000, 0.000000],[-1,0,-1,0],[9E+09,9E+09,9E+09,9E+09,9E+09,9E+09]],v6,fine,rdkTool,\WObj:=rdkWObj;
        MoveL [[297.176, 7.394, -1.500],[0.000000, 0.000000, 1.000000, 0.000000],[-1,0,-1,0],[9E+09,9E+09,9E+09,9E+09,9E+09,9E+09]],v6,fine,rdkTool,\WObj:=rdkWObj;
        MoveL [[297.334, 7.325, -1.500],[0.000000, 0.000000, -1.000000, 0.000000],[-1,0,-1,0],[9E+09,9E+09,9E+09,9E+09,9E+09,9E+09]],v6,fine,rdkTool,\WObj:=rdkWObj;
        MoveL [[297.526, 7.153, -1.500],[0.000000, 0.000000, 1.000000, 0.000000],[-1,0,-1,0],[9E+09,9E+09,9E+09,9E+09,9E+09,9E+09]],v6,fine,rdkTool,\WObj:=rdkWObj;
        MoveL [[297.772, 6.830, -1.500],[0.000000, 0.000000, -1.000000, 0.000000],[-1,0,-1,0],[9E+09,9E+09,9E+09,9E+09,9E+09,9E+09]],v6,fine,rdkTool,\WObj:=rdkWObj;
        MoveL [[298.104, 6.253, -1.500],[0.000000, 0.000000, -1.000000, 0.000000],[-1,0,-1,0],[9E+09,9E+09,9E+09,9E+09,9E+09,9E+09]],v6,fine,rdkTool,\WObj:=rdkWObj;
        MoveL [[298.543, 5.315, -1.500],[0.000000, 0.000000, -1.000000, 0.000000],[-1,0,-1,0],[9E+09,9E+09,9E+09,9E+09,9E+09,9E+09]],v6,fine,rdkTool,\WObj:=rdkWObj;
        MoveL [[299.125, 3.857, -1.500],[0.000000, 0.000000, -1.000000, 0.000000],[-1,0,-1,0],[9E+09,9E+09,9E+09,9E+09,9E+09,9E+09]],v6,fine,rdkTool,\WObj:=rdkWObj;
        MoveL [[299.782, 2.013, -1.500],[0.000000, 0.000000, -1.000000, 0.000000],[-1,0,-1,0],[9E+09,9E+09,9E+09,9E+09,9E+09,9E+09]],v6,fine,rdkTool,\WObj:=rdkWObj;
        MoveL [[300.028, 1.280, -1.500],[0.000000, 0.000000, -1.000000, 0.000000],[-1,0,-1,0],[9E+09,9E+09,9E+09,9E+09,9E+09,9E+09]],v6,fine,rdkTool,\WObj:=rdkWObj;
        MoveL [[301.208, -2.367, -1.500],[0.000000, 0.000000, -1.000000, 0.000000],[-1,0,-1,0],[9E+09,9E+09,9E+09,9E+09,9E+09,9E+09]],v6,fine,rdkTool,\WObj:=rdkWObj;
        MoveL [[301.670, -3.885, -1.500],[0.000000, 0.000000, -1.000000, 0.000000],[-1,0,-1,0],[9E+09,9E+09,9E+09,9E+09,9E+09,9E+09]],v6,fine,rdkTool,\WObj:=rdkWObj;
        MoveL [[301.809, -4.393, -1.500],[0.000000, 0.000000, 1.000000, 0.000000],[-1,0,-1,0],[9E+09,9E+09,9E+09,9E+09,9E+09,9E+09]],v6,fine,rdkTool,\WObj:=rdkWObj;
        MoveL [[301.830, -4.501, -1.500],[0.000000, 0.000000, -1.000000, 0.000000],[-1,0,-1,0],[9E+09,9E+09,9E+09,9E+09,9E+09,9E+09]],v6,fine,rdkTool,\WObj:=rdkWObj;
        MoveL [[301.831, -4.514, -1.500],[0.000000, 0.000000, -1.000000, 0.000000],[-1,0,-1,0],[9E+09,9E+09,9E+09,9E+09,9E+09,9E+09]],v6,fine,rdkTool,\WObj:=rdkWObj;
        MoveL [[301.825, -4.532, -1.500],[0.000000, 0.000000, -1.000000, 0.000000],[-1,0,-1,0],[9E+09,9E+09,9E+09,9E+09,9E+09,9E+09]],v6,fine,rdkTool,\WObj:=rdkWObj;
        MoveL [[301.783, -4.567, -1.500],[0.000000, 0.000000, 1.000000, 0.000000],[-1,0,-1,0],[9E+09,9E+09,9E+09,9E+09,9E+09,9E+09]],v6,fine,rdkTool,\WObj:=rdkWObj;
        MoveL [[301.639, -4.619, -1.500],[0.000000, 0.000000, -1.000000, 0.000000],[-1,0,-1,0],[9E+09,9E+09,9E+09,9E+09,9E+09,9E+09]],v6,fine,rdkTool,\WObj:=rdkWObj;
        MoveL [[301.264, -4.690, -1.500],[0.000000, 0.000000, -1.000000, 0.000000],[-1,0,-1,0],[9E+09,9E+09,9E+09,9E+09,9E+09,9E+09]],v6,fine,rdkTool,\WObj:=rdkWObj;
        MoveL [[300.428, -4.776, -1.500],[0.000000, 0.000000, -1.000000, 0.000000],[-1,0,-1,0],[9E+09,9E+09,9E+09,9E+09,9E+09,9E+09]],v6,fine,rdkTool,\WObj:=rdkWObj;
        MoveL [[298.947, -4.851, -1.500],[0.000000, 0.000000, -1.000000, 0.000000],[-1,0,-1,0],[9E+09,9E+09,9E+09,9E+09,9E+09,9E+09]],v6,fine,rdkTool,\WObj:=rdkWObj;
        MoveL [[297.480, -4.872, -1.500],[0.000000, 0.000000, -1.000000, 0.000000],[-1,0,-1,0],[9E+09,9E+09,9E+09,9E+09,9E+09,9E+09]],v6,fine,rdkTool,\WObj:=rdkWObj;
        MoveL [[295.891, -4.862, -1.500],[0.000000, 0.000000, 1.000000, 0.000000],[-1,0,-1,0],[9E+09,9E+09,9E+09,9E+09,9E+09,9E+09]],v6,fine,rdkTool,\WObj:=rdkWObj;
        MoveL [[294.789, -4.830, -1.500],[0.000000, 0.000000, -1.000000, 0.000000],[-1,0,-1,0],[9E+09,9E+09,9E+09,9E+09,9E+09,9E+09]],v6,fine,rdkTool,\WObj:=rdkWObj;
        MoveL [[294.121, -4.776, -1.500],[0.000000, 0.000000, -1.000000, 0.000000],[-1,0,-1,0],[9E+09,9E+09,9E+09,9E+09,9E+09,9E+09]],v6,fine,rdkTool,\WObj:=rdkWObj;
        MoveL [[293.705, -4.703, -1.500],[0.000000, 0.000000, -1.000000, 0.000000],[-1,0,-1,0],[9E+09,9E+09,9E+09,9E+09,9E+09,9E+09]],v6,fine,rdkTool,\WObj:=rdkWObj;
        MoveL [[293.444, -4.613, -1.500],[0.000000, 0.000000, -1.000000, 0.000000],[-1,0,-1,0],[9E+09,9E+09,9E+09,9E+09,9E+09,9E+09]],v6,fine,rdkTool,\WObj:=rdkWObj;
        MoveL [[293.289, -4.513, -1.500],[0.000000, 0.000000, 1.000000, 0.000000],[-1,0,-1,0],[9E+09,9E+09,9E+09,9E+09,9E+09,9E+09]],v6,fine,rdkTool,\WObj:=rdkWObj;
        MoveL [[293.161, -4.311, -1.500],[0.000000, 0.000000, 1.000000, 0.000000],[-1,0,-1,0],[9E+09,9E+09,9E+09,9E+09,9E+09,9E+09]],v6,fine,rdkTool,\WObj:=rdkWObj;
        MoveL [[293.130, -4.135, -1.500],[0.000000, 0.000000, -1.000000, 0.000000],[-1,0,-1,0],[9E+09,9E+09,9E+09,9E+09,9E+09,9E+09]],v6,fine,rdkTool,\WObj:=rdkWObj;
        MoveL [[293.128, -4.060, -1.500],[0.000000, 0.000000, -1.000000, 0.000000],[-1,0,-1,0],[9E+09,9E+09,9E+09,9E+09,9E+09,9E+09]],v6,fine,rdkTool,\WObj:=rdkWObj;
        MoveL [[293.128, -4.060, 3.000],[0.000000, 0.000000, -1.000000, 0.000000],[-1,0,-1,0],[9E+09,9E+09,9E+09,9E+09,9E+09,9E+09]],v2,fine,rdkTool,\WObj:=rdkWObj;
        MoveL [[293.128, -4.060, 15.000],[0.000000, 0.000000, -1.000000, 0.000000],[-1,0,-1,0],[9E+09,9E+09,9E+09,9E+09,9E+09,9E+09]],v1000,fine,rdkTool,\WObj:=rdkWObj;
        MoveL [[295.667, 0.418, 15.000],[0.000000, 0.000000, 1.000000, 0.000000],[-1,0,-1,0],[9E+09,9E+09,9E+09,9E+09,9E+09,9E+09]],v1000,fine,rdkTool,\WObj:=rdkWObj;
        MoveL [[295.667, 0.418, 3.000],[0.000000, 0.000000, -1.000000, 0.000000],[-1,0,-1,0],[9E+09,9E+09,9E+09,9E+09,9E+09,9E+09]],v1000,fine,rdkTool,\WObj:=rdkWObj;
        MoveL [[295.667, 0.418, -1.500],[0.000000, 0.000000, 1.000000, 0.000000],[-1,0,-1,0],[9E+09,9E+09,9E+09,9E+09,9E+09,9E+09]],v2,fine,rdkTool,\WObj:=rdkWObj;
        MoveL [[295.796, 0.775, -1.500],[0.000000, 0.000000, -1.000000, 0.000000],[-1,0,-1,0],[9E+09,9E+09,9E+09,9E+09,9E+09,9E+09]],v6,fine,rdkTool,\WObj:=rdkWObj;
        MoveL [[296.853, 3.769, -1.500],[0.000000, 0.000000, -1.000000, 0.000000],[-1,0,-1,0],[9E+09,9E+09,9E+09,9E+09,9E+09,9E+09]],v6,fine,rdkTool,\WObj:=rdkWObj;
        MoveL [[297.216, 4.862, -1.500],[0.000000, 0.000000, 1.000000, 0.000000],[-1,0,-1,0],[9E+09,9E+09,9E+09,9E+09,9E+09,9E+09]],v6,fine,rdkTool,\WObj:=rdkWObj;
        MoveL [[297.282, 5.097, -1.500],[0.000000, 0.000000, 1.000000, 0.000000],[-1,0,-1,0],[9E+09,9E+09,9E+09,9E+09,9E+09,9E+09]],v6,fine,rdkTool,\WObj:=rdkWObj;
        MoveL [[297.285, 5.113, -1.500],[0.000000, 0.000000, -1.000000, 0.000000],[-1,0,-1,0],[9E+09,9E+09,9E+09,9E+09,9E+09,9E+09]],v6,fine,rdkTool,\WObj:=rdkWObj;
        MoveL [[297.286, 5.117, -1.500],[0.000000, 0.000000, -1.000000, 0.000000],[-1,0,-1,0],[9E+09,9E+09,9E+09,9E+09,9E+09,9E+09]],v6,fine,rdkTool,\WObj:=rdkWObj;
        MoveL [[297.287, 5.120, -1.500],[0.000000, 0.000000, 1.000000, 0.000000],[-1,0,-1,0],[9E+09,9E+09,9E+09,9E+09,9E+09,9E+09]],v6,fine,rdkTool,\WObj:=rdkWObj;
        MoveL [[297.293, 5.121, -1.500],[0.000000, 0.000000, 1.000000, 0.000000],[-1,0,-1,0],[9E+09,9E+09,9E+09,9E+09,9E+09,9E+09]],v6,fine,rdkTool,\WObj:=rdkWObj;
        MoveL [[297.306, 5.107, -1.500],[0.000000, 0.000000, -1.000000, 0.000000],[-1,0,-1,0],[9E+09,9E+09,9E+09,9E+09,9E+09,9E+09]],v6,fine,rdkTool,\WObj:=rdkWObj;
        MoveL [[297.372, 4.980, -1.500],[0.000000, 0.000000, 1.000000, 0.000000],[-1,0,-1,0],[9E+09,9E+09,9E+09,9E+09,9E+09,9E+09]],v6,fine,rdkTool,\WObj:=rdkWObj;
        MoveL [[297.547, 4.563, -1.500],[0.000000, 0.000000, -1.000000, 0.000000],[-1,0,-1,0],[9E+09,9E+09,9E+09,9E+09,9E+09,9E+09]],v6,fine,rdkTool,\WObj:=rdkWObj;
        MoveL [[298.016, 3.334, -1.500],[0.000000, 0.000000, 1.000000, 0.000000],[-1,0,-1,0],[9E+09,9E+09,9E+09,9E+09,9E+09,9E+09]],v6,fine,rdkTool,\WObj:=rdkWObj;
        MoveL [[299.155, 0.155, -1.500],[0.000000, 0.000000, 1.000000, 0.000000],[-1,0,-1,0],[9E+09,9E+09,9E+09,9E+09,9E+09,9E+09]],v6,fine,rdkTool,\WObj:=rdkWObj;
        MoveL [[300.029, -2.428, -1.500],[0.000000, 0.000000, -1.000000, 0.000000],[-1,0,-1,0],[9E+09,9E+09,9E+09,9E+09,9E+09,9E+09]],v6,fine,rdkTool,\WObj:=rdkWObj;
        MoveL [[300.239, -3.075, -1.500],[0.000000, 0.000000, -1.000000, 0.000000],[-1,0,-1,0],[9E+09,9E+09,9E+09,9E+09,9E+09,9E+09]],v6,fine,rdkTool,\WObj:=rdkWObj;
        MoveL [[300.259, -3.142, -1.500],[0.000000, 0.000000, -1.000000, 0.000000],[-1,0,-1,0],[9E+09,9E+09,9E+09,9E+09,9E+09,9E+09]],v6,fine,rdkTool,\WObj:=rdkWObj;
        MoveL [[300.309, -3.357, -1.500],[0.000000, 0.000000, -1.000000, 0.000000],[-1,0,-1,0],[9E+09,9E+09,9E+09,9E+09,9E+09,9E+09]],v6,fine,rdkTool,\WObj:=rdkWObj;
        MoveL [[300.310, -3.532, -1.500],[0.000000, 0.000000, 1.000000, 0.000000],[-1,0,-1,0],[9E+09,9E+09,9E+09,9E+09,9E+09,9E+09]],v6,fine,rdkTool,\WObj:=rdkWObj;
        MoveL [[300.246, -3.670, -1.500],[0.000000, 0.000000, -1.000000, 0.000000],[-1,0,-1,0],[9E+09,9E+09,9E+09,9E+09,9E+09,9E+09]],v6,fine,rdkTool,\WObj:=rdkWObj;
        MoveL [[300.168, -3.737, -1.500],[0.000000, 0.000000, -1.000000, 0.000000],[-1,0,-1,0],[9E+09,9E+09,9E+09,9E+09,9E+09,9E+09]],v6,fine,rdkTool,\WObj:=rdkWObj;
        MoveL [[299.997, -3.814, -1.500],[0.000000, 0.000000, -1.000000, 0.000000],[-1,0,-1,0],[9E+09,9E+09,9E+09,9E+09,9E+09,9E+09]],v6,fine,rdkTool,\WObj:=rdkWObj;
        MoveL [[299.710, -3.877, -1.500],[0.000000, 0.000000, -1.000000, 0.000000],[-1,0,-1,0],[9E+09,9E+09,9E+09,9E+09,9E+09,9E+09]],v6,fine,rdkTool,\WObj:=rdkWObj;
        MoveL [[299.251, -3.921, -1.500],[0.000000, 0.000000, -1.000000, 0.000000],[-1,0,-1,0],[9E+09,9E+09,9E+09,9E+09,9E+09,9E+09]],v6,fine,rdkTool,\WObj:=rdkWObj;
        MoveL [[298.452, -3.949, -1.500],[0.000000, 0.000000, -1.000000, 0.000000],[-1,0,-1,0],[9E+09,9E+09,9E+09,9E+09,9E+09,9E+09]],v6,fine,rdkTool,\WObj:=rdkWObj;
        MoveL [[297.301, -3.956, -1.500],[0.000000, 0.000000, -1.000000, 0.000000],[-1,0,-1,0],[9E+09,9E+09,9E+09,9E+09,9E+09,9E+09]],v6,fine,rdkTool,\WObj:=rdkWObj;
        MoveL [[297.301, -3.956, 3.000],[0.000000, 0.000000, -1.000000, 0.000000],[-1,0,-1,0],[9E+09,9E+09,9E+09,9E+09,9E+09,9E+09]],v2,fine,rdkTool,\WObj:=rdkWObj;
        MoveL [[297.301, -3.956, 15.000],[0.000000, 0.000000, -1.000000, 0.000000],[-1,0,-1,0],[9E+09,9E+09,9E+09,9E+09,9E+09,9E+09]],v1000,fine,rdkTool,\WObj:=rdkWObj;
        MoveL [[370.991, 0.889, 15.000],[0.000000, 0.000000, -1.000000, 0.000000],[-1,0,-1,0],[9E+09,9E+09,9E+09,9E+09,9E+09,9E+09]],v1000,fine,rdkTool,\WObj:=rdkWObj;
        MoveL [[370.991, 0.889, 3.000],[0.000000, 0.000000, -1.000000, 0.000000],[-1,0,-1,0],[9E+09,9E+09,9E+09,9E+09,9E+09,9E+09]],v1000,fine,rdkTool,\WObj:=rdkWObj;
        MoveL [[370.991, 0.889, -1.500],[0.000000, 0.000000, 1.000000, 0.000000],[-1,0,-1,0],[9E+09,9E+09,9E+09,9E+09,9E+09,9E+09]],v2,fine,rdkTool,\WObj:=rdkWObj;
        MoveL [[370.964, 0.222, -1.500],[0.000000, 0.000000, 1.000000, 0.000000],[-1,0,-1,0],[9E+09,9E+09,9E+09,9E+09,9E+09,9E+09]],v6,fine,rdkTool,\WObj:=rdkWObj;
        MoveL [[370.865, -0.468, -1.500],[0.000000, 0.000000, -1.000000, 0.000000],[-1,0,-1,0],[9E+09,9E+09,9E+09,9E+09,9E+09,9E+09]],v6,fine,rdkTool,\WObj:=rdkWObj;
        MoveL [[370.736, -0.908, -1.500],[0.000000, 0.000000, -1.000000, 0.000000],[-1,0,-1,0],[9E+09,9E+09,9E+09,9E+09,9E+09,9E+09]],v6,fine,rdkTool,\WObj:=rdkWObj;
        MoveL [[370.604, -1.162, -1.500],[0.000000, 0.000000, 1.000000, 0.000000],[-1,0,-1,0],[9E+09,9E+09,9E+09,9E+09,9E+09,9E+09]],v6,fine,rdkTool,\WObj:=rdkWObj;
        MoveL [[370.477, -1.291, -1.500],[0.000000, 0.000000, -1.000000, 0.000000],[-1,0,-1,0],[9E+09,9E+09,9E+09,9E+09,9E+09,9E+09]],v6,fine,rdkTool,\WObj:=rdkWObj;
        MoveL [[370.418, -1.322, -1.500],[0.000000, 0.000000, -1.000000, 0.000000],[-1,0,-1,0],[9E+09,9E+09,9E+09,9E+09,9E+09,9E+09]],v6,fine,rdkTool,\WObj:=rdkWObj;
        MoveL [[370.402, -1.327, -1.500],[0.000000, 0.000000, -1.000000, 0.000000],[-1,0,-1,0],[9E+09,9E+09,9E+09,9E+09,9E+09,9E+09]],v6,fine,rdkTool,\WObj:=rdkWObj;
        MoveL [[370.332, -1.343, -1.500],[0.000000, 0.000000, 1.000000, 0.000000],[-1,0,-1,0],[9E+09,9E+09,9E+09,9E+09,9E+09,9E+09]],v6,fine,rdkTool,\WObj:=rdkWObj;
        MoveL [[370.061, -1.378, -1.500],[0.000000, 0.000000, -1.000000, 0.000000],[-1,0,-1,0],[9E+09,9E+09,9E+09,9E+09,9E+09,9E+09]],v6,fine,rdkTool,\WObj:=rdkWObj;
        MoveL [[369.294, -1.432, -1.500],[0.000000, 0.000000, 1.000000, 0.000000],[-1,0,-1,0],[9E+09,9E+09,9E+09,9E+09,9E+09,9E+09]],v6,fine,rdkTool,\WObj:=rdkWObj;
        MoveL [[367.624, -1.494, -1.500],[0.000000, 0.000000, 1.000000, 0.000000],[-1,0,-1,0],[9E+09,9E+09,9E+09,9E+09,9E+09,9E+09]],v6,fine,rdkTool,\WObj:=rdkWObj;
        MoveL [[364.232, -1.539, -1.500],[0.000000, 0.000000, -1.000000, 0.000000],[-1,0,-1,0],[9E+09,9E+09,9E+09,9E+09,9E+09,9E+09]],v6,fine,rdkTool,\WObj:=rdkWObj;
        MoveL [[364.120, -1.539, -1.500],[0.000000, 0.000000, -1.000000, 0.000000],[-1,0,-1,0],[9E+09,9E+09,9E+09,9E+09,9E+09,9E+09]],v6,fine,rdkTool,\WObj:=rdkWObj;
        MoveL [[364.120, -1.539, 3.000],[0.000000, 0.000000, -1.000000, 0.000000],[-1,0,-1,0],[9E+09,9E+09,9E+09,9E+09,9E+09,9E+09]],v2,fine,rdkTool,\WObj:=rdkWObj;
        MoveL [[364.120, -1.539, 15.000],[0.000000, 0.000000, 1.000000, 0.000000],[-1,0,-1,0],[9E+09,9E+09,9E+09,9E+09,9E+09,9E+09]],v1000,fine,rdkTool,\WObj:=rdkWObj;
        MoveL [[362.935, 16.197, 15.000],[0.000000, 0.000000, 1.000000, 0.000000],[-1,0,-1,0],[9E+09,9E+09,9E+09,9E+09,9E+09,9E+09]],v1000,fine,rdkTool,\WObj:=rdkWObj;
        MoveL [[362.935, 16.197, 3.000],[0.000000, 0.000000, -1.000000, 0.000000],[-1,0,-1,0],[9E+09,9E+09,9E+09,9E+09,9E+09,9E+09]],v1000,fine,rdkTool,\WObj:=rdkWObj;
        MoveL [[362.935, 16.197, -1.500],[0.000000, 0.000000, -1.000000, 0.000000],[-1,0,-1,0],[9E+09,9E+09,9E+09,9E+09,9E+09,9E+09]],v2,fine,rdkTool,\WObj:=rdkWObj;
        MoveL [[364.426, 16.196, -1.500],[0.000000, 0.000000, -1.000000, 0.000000],[-1,0,-1,0],[9E+09,9E+09,9E+09,9E+09,9E+09,9E+09]],v6,fine,rdkTool,\WObj:=rdkWObj;
        MoveL [[367.902, 16.182, -1.500],[0.000000, 0.000000, -1.000000, 0.000000],[-1,0,-1,0],[9E+09,9E+09,9E+09,9E+09,9E+09,9E+09]],v6,fine,rdkTool,\WObj:=rdkWObj;
        MoveL [[370.157, 16.145, -1.500],[0.000000, 0.000000, -1.000000, 0.000000],[-1,0,-1,0],[9E+09,9E+09,9E+09,9E+09,9E+09,9E+09]],v6,fine,rdkTool,\WObj:=rdkWObj;
        MoveL [[371.460, 16.086, -1.500],[0.000000, 0.000000, 1.000000, 0.000000],[-1,0,-1,0],[9E+09,9E+09,9E+09,9E+09,9E+09,9E+09]],v6,fine,rdkTool,\WObj:=rdkWObj;
        MoveL [[372.201, 16.012, -1.500],[0.000000, 0.000000, -1.000000, 0.000000],[-1,0,-1,0],[9E+09,9E+09,9E+09,9E+09,9E+09,9E+09]],v6,fine,rdkTool,\WObj:=rdkWObj;
        MoveL [[372.606, 15.933, -1.500],[0.000000, 0.000000, -1.000000, 0.000000],[-1,0,-1,0],[9E+09,9E+09,9E+09,9E+09,9E+09,9E+09]],v6,fine,rdkTool,\WObj:=rdkWObj;
        MoveL [[372.838, 15.849, -1.500],[0.000000, 0.000000, -1.000000, 0.000000],[-1,0,-1,0],[9E+09,9E+09,9E+09,9E+09,9E+09,9E+09]],v6,fine,rdkTool,\WObj:=rdkWObj;
        MoveL [[372.975, 15.753, -1.500],[0.000000, 0.000000, -1.000000, 0.000000],[-1,0,-1,0],[9E+09,9E+09,9E+09,9E+09,9E+09,9E+09]],v6,fine,rdkTool,\WObj:=rdkWObj;
        MoveL [[373.047, 15.633, -1.500],[0.000000, 0.000000, -1.000000, 0.000000],[-1,0,-1,0],[9E+09,9E+09,9E+09,9E+09,9E+09,9E+09]],v6,fine,rdkTool,\WObj:=rdkWObj;
        MoveL [[373.060, 15.540, -1.500],[0.000000, 0.000000, 1.000000, 0.000000],[-1,0,-1,0],[9E+09,9E+09,9E+09,9E+09,9E+09,9E+09]],v6,fine,rdkTool,\WObj:=rdkWObj;
        MoveL [[373.046, 15.395, -1.500],[0.000000, 0.000000, -1.000000, 0.000000],[-1,0,-1,0],[9E+09,9E+09,9E+09,9E+09,9E+09,9E+09]],v6,fine,rdkTool,\WObj:=rdkWObj;
        MoveL [[373.031, 15.308, -1.500],[0.000000, 0.000000, -1.000000, 0.000000],[-1,0,-1,0],[9E+09,9E+09,9E+09,9E+09,9E+09,9E+09]],v6,fine,rdkTool,\WObj:=rdkWObj;
        MoveL [[372.974, 14.878, -1.500],[0.000000, 0.000000, -1.000000, 0.000000],[-1,0,-1,0],[9E+09,9E+09,9E+09,9E+09,9E+09,9E+09]],v6,fine,rdkTool,\WObj:=rdkWObj;
        MoveL [[372.864, 13.317, -1.500],[0.000000, 0.000000, 1.000000, 0.000000],[-1,0,-1,0],[9E+09,9E+09,9E+09,9E+09,9E+09,9E+09]],v6,fine,rdkTool,\WObj:=rdkWObj;
        MoveL [[372.858, 13.105, -1.500],[0.000000, 0.000000, -1.000000, 0.000000],[-1,0,-1,0],[9E+09,9E+09,9E+09,9E+09,9E+09,9E+09]],v6,fine,rdkTool,\WObj:=rdkWObj;
        MoveL [[372.858, 13.105, 3.000],[0.000000, 0.000000, -1.000000, 0.000000],[-1,0,-1,0],[9E+09,9E+09,9E+09,9E+09,9E+09,9E+09]],v2,fine,rdkTool,\WObj:=rdkWObj;
        MoveL [[372.858, 13.105, 15.000],[0.000000, 0.000000, -1.000000, 0.000000],[-1,0,-1,0],[9E+09,9E+09,9E+09,9E+09,9E+09,9E+09]],v1000,fine,rdkTool,\WObj:=rdkWObj;
        MoveL [[363.052, -14.948, 15.000],[0.000000, 0.000000, 1.000000, 0.000000],[-1,0,-1,0],[9E+09,9E+09,9E+09,9E+09,9E+09,9E+09]],v1000,fine,rdkTool,\WObj:=rdkWObj;
        MoveL [[363.052, -14.948, 3.000],[0.000000, 0.000000, 1.000000, 0.000000],[-1,0,-1,0],[9E+09,9E+09,9E+09,9E+09,9E+09,9E+09]],v1000,fine,rdkTool,\WObj:=rdkWObj;
        MoveL [[363.052, -14.948, -1.500],[0.000000, 0.000000, 1.000000, 0.000000],[-1,0,-1,0],[9E+09,9E+09,9E+09,9E+09,9E+09,9E+09]],v2,fine,rdkTool,\WObj:=rdkWObj;
        MoveL [[359.457, -14.927, -1.500],[0.000000, 0.000000, 1.000000, 0.000000],[-1,0,-1,0],[9E+09,9E+09,9E+09,9E+09,9E+09,9E+09]],v6,fine,rdkTool,\WObj:=rdkWObj;
        MoveL [[356.023, -14.857, -1.500],[0.000000, 0.000000, -1.000000, 0.000000],[-1,0,-1,0],[9E+09,9E+09,9E+09,9E+09,9E+09,9E+09]],v6,fine,rdkTool,\WObj:=rdkWObj;
        MoveL [[354.161, -14.780, -1.500],[0.000000, 0.000000, -1.000000, 0.000000],[-1,0,-1,0],[9E+09,9E+09,9E+09,9E+09,9E+09,9E+09]],v6,fine,rdkTool,\WObj:=rdkWObj;
        MoveL [[353.355, -14.718, -1.500],[0.000000, 0.000000, -1.000000, 0.000000],[-1,0,-1,0],[9E+09,9E+09,9E+09,9E+09,9E+09,9E+09]],v6,fine,rdkTool,\WObj:=rdkWObj;
        MoveL [[353.069, -14.676, -1.500],[0.000000, 0.000000, 1.000000, 0.000000],[-1,0,-1,0],[9E+09,9E+09,9E+09,9E+09,9E+09,9E+09]],v6,fine,rdkTool,\WObj:=rdkWObj;
        MoveL [[352.986, -14.650, -1.500],[0.000000, 0.000000, -1.000000, 0.000000],[-1,0,-1,0],[9E+09,9E+09,9E+09,9E+09,9E+09,9E+09]],v6,fine,rdkTool,\WObj:=rdkWObj;
        MoveL [[352.975, -14.643, -1.500],[0.000000, 0.000000, -1.000000, 0.000000],[-1,0,-1,0],[9E+09,9E+09,9E+09,9E+09,9E+09,9E+09]],v6,fine,rdkTool,\WObj:=rdkWObj;
        MoveL [[352.971, -14.637, -1.500],[0.000000, 0.000000, 1.000000, 0.000000],[-1,0,-1,0],[9E+09,9E+09,9E+09,9E+09,9E+09,9E+09]],v6,fine,rdkTool,\WObj:=rdkWObj;
        MoveL [[352.962, -14.614, -1.500],[0.000000, 0.000000, -1.000000, 0.000000],[-1,0,-1,0],[9E+09,9E+09,9E+09,9E+09,9E+09,9E+09]],v6,fine,rdkTool,\WObj:=rdkWObj;
        MoveL [[352.939, -14.496, -1.500],[0.000000, 0.000000, -1.000000, 0.000000],[-1,0,-1,0],[9E+09,9E+09,9E+09,9E+09,9E+09,9E+09]],v6,fine,rdkTool,\WObj:=rdkWObj;
        MoveL [[352.905, -14.151, -1.500],[0.000000, 0.000000, -1.000000, 0.000000],[-1,0,-1,0],[9E+09,9E+09,9E+09,9E+09,9E+09,9E+09]],v6,fine,rdkTool,\WObj:=rdkWObj;
        MoveL [[352.852, -13.207, -1.500],[0.000000, 0.000000, 1.000000, 0.000000],[-1,0,-1,0],[9E+09,9E+09,9E+09,9E+09,9E+09,9E+09]],v6,fine,rdkTool,\WObj:=rdkWObj;
        MoveL [[352.785, -11.071, -1.500],[0.000000, 0.000000, -1.000000, 0.000000],[-1,0,-1,0],[9E+09,9E+09,9E+09,9E+09,9E+09,9E+09]],v6,fine,rdkTool,\WObj:=rdkWObj;
        MoveL [[352.711, -6.702, -1.500],[0.000000, 0.000000, 1.000000, 0.000000],[-1,0,-1,0],[9E+09,9E+09,9E+09,9E+09,9E+09,9E+09]],v6,fine,rdkTool,\WObj:=rdkWObj;
        MoveL [[352.670, 0.930, -1.500],[0.000000, 0.000000, 1.000000, 0.000000],[-1,0,-1,0],[9E+09,9E+09,9E+09,9E+09,9E+09,9E+09]],v6,fine,rdkTool,\WObj:=rdkWObj;
        MoveL [[352.670, 0.930, 3.000],[0.000000, 0.000000, -1.000000, 0.000000],[-1,0,-1,0],[9E+09,9E+09,9E+09,9E+09,9E+09,9E+09]],v2,fine,rdkTool,\WObj:=rdkWObj;
        MoveL [[352.670, 0.930, 15.000],[0.000000, 0.000000, -1.000000, 0.000000],[-1,0,-1,0],[9E+09,9E+09,9E+09,9E+09,9E+09,9E+09]],v1000,fine,rdkTool,\WObj:=rdkWObj;
        MoveL [[82.798, 73.703, 15.000],[0.000000, 0.000000, -1.000000, 0.000000],[-1,0,-1,0],[9E+09,9E+09,9E+09,9E+09,9E+09,9E+09]],v1000,fine,rdkTool,\WObj:=rdkWObj;
        MoveL [[82.798, 73.703, 3.000],[0.000000, 0.000000, -1.000000, 0.000000],[-1,0,-1,0],[9E+09,9E+09,9E+09,9E+09,9E+09,9E+09]],v1000,fine,rdkTool,\WObj:=rdkWObj;
        MoveL [[82.798, 73.703, -1.500],[0.000000, 0.000000, 1.000000, 0.000000],[-1,0,-1,0],[9E+09,9E+09,9E+09,9E+09,9E+09,9E+09]],v2,fine,rdkTool,\WObj:=rdkWObj;
        MoveL [[82.639, 73.608, -1.500],[0.000000, 0.000000, -1.000000, 0.000000],[-1,0,-1,0],[9E+09,9E+09,9E+09,9E+09,9E+09,9E+09]],v6,fine,rdkTool,\WObj:=rdkWObj;
        MoveL [[82.275, 73.463, -1.500],[0.000000, 0.000000, 1.000000, 0.000000],[-1,0,-1,0],[9E+09,9E+09,9E+09,9E+09,9E+09,9E+09]],v6,fine,rdkTool,\WObj:=rdkWObj;
        MoveL [[81.729, 73.338, -1.500],[0.000000, 0.000000, -1.000000, 0.000000],[-1,0,-1,0],[9E+09,9E+09,9E+09,9E+09,9E+09,9E+09]],v6,fine,rdkTool,\WObj:=rdkWObj;
        MoveL [[80.922, 73.233, -1.500],[0.000000, 0.000000, 1.000000, 0.000000],[-1,0,-1,0],[9E+09,9E+09,9E+09,9E+09,9E+09,9E+09]],v6,fine,rdkTool,\WObj:=rdkWObj;
        MoveL [[79.655, 73.142, -1.500],[0.000000, 0.000000, -1.000000, 0.000000],[-1,0,-1,0],[9E+09,9E+09,9E+09,9E+09,9E+09,9E+09]],v6,fine,rdkTool,\WObj:=rdkWObj;
        MoveL [[77.588, 73.068, -1.500],[0.000000, 0.000000, -1.000000, 0.000000],[-1,0,-1,0],[9E+09,9E+09,9E+09,9E+09,9E+09,9E+09]],v6,fine,rdkTool,\WObj:=rdkWObj;
        MoveL [[74.190, 73.016, -1.500],[0.000000, 0.000000, 1.000000, 0.000000],[-1,0,-1,0],[9E+09,9E+09,9E+09,9E+09,9E+09,9E+09]],v6,fine,rdkTool,\WObj:=rdkWObj;
        MoveL [[69.211, 72.993, -1.500],[0.000000, 0.000000, -1.000000, 0.000000],[-1,0,-1,0],[9E+09,9E+09,9E+09,9E+09,9E+09,9E+09]],v6,fine,rdkTool,\WObj:=rdkWObj;
        MoveL [[65.852, 72.990, -1.500],[0.000000, 0.000000, 1.000000, 0.000000],[-1,0,-1,0],[9E+09,9E+09,9E+09,9E+09,9E+09,9E+09]],v6,fine,rdkTool,\WObj:=rdkWObj;
        MoveL [[64.083, 72.991, -1.500],[0.000000, 0.000000, -1.000000, 0.000000],[-1,0,-1,0],[9E+09,9E+09,9E+09,9E+09,9E+09,9E+09]],v6,fine,rdkTool,\WObj:=rdkWObj;
        MoveL [[58.797, 72.999, -1.500],[0.000000, 0.000000, -1.000000, 0.000000],[-1,0,-1,0],[9E+09,9E+09,9E+09,9E+09,9E+09,9E+09]],v6,fine,rdkTool,\WObj:=rdkWObj;
        MoveL [[55.184, 73.028, -1.500],[0.000000, 0.000000, 1.000000, 0.000000],[-1,0,-1,0],[9E+09,9E+09,9E+09,9E+09,9E+09,9E+09]],v6,fine,rdkTool,\WObj:=rdkWObj;
        MoveL [[52.933, 73.079, -1.500],[0.000000, 0.000000, -1.000000, 0.000000],[-1,0,-1,0],[9E+09,9E+09,9E+09,9E+09,9E+09,9E+09]],v6,fine,rdkTool,\WObj:=rdkWObj;
        MoveL [[51.625, 73.142, -1.500],[0.000000, 0.000000, -1.000000, 0.000000],[-1,0,-1,0],[9E+09,9E+09,9E+09,9E+09,9E+09,9E+09]],v6,fine,rdkTool,\WObj:=rdkWObj;
        MoveL [[50.782, 73.218, -1.500],[0.000000, 0.000000, -1.000000, 0.000000],[-1,0,-1,0],[9E+09,9E+09,9E+09,9E+09,9E+09,9E+09]],v6,fine,rdkTool,\WObj:=rdkWObj;
        MoveL [[50.183, 73.311, -1.500],[0.000000, 0.000000, -1.000000, 0.000000],[-1,0,-1,0],[9E+09,9E+09,9E+09,9E+09,9E+09,9E+09]],v6,fine,rdkTool,\WObj:=rdkWObj;
        MoveL [[49.759, 73.424, -1.500],[0.000000, 0.000000, -1.000000, 0.000000],[-1,0,-1,0],[9E+09,9E+09,9E+09,9E+09,9E+09,9E+09]],v6,fine,rdkTool,\WObj:=rdkWObj;
        MoveL [[49.502, 73.530, -1.500],[0.000000, 0.000000, -1.000000, 0.000000],[-1,0,-1,0],[9E+09,9E+09,9E+09,9E+09,9E+09,9E+09]],v6,fine,rdkTool,\WObj:=rdkWObj;
        MoveL [[49.186, 73.741, -1.500],[0.000000, 0.000000, -1.000000, 0.000000],[-1,0,-1,0],[9E+09,9E+09,9E+09,9E+09,9E+09,9E+09]],v6,fine,rdkTool,\WObj:=rdkWObj;
        MoveL [[49.007, 73.906, -1.500],[0.000000, 0.000000, 1.000000, 0.000000],[-1,0,-1,0],[9E+09,9E+09,9E+09,9E+09,9E+09,9E+09]],v6,fine,rdkTool,\WObj:=rdkWObj;
        MoveL [[48.926, 73.992, -1.500],[0.000000, 0.000000, 1.000000, 0.000000],[-1,0,-1,0],[9E+09,9E+09,9E+09,9E+09,9E+09,9E+09]],v6,fine,rdkTool,\WObj:=rdkWObj;
        MoveL [[48.783, 74.207, -1.500],[0.000000, 0.000000, 1.000000, 0.000000],[-1,0,-1,0],[9E+09,9E+09,9E+09,9E+09,9E+09,9E+09]],v6,fine,rdkTool,\WObj:=rdkWObj;
        MoveL [[48.680, 74.484, -1.500],[0.000000, 0.000000, 1.000000, 0.000000],[-1,0,-1,0],[9E+09,9E+09,9E+09,9E+09,9E+09,9E+09]],v6,fine,rdkTool,\WObj:=rdkWObj;
        MoveL [[48.585, 74.936, -1.500],[0.000000, 0.000000, -1.000000, 0.000000],[-1,0,-1,0],[9E+09,9E+09,9E+09,9E+09,9E+09,9E+09]],v6,fine,rdkTool,\WObj:=rdkWObj;
        MoveL [[48.498, 75.638, -1.500],[0.000000, 0.000000, 1.000000, 0.000000],[-1,0,-1,0],[9E+09,9E+09,9E+09,9E+09,9E+09,9E+09]],v6,fine,rdkTool,\WObj:=rdkWObj;
        MoveL [[48.408, 76.894, -1.500],[0.000000, 0.000000, 1.000000, 0.000000],[-1,0,-1,0],[9E+09,9E+09,9E+09,9E+09,9E+09,9E+09]],v6,fine,rdkTool,\WObj:=rdkWObj;
        MoveL [[48.321, 79.085, -1.500],[0.000000, 0.000000, -1.000000, 0.000000],[-1,0,-1,0],[9E+09,9E+09,9E+09,9E+09,9E+09,9E+09]],v6,fine,rdkTool,\WObj:=rdkWObj;
        MoveL [[48.243, 82.716, -1.500],[0.000000, 0.000000, -1.000000, 0.000000],[-1,0,-1,0],[9E+09,9E+09,9E+09,9E+09,9E+09,9E+09]],v6,fine,rdkTool,\WObj:=rdkWObj;
        MoveL [[48.179, 88.697, -1.500],[0.000000, 0.000000, 1.000000, 0.000000],[-1,0,-1,0],[9E+09,9E+09,9E+09,9E+09,9E+09,9E+09]],v6,fine,rdkTool,\WObj:=rdkWObj;
        MoveL [[48.135, 97.129, -1.500],[0.000000, 0.000000, -1.000000, 0.000000],[-1,0,-1,0],[9E+09,9E+09,9E+09,9E+09,9E+09,9E+09]],v6,fine,rdkTool,\WObj:=rdkWObj;
        MoveL [[48.129, 99.133, -1.500],[0.000000, 0.000000, 1.000000, 0.000000],[-1,0,-1,0],[9E+09,9E+09,9E+09,9E+09,9E+09,9E+09]],v6,fine,rdkTool,\WObj:=rdkWObj;
        MoveL [[48.113, 106.325, -1.500],[0.000000, 0.000000, 1.000000, 0.000000],[-1,0,-1,0],[9E+09,9E+09,9E+09,9E+09,9E+09,9E+09]],v6,fine,rdkTool,\WObj:=rdkWObj;
        MoveL [[48.102, 114.799, -1.500],[0.000000, 0.000000, 1.000000, 0.000000],[-1,0,-1,0],[9E+09,9E+09,9E+09,9E+09,9E+09,9E+09]],v6,fine,rdkTool,\WObj:=rdkWObj;
        MoveL [[48.094, 128.276, -1.500],[0.000000, 0.000000, 1.000000, 0.000000],[-1,0,-1,0],[9E+09,9E+09,9E+09,9E+09,9E+09,9E+09]],v6,fine,rdkTool,\WObj:=rdkWObj;
        MoveL [[48.091, 153.678, -1.500],[0.000000, 0.000000, 1.000000, 0.000000],[-1,0,-1,0],[9E+09,9E+09,9E+09,9E+09,9E+09,9E+09]],v6,fine,rdkTool,\WObj:=rdkWObj;
        MoveL [[48.091, 158.568, -1.500],[0.000000, 0.000000, -1.000000, 0.000000],[-1,0,-1,0],[9E+09,9E+09,9E+09,9E+09,9E+09,9E+09]],v6,fine,rdkTool,\WObj:=rdkWObj;
        MoveL [[48.091, 158.568, 3.000],[0.000000, 0.000000, 1.000000, 0.000000],[-1,0,-1,0],[9E+09,9E+09,9E+09,9E+09,9E+09,9E+09]],v2,fine,rdkTool,\WObj:=rdkWObj;
        MoveL [[48.091, 158.568, 15.000],[0.000000, 0.000000, -1.000000, 0.000000],[-1,0,-1,0],[9E+09,9E+09,9E+09,9E+09,9E+09,9E+09]],v1000,fine,rdkTool,\WObj:=rdkWObj;
        MoveL [[49.056, 243.186, 15.000],[0.000000, 0.000000, 1.000000, 0.000000],[-1,0,-1,0],[9E+09,9E+09,9E+09,9E+09,9E+09,9E+09]],v1000,fine,rdkTool,\WObj:=rdkWObj;
        MoveL [[49.056, 243.186, 3.000],[0.000000, 0.000000, 1.000000, 0.000000],[-1,0,-1,0],[9E+09,9E+09,9E+09,9E+09,9E+09,9E+09]],v1000,fine,rdkTool,\WObj:=rdkWObj;
        MoveL [[49.056, 243.186, -1.500],[0.000000, 0.000000, 1.000000, 0.000000],[-1,0,-1,0],[9E+09,9E+09,9E+09,9E+09,9E+09,9E+09]],v2,fine,rdkTool,\WObj:=rdkWObj;
        MoveL [[49.179, 243.289, -1.500],[0.000000, 0.000000, 1.000000, 0.000000],[-1,0,-1,0],[9E+09,9E+09,9E+09,9E+09,9E+09,9E+09]],v6,fine,rdkTool,\WObj:=rdkWObj;
        MoveL [[49.491, 243.477, -1.500],[0.000000, 0.000000, 1.000000, 0.000000],[-1,0,-1,0],[9E+09,9E+09,9E+09,9E+09,9E+09,9E+09]],v6,fine,rdkTool,\WObj:=rdkWObj;
        MoveL [[49.849, 243.602, -1.500],[0.000000, 0.000000, -1.000000, 0.000000],[-1,0,-1,0],[9E+09,9E+09,9E+09,9E+09,9E+09,9E+09]],v6,fine,rdkTool,\WObj:=rdkWObj;
        MoveL [[50.372, 243.709, -1.500],[0.000000, 0.000000, 1.000000, 0.000000],[-1,0,-1,0],[9E+09,9E+09,9E+09,9E+09,9E+09,9E+09]],v6,fine,rdkTool,\WObj:=rdkWObj;
        MoveL [[51.221, 243.808, -1.500],[0.000000, 0.000000, -1.000000, 0.000000],[-1,0,-1,0],[9E+09,9E+09,9E+09,9E+09,9E+09,9E+09]],v6,fine,rdkTool,\WObj:=rdkWObj;
        MoveL [[52.595, 243.894, -1.500],[0.000000, 0.000000, -1.000000, 0.000000],[-1,0,-1,0],[9E+09,9E+09,9E+09,9E+09,9E+09,9E+09]],v6,fine,rdkTool,\WObj:=rdkWObj;
        MoveL [[54.839, 243.965, -1.500],[0.000000, 0.000000, -1.000000, 0.000000],[-1,0,-1,0],[9E+09,9E+09,9E+09,9E+09,9E+09,9E+09]],v6,fine,rdkTool,\WObj:=rdkWObj;
        MoveL [[58.647, 244.018, -1.500],[0.000000, 0.000000, 1.000000, 0.000000],[-1,0,-1,0],[9E+09,9E+09,9E+09,9E+09,9E+09,9E+09]],v6,fine,rdkTool,\WObj:=rdkWObj;
        MoveL [[64.341, 244.045, -1.500],[0.000000, 0.000000, 1.000000, 0.000000],[-1,0,-1,0],[9E+09,9E+09,9E+09,9E+09,9E+09,9E+09]],v6,fine,rdkTool,\WObj:=rdkWObj;
        MoveL [[68.782, 244.052, -1.500],[0.000000, 0.000000, -1.000000, 0.000000],[-1,0,-1,0],[9E+09,9E+09,9E+09,9E+09,9E+09,9E+09]],v6,fine,rdkTool,\WObj:=rdkWObj;
        MoveL [[77.110, 244.054, -1.500],[0.000000, 0.000000, -1.000000, 0.000000],[-1,0,-1,0],[9E+09,9E+09,9E+09,9E+09,9E+09,9E+09]],v6,fine,rdkTool,\WObj:=rdkWObj;
        MoveL [[82.555, 244.051, -1.500],[0.000000, 0.000000, 1.000000, 0.000000],[-1,0,-1,0],[9E+09,9E+09,9E+09,9E+09,9E+09,9E+09]],v6,fine,rdkTool,\WObj:=rdkWObj;
        MoveL [[90.407, 244.032, -1.500],[0.000000, 0.000000, -1.000000, 0.000000],[-1,0,-1,0],[9E+09,9E+09,9E+09,9E+09,9E+09,9E+09]],v6,fine,rdkTool,\WObj:=rdkWObj;
        MoveL [[96.452, 243.986, -1.500],[0.000000, 0.000000, -1.000000, 0.000000],[-1,0,-1,0],[9E+09,9E+09,9E+09,9E+09,9E+09,9E+09]],v6,fine,rdkTool,\WObj:=rdkWObj;
        MoveL [[100.466, 243.913, -1.500],[0.000000, 0.000000, 1.000000, 0.000000],[-1,0,-1,0],[9E+09,9E+09,9E+09,9E+09,9E+09,9E+09]],v6,fine,rdkTool,\WObj:=rdkWObj;
        MoveL [[103.263, 243.812, -1.500],[0.000000, 0.000000, 1.000000, 0.000000],[-1,0,-1,0],[9E+09,9E+09,9E+09,9E+09,9E+09,9E+09]],v6,fine,rdkTool,\WObj:=rdkWObj;
        MoveL [[105.424, 243.671, -1.500],[0.000000, 0.000000, 1.000000, 0.000000],[-1,0,-1,0],[9E+09,9E+09,9E+09,9E+09,9E+09,9E+09]],v6,fine,rdkTool,\WObj:=rdkWObj;
        MoveL [[106.653, 243.549, -1.500],[0.000000, 0.000000, -1.000000, 0.000000],[-1,0,-1,0],[9E+09,9E+09,9E+09,9E+09,9E+09,9E+09]],v6,fine,rdkTool,\WObj:=rdkWObj;
        MoveL [[108.074, 243.355, -1.500],[0.000000, 0.000000, 1.000000, 0.000000],[-1,0,-1,0],[9E+09,9E+09,9E+09,9E+09,9E+09,9E+09]],v6,fine,rdkTool,\WObj:=rdkWObj;
        MoveL [[109.007, 243.200, -1.500],[0.000000, 0.000000, -1.000000, 0.000000],[-1,0,-1,0],[9E+09,9E+09,9E+09,9E+09,9E+09,9E+09]],v6,fine,rdkTool,\WObj:=rdkWObj;
        MoveL [[111.823, 242.655, -1.500],[0.000000, 0.000000, 1.000000, 0.000000],[-1,0,-1,0],[9E+09,9E+09,9E+09,9E+09,9E+09,9E+09]],v6,fine,rdkTool,\WObj:=rdkWObj;
        MoveL [[115.100, 241.872, -1.500],[0.000000, 0.000000, -1.000000, 0.000000],[-1,0,-1,0],[9E+09,9E+09,9E+09,9E+09,9E+09,9E+09]],v6,fine,rdkTool,\WObj:=rdkWObj;
        MoveL [[117.679, 241.110, -1.500],[0.000000, 0.000000, 1.000000, 0.000000],[-1,0,-1,0],[9E+09,9E+09,9E+09,9E+09,9E+09,9E+09]],v6,fine,rdkTool,\WObj:=rdkWObj;
        MoveL [[121.732, 239.596, -1.500],[0.000000, 0.000000, 1.000000, 0.000000],[-1,0,-1,0],[9E+09,9E+09,9E+09,9E+09,9E+09,9E+09]],v6,fine,rdkTool,\WObj:=rdkWObj;
        MoveL [[124.506, 238.329, -1.500],[0.000000, 0.000000, -1.000000, 0.000000],[-1,0,-1,0],[9E+09,9E+09,9E+09,9E+09,9E+09,9E+09]],v6,fine,rdkTool,\WObj:=rdkWObj;
        MoveL [[125.725, 237.717, -1.500],[0.000000, 0.000000, -1.000000, 0.000000],[-1,0,-1,0],[9E+09,9E+09,9E+09,9E+09,9E+09,9E+09]],v6,fine,rdkTool,\WObj:=rdkWObj;
        MoveL [[127.132, 236.970, -1.500],[0.000000, 0.000000, -1.000000, 0.000000],[-1,0,-1,0],[9E+09,9E+09,9E+09,9E+09,9E+09,9E+09]],v6,fine,rdkTool,\WObj:=rdkWObj;
        MoveL [[128.610, 236.112, -1.500],[0.000000, 0.000000, 1.000000, 0.000000],[-1,0,-1,0],[9E+09,9E+09,9E+09,9E+09,9E+09,9E+09]],v6,fine,rdkTool,\WObj:=rdkWObj;
        MoveL [[129.528, 235.514, -1.500],[0.000000, 0.000000, 1.000000, 0.000000],[-1,0,-1,0],[9E+09,9E+09,9E+09,9E+09,9E+09,9E+09]],v6,fine,rdkTool,\WObj:=rdkWObj;
        MoveL [[130.795, 234.574, -1.500],[0.000000, 0.000000, -1.000000, 0.000000],[-1,0,-1,0],[9E+09,9E+09,9E+09,9E+09,9E+09,9E+09]],v6,fine,rdkTool,\WObj:=rdkWObj;
        MoveL [[132.148, 233.422, -1.500],[0.000000, 0.000000, -1.000000, 0.000000],[-1,0,-1,0],[9E+09,9E+09,9E+09,9E+09,9E+09,9E+09]],v6,fine,rdkTool,\WObj:=rdkWObj;
        MoveL [[133.551, 232.105, -1.500],[0.000000, 0.000000, 1.000000, 0.000000],[-1,0,-1,0],[9E+09,9E+09,9E+09,9E+09,9E+09,9E+09]],v6,fine,rdkTool,\WObj:=rdkWObj;
        MoveL [[134.669, 231.005, -1.500],[0.000000, 0.000000, -1.000000, 0.000000],[-1,0,-1,0],[9E+09,9E+09,9E+09,9E+09,9E+09,9E+09]],v6,fine,rdkTool,\WObj:=rdkWObj;
        MoveL [[135.989, 229.670, -1.500],[0.000000, 0.000000, 1.000000, 0.000000],[-1,0,-1,0],[9E+09,9E+09,9E+09,9E+09,9E+09,9E+09]],v6,fine,rdkTool,\WObj:=rdkWObj;
        MoveL [[137.167, 228.420, -1.500],[0.000000, 0.000000, -1.000000, 0.000000],[-1,0,-1,0],[9E+09,9E+09,9E+09,9E+09,9E+09,9E+09]],v6,fine,rdkTool,\WObj:=rdkWObj;
        MoveL [[138.177, 227.243, -1.500],[0.000000, 0.000000, 1.000000, 0.000000],[-1,0,-1,0],[9E+09,9E+09,9E+09,9E+09,9E+09,9E+09]],v6,fine,rdkTool,\WObj:=rdkWObj;
        MoveL [[138.780, 226.456, -1.500],[0.000000, 0.000000, 1.000000, 0.000000],[-1,0,-1,0],[9E+09,9E+09,9E+09,9E+09,9E+09,9E+09]],v6,fine,rdkTool,\WObj:=rdkWObj;
        MoveL [[139.494, 225.399, -1.500],[0.000000, 0.000000, -1.000000, 0.000000],[-1,0,-1,0],[9E+09,9E+09,9E+09,9E+09,9E+09,9E+09]],v6,fine,rdkTool,\WObj:=rdkWObj;
        MoveL [[140.287, 224.043, -1.500],[0.000000, 0.000000, 1.000000, 0.000000],[-1,0,-1,0],[9E+09,9E+09,9E+09,9E+09,9E+09,9E+09]],v6,fine,rdkTool,\WObj:=rdkWObj;
        MoveL [[141.011, 222.669, -1.500],[0.000000, 0.000000, -1.000000, 0.000000],[-1,0,-1,0],[9E+09,9E+09,9E+09,9E+09,9E+09,9E+09]],v6,fine,rdkTool,\WObj:=rdkWObj;
        MoveL [[141.425, 221.845, -1.500],[0.000000, 0.000000, -1.000000, 0.000000],[-1,0,-1,0],[9E+09,9E+09,9E+09,9E+09,9E+09,9E+09]],v6,fine,rdkTool,\WObj:=rdkWObj;
        MoveL [[141.709, 221.259, -1.500],[0.000000, 0.000000, -1.000000, 0.000000],[-1,0,-1,0],[9E+09,9E+09,9E+09,9E+09,9E+09,9E+09]],v6,fine,rdkTool,\WObj:=rdkWObj;
        MoveL [[142.587, 219.299, -1.500],[0.000000, 0.000000, -1.000000, 0.000000],[-1,0,-1,0],[9E+09,9E+09,9E+09,9E+09,9E+09,9E+09]],v6,fine,rdkTool,\WObj:=rdkWObj;
        MoveL [[144.225, 215.077, -1.500],[0.000000, 0.000000, -1.000000, 0.000000],[-1,0,-1,0],[9E+09,9E+09,9E+09,9E+09,9E+09,9E+09]],v6,fine,rdkTool,\WObj:=rdkWObj;
        MoveL [[144.829, 213.238, -1.500],[0.000000, 0.000000, -1.000000, 0.000000],[-1,0,-1,0],[9E+09,9E+09,9E+09,9E+09,9E+09,9E+09]],v6,fine,rdkTool,\WObj:=rdkWObj;
        MoveL [[145.016, 212.596, -1.500],[0.000000, 0.000000, -1.000000, 0.000000],[-1,0,-1,0],[9E+09,9E+09,9E+09,9E+09,9E+09,9E+09]],v6,fine,rdkTool,\WObj:=rdkWObj;
        MoveL [[145.055, 212.455, -1.500],[0.000000, 0.000000, -1.000000, 0.000000],[-1,0,-1,0],[9E+09,9E+09,9E+09,9E+09,9E+09,9E+09]],v6,fine,rdkTool,\WObj:=rdkWObj;
        MoveL [[145.055, 212.455, 3.000],[0.000000, 0.000000, 1.000000, 0.000000],[-1,0,-1,0],[9E+09,9E+09,9E+09,9E+09,9E+09,9E+09]],v2,fine,rdkTool,\WObj:=rdkWObj;
        MoveL [[145.055, 212.455, 15.000],[0.000000, 0.000000, 1.000000, 0.000000],[-1,0,-1,0],[9E+09,9E+09,9E+09,9E+09,9E+09,9E+09]],v1000,fine,rdkTool,\WObj:=rdkWObj;
        MoveL [[139.392, 89.576, 15.000],[0.000000, 0.000000, -1.000000, 0.000000],[-1,0,-1,0],[9E+09,9E+09,9E+09,9E+09,9E+09,9E+09]],v1000,fine,rdkTool,\WObj:=rdkWObj;
        MoveL [[139.392, 89.576, 3.000],[0.000000, 0.000000, -1.000000, 0.000000],[-1,0,-1,0],[9E+09,9E+09,9E+09,9E+09,9E+09,9E+09]],v1000,fine,rdkTool,\WObj:=rdkWObj;
        MoveL [[139.392, 89.576, -1.500],[0.000000, 0.000000, -1.000000, 0.000000],[-1,0,-1,0],[9E+09,9E+09,9E+09,9E+09,9E+09,9E+09]],v2,fine,rdkTool,\WObj:=rdkWObj;
        MoveL [[139.126, 90.271, -1.500],[0.000000, 0.000000, -1.000000, 0.000000],[-1,0,-1,0],[9E+09,9E+09,9E+09,9E+09,9E+09,9E+09]],v6,fine,rdkTool,\WObj:=rdkWObj;
        MoveL [[138.390, 92.187, -1.500],[0.000000, 0.000000, -1.000000, 0.000000],[-1,0,-1,0],[9E+09,9E+09,9E+09,9E+09,9E+09,9E+09]],v6,fine,rdkTool,\WObj:=rdkWObj;
        MoveL [[136.559, 96.947, -1.500],[0.000000, 0.000000, 1.000000, 0.000000],[-1,0,-1,0],[9E+09,9E+09,9E+09,9E+09,9E+09,9E+09]],v6,fine,rdkTool,\WObj:=rdkWObj;
        MoveL [[132.812, 106.668, -1.500],[0.000000, 0.000000, 1.000000, 0.000000],[-1,0,-1,0],[9E+09,9E+09,9E+09,9E+09,9E+09,9E+09]],v6,fine,rdkTool,\WObj:=rdkWObj;
        MoveL [[129.204, 116.008, -1.500],[0.000000, 0.000000, 1.000000, 0.000000],[-1,0,-1,0],[9E+09,9E+09,9E+09,9E+09,9E+09,9E+09]],v6,fine,rdkTool,\WObj:=rdkWObj;
        MoveL [[128.051, 118.995, -1.500],[0.000000, 0.000000, -1.000000, 0.000000],[-1,0,-1,0],[9E+09,9E+09,9E+09,9E+09,9E+09,9E+09]],v6,fine,rdkTool,\WObj:=rdkWObj;
        MoveL [[124.805, 127.482, -1.500],[0.000000, 0.000000, 1.000000, 0.000000],[-1,0,-1,0],[9E+09,9E+09,9E+09,9E+09,9E+09,9E+09]],v6,fine,rdkTool,\WObj:=rdkWObj;
        MoveL [[123.358, 131.342, -1.500],[0.000000, 0.000000, -1.000000, 0.000000],[-1,0,-1,0],[9E+09,9E+09,9E+09,9E+09,9E+09,9E+09]],v6,fine,rdkTool,\WObj:=rdkWObj;
        MoveL [[122.938, 132.511, -1.500],[0.000000, 0.000000, -1.000000, 0.000000],[-1,0,-1,0],[9E+09,9E+09,9E+09,9E+09,9E+09,9E+09]],v6,fine,rdkTool,\WObj:=rdkWObj;
        MoveL [[122.866, 132.741, -1.500],[0.000000, 0.000000, -1.000000, 0.000000],[-1,0,-1,0],[9E+09,9E+09,9E+09,9E+09,9E+09,9E+09]],v6,fine,rdkTool,\WObj:=rdkWObj;
        MoveL [[122.864, 132.753, -1.500],[0.000000, 0.000000, 1.000000, 0.000000],[-1,0,-1,0],[9E+09,9E+09,9E+09,9E+09,9E+09,9E+09]],v6,fine,rdkTool,\WObj:=rdkWObj;
        MoveL [[122.864, 132.758, -1.500],[0.000000, 0.000000, 1.000000, 0.000000],[-1,0,-1,0],[9E+09,9E+09,9E+09,9E+09,9E+09,9E+09]],v6,fine,rdkTool,\WObj:=rdkWObj;
        MoveL [[122.865, 132.759, -1.500],[0.000000, 0.000000, -1.000000, 0.000000],[-1,0,-1,0],[9E+09,9E+09,9E+09,9E+09,9E+09,9E+09]],v6,fine,rdkTool,\WObj:=rdkWObj;
        MoveL [[122.868, 132.762, -1.500],[0.000000, 0.000000, -1.000000, 0.000000],[-1,0,-1,0],[9E+09,9E+09,9E+09,9E+09,9E+09,9E+09]],v6,fine,rdkTool,\WObj:=rdkWObj;
        MoveL [[122.924, 132.794, -1.500],[0.000000, 0.000000, 1.000000, 0.000000],[-1,0,-1,0],[9E+09,9E+09,9E+09,9E+09,9E+09,9E+09]],v6,fine,rdkTool,\WObj:=rdkWObj;
        MoveL [[125.715, 134.347, -1.500],[0.000000, 0.000000, -1.000000, 0.000000],[-1,0,-1,0],[9E+09,9E+09,9E+09,9E+09,9E+09,9E+09]],v6,fine,rdkTool,\WObj:=rdkWObj;
        MoveL [[126.047, 134.533, -1.500],[0.000000, 0.000000, 1.000000, 0.000000],[-1,0,-1,0],[9E+09,9E+09,9E+09,9E+09,9E+09,9E+09]],v6,fine,rdkTool,\WObj:=rdkWObj;
        MoveL [[129.215, 136.514, -1.500],[0.000000, 0.000000, -1.000000, 0.000000],[-1,0,-1,0],[9E+09,9E+09,9E+09,9E+09,9E+09,9E+09]],v6,fine,rdkTool,\WObj:=rdkWObj;
        MoveL [[133.336, 139.786, -1.500],[0.000000, 0.000000, 1.000000, 0.000000],[-1,0,-1,0],[9E+09,9E+09,9E+09,9E+09,9E+09,9E+09]],v6,fine,rdkTool,\WObj:=rdkWObj;
        MoveL [[137.926, 144.818, -1.500],[0.000000, 0.000000, -1.000000, 0.000000],[-1,0,-1,0],[9E+09,9E+09,9E+09,9E+09,9E+09,9E+09]],v6,fine,rdkTool,\WObj:=rdkWObj;
        MoveL [[140.245, 148.265, -1.500],[0.000000, 0.000000, -1.000000, 0.000000],[-1,0,-1,0],[9E+09,9E+09,9E+09,9E+09,9E+09,9E+09]],v6,fine,rdkTool,\WObj:=rdkWObj;
        MoveL [[142.409, 152.434, -1.500],[0.000000, 0.000000, -1.000000, 0.000000],[-1,0,-1,0],[9E+09,9E+09,9E+09,9E+09,9E+09,9E+09]],v6,fine,rdkTool,\WObj:=rdkWObj;
        MoveL [[143.983, 156.470, -1.500],[0.000000, 0.000000, 1.000000, 0.000000],[-1,0,-1,0],[9E+09,9E+09,9E+09,9E+09,9E+09,9E+09]],v6,fine,rdkTool,\WObj:=rdkWObj;
        MoveL [[145.161, 160.567, -1.500],[0.000000, 0.000000, -1.000000, 0.000000],[-1,0,-1,0],[9E+09,9E+09,9E+09,9E+09,9E+09,9E+09]],v6,fine,rdkTool,\WObj:=rdkWObj;
        MoveL [[145.915, 164.215, -1.500],[0.000000, 0.000000, -1.000000, 0.000000],[-1,0,-1,0],[9E+09,9E+09,9E+09,9E+09,9E+09,9E+09]],v6,fine,rdkTool,\WObj:=rdkWObj;
        MoveL [[145.962, 164.491, -1.500],[0.000000, 0.000000, -1.000000, 0.000000],[-1,0,-1,0],[9E+09,9E+09,9E+09,9E+09,9E+09,9E+09]],v6,fine,rdkTool,\WObj:=rdkWObj;
        MoveL [[146.127, 165.665, -1.500],[0.000000, 0.000000, -1.000000, 0.000000],[-1,0,-1,0],[9E+09,9E+09,9E+09,9E+09,9E+09,9E+09]],v6,fine,rdkTool,\WObj:=rdkWObj;
        MoveL [[146.271, 167.145, -1.500],[0.000000, 0.000000, -1.000000, 0.000000],[-1,0,-1,0],[9E+09,9E+09,9E+09,9E+09,9E+09,9E+09]],v6,fine,rdkTool,\WObj:=rdkWObj;
        MoveL [[146.392, 169.214, -1.500],[0.000000, 0.000000, -1.000000, 0.000000],[-1,0,-1,0],[9E+09,9E+09,9E+09,9E+09,9E+09,9E+09]],v6,fine,rdkTool,\WObj:=rdkWObj;
        MoveL [[146.471, 171.932, -1.500],[0.000000, 0.000000, 1.000000, 0.000000],[-1,0,-1,0],[9E+09,9E+09,9E+09,9E+09,9E+09,9E+09]],v6,fine,rdkTool,\WObj:=rdkWObj;
        MoveL [[146.510, 175.629, -1.500],[0.000000, 0.000000, -1.000000, 0.000000],[-1,0,-1,0],[9E+09,9E+09,9E+09,9E+09,9E+09,9E+09]],v6,fine,rdkTool,\WObj:=rdkWObj;
        MoveL [[146.505, 181.162, -1.500],[0.000000, 0.000000, -1.000000, 0.000000],[-1,0,-1,0],[9E+09,9E+09,9E+09,9E+09,9E+09,9E+09]],v6,fine,rdkTool,\WObj:=rdkWObj;
        MoveL [[146.458, 188.101, -1.500],[0.000000, 0.000000, -1.000000, 0.000000],[-1,0,-1,0],[9E+09,9E+09,9E+09,9E+09,9E+09,9E+09]],v6,fine,rdkTool,\WObj:=rdkWObj;
        MoveL [[146.458, 188.101, 3.000],[0.000000, 0.000000, 1.000000, 0.000000],[-1,0,-1,0],[9E+09,9E+09,9E+09,9E+09,9E+09,9E+09]],v2,fine,rdkTool,\WObj:=rdkWObj;
        MoveL [[146.458, 188.101, 15.000],[0.000000, 0.000000, 1.000000, 0.000000],[-1,0,-1,0],[9E+09,9E+09,9E+09,9E+09,9E+09,9E+09]],v1000,fine,rdkTool,\WObj:=rdkWObj;
        MoveL [[197.633, 158.727, 15.000],[0.000000, 0.000000, 1.000000, 0.000000],[-1,0,-1,0],[9E+09,9E+09,9E+09,9E+09,9E+09,9E+09]],v1000,fine,rdkTool,\WObj:=rdkWObj;
        MoveL [[197.633, 158.727, 3.000],[0.000000, 0.000000, -1.000000, 0.000000],[-1,0,-1,0],[9E+09,9E+09,9E+09,9E+09,9E+09,9E+09]],v1000,fine,rdkTool,\WObj:=rdkWObj;
        MoveL [[197.633, 158.727, -1.500],[0.000000, 0.000000, -1.000000, 0.000000],[-1,0,-1,0],[9E+09,9E+09,9E+09,9E+09,9E+09,9E+09]],v2,fine,rdkTool,\WObj:=rdkWObj;
        MoveL [[197.635, 140.792, -1.500],[0.000000, 0.000000, -1.000000, 0.000000],[-1,0,-1,0],[9E+09,9E+09,9E+09,9E+09,9E+09,9E+09]],v6,fine,rdkTool,\WObj:=rdkWObj;
        MoveL [[197.642, 131.174, -1.500],[0.000000, 0.000000, 1.000000, 0.000000],[-1,0,-1,0],[9E+09,9E+09,9E+09,9E+09,9E+09,9E+09]],v6,fine,rdkTool,\WObj:=rdkWObj;
        MoveL [[197.652, 125.071, -1.500],[0.000000, 0.000000, -1.000000, 0.000000],[-1,0,-1,0],[9E+09,9E+09,9E+09,9E+09,9E+09,9E+09]],v6,fine,rdkTool,\WObj:=rdkWObj;
        MoveL [[197.684, 116.084, -1.500],[0.000000, 0.000000, -1.000000, 0.000000],[-1,0,-1,0],[9E+09,9E+09,9E+09,9E+09,9E+09,9E+09]],v6,fine,rdkTool,\WObj:=rdkWObj;
        MoveL [[197.740, 109.528, -1.500],[0.000000, 0.000000, 1.000000, 0.000000],[-1,0,-1,0],[9E+09,9E+09,9E+09,9E+09,9E+09,9E+09]],v6,fine,rdkTool,\WObj:=rdkWObj;
        MoveL [[197.810, 105.716, -1.500],[0.000000, 0.000000, -1.000000, 0.000000],[-1,0,-1,0],[9E+09,9E+09,9E+09,9E+09,9E+09,9E+09]],v6,fine,rdkTool,\WObj:=rdkWObj;
        MoveL [[197.892, 103.420, -1.500],[0.000000, 0.000000, 1.000000, 0.000000],[-1,0,-1,0],[9E+09,9E+09,9E+09,9E+09,9E+09,9E+09]],v6,fine,rdkTool,\WObj:=rdkWObj;
        MoveL [[197.981, 102.053, -1.500],[0.000000, 0.000000, 1.000000, 0.000000],[-1,0,-1,0],[9E+09,9E+09,9E+09,9E+09,9E+09,9E+09]],v6,fine,rdkTool,\WObj:=rdkWObj;
        MoveL [[198.073, 101.239, -1.500],[0.000000, 0.000000, -1.000000, 0.000000],[-1,0,-1,0],[9E+09,9E+09,9E+09,9E+09,9E+09,9E+09]],v6,fine,rdkTool,\WObj:=rdkWObj;
        MoveL [[198.175, 100.716, -1.500],[0.000000, 0.000000, 1.000000, 0.000000],[-1,0,-1,0],[9E+09,9E+09,9E+09,9E+09,9E+09,9E+09]],v6,fine,rdkTool,\WObj:=rdkWObj;
        MoveL [[198.291, 100.382, -1.500],[0.000000, 0.000000, -1.000000, 0.000000],[-1,0,-1,0],[9E+09,9E+09,9E+09,9E+09,9E+09,9E+09]],v6,fine,rdkTool,\WObj:=rdkWObj;
        MoveL [[198.437, 100.141, -1.500],[0.000000, 0.000000, -1.000000, 0.000000],[-1,0,-1,0],[9E+09,9E+09,9E+09,9E+09,9E+09,9E+09]],v6,fine,rdkTool,\WObj:=rdkWObj;
        MoveL [[198.505, 100.061, -1.500],[0.000000, 0.000000, -1.000000, 0.000000],[-1,0,-1,0],[9E+09,9E+09,9E+09,9E+09,9E+09,9E+09]],v6,fine,rdkTool,\WObj:=rdkWObj;
        MoveL [[198.538, 100.025, -1.500],[0.000000, 0.000000, -1.000000, 0.000000],[-1,0,-1,0],[9E+09,9E+09,9E+09,9E+09,9E+09,9E+09]],v6,fine,rdkTool,\WObj:=rdkWObj;
        MoveL [[198.675, 99.884, -1.500],[0.000000, 0.000000, 1.000000, 0.000000],[-1,0,-1,0],[9E+09,9E+09,9E+09,9E+09,9E+09,9E+09]],v6,fine,rdkTool,\WObj:=rdkWObj;
        MoveL [[198.878, 99.729, -1.500],[0.000000, 0.000000, 1.000000, 0.000000],[-1,0,-1,0],[9E+09,9E+09,9E+09,9E+09,9E+09,9E+09]],v6,fine,rdkTool,\WObj:=rdkWObj;
        MoveL [[199.052, 99.640, -1.500],[0.000000, 0.000000, -1.000000, 0.000000],[-1,0,-1,0],[9E+09,9E+09,9E+09,9E+09,9E+09,9E+09]],v6,fine,rdkTool,\WObj:=rdkWObj;
        MoveL [[199.410, 99.523, -1.500],[0.000000, 0.000000, -1.000000, 0.000000],[-1,0,-1,0],[9E+09,9E+09,9E+09,9E+09,9E+09,9E+09]],v6,fine,rdkTool,\WObj:=rdkWObj;
        MoveL [[199.881, 99.431, -1.500],[0.000000, 0.000000, -1.000000, 0.000000],[-1,0,-1,0],[9E+09,9E+09,9E+09,9E+09,9E+09,9E+09]],v6,fine,rdkTool,\WObj:=rdkWObj;
        MoveL [[200.560, 99.350, -1.500],[0.000000, 0.000000, -1.000000, 0.000000],[-1,0,-1,0],[9E+09,9E+09,9E+09,9E+09,9E+09,9E+09]],v6,fine,rdkTool,\WObj:=rdkWObj;
        MoveL [[201.625, 99.275, -1.500],[0.000000, 0.000000, 1.000000, 0.000000],[-1,0,-1,0],[9E+09,9E+09,9E+09,9E+09,9E+09,9E+09]],v6,fine,rdkTool,\WObj:=rdkWObj;
        MoveL [[203.414, 99.207, -1.500],[0.000000, 0.000000, 1.000000, 0.000000],[-1,0,-1,0],[9E+09,9E+09,9E+09,9E+09,9E+09,9E+09]],v6,fine,rdkTool,\WObj:=rdkWObj;
        MoveL [[206.480, 99.150, -1.500],[0.000000, 0.000000, 1.000000, 0.000000],[-1,0,-1,0],[9E+09,9E+09,9E+09,9E+09,9E+09,9E+09]],v6,fine,rdkTool,\WObj:=rdkWObj;
        MoveL [[211.409, 99.115, -1.500],[0.000000, 0.000000, -1.000000, 0.000000],[-1,0,-1,0],[9E+09,9E+09,9E+09,9E+09,9E+09,9E+09]],v6,fine,rdkTool,\WObj:=rdkWObj;
        MoveL [[218.149, 99.100, -1.500],[0.000000, 0.000000, -1.000000, 0.000000],[-1,0,-1,0],[9E+09,9E+09,9E+09,9E+09,9E+09,9E+09]],v6,fine,rdkTool,\WObj:=rdkWObj;
        MoveL [[219.485, 99.099, -1.500],[0.000000, 0.000000, -1.000000, 0.000000],[-1,0,-1,0],[9E+09,9E+09,9E+09,9E+09,9E+09,9E+09]],v6,fine,rdkTool,\WObj:=rdkWObj;
        MoveL [[228.849, 99.097, -1.500],[0.000000, 0.000000, 1.000000, 0.000000],[-1,0,-1,0],[9E+09,9E+09,9E+09,9E+09,9E+09,9E+09]],v6,fine,rdkTool,\WObj:=rdkWObj;
        MoveL [[235.669, 99.090, -1.500],[0.000000, 0.000000, 1.000000, 0.000000],[-1,0,-1,0],[9E+09,9E+09,9E+09,9E+09,9E+09,9E+09]],v6,fine,rdkTool,\WObj:=rdkWObj;
        MoveL [[247.498, 99.035, -1.500],[0.000000, 0.000000, 1.000000, 0.000000],[-1,0,-1,0],[9E+09,9E+09,9E+09,9E+09,9E+09,9E+09]],v6,fine,rdkTool,\WObj:=rdkWObj;
        MoveL [[254.137, 98.964, -1.500],[0.000000, 0.000000, -1.000000, 0.000000],[-1,0,-1,0],[9E+09,9E+09,9E+09,9E+09,9E+09,9E+09]],v6,fine,rdkTool,\WObj:=rdkWObj;
        MoveL [[256.970, 98.905, -1.500],[0.000000, 0.000000, 1.000000, 0.000000],[-1,0,-1,0],[9E+09,9E+09,9E+09,9E+09,9E+09,9E+09]],v6,fine,rdkTool,\WObj:=rdkWObj;
        MoveL [[257.990, 98.865, -1.500],[0.000000, 0.000000, -1.000000, 0.000000],[-1,0,-1,0],[9E+09,9E+09,9E+09,9E+09,9E+09,9E+09]],v6,fine,rdkTool,\WObj:=rdkWObj;
        MoveL [[258.271, 98.840, -1.500],[0.000000, 0.000000, -1.000000, 0.000000],[-1,0,-1,0],[9E+09,9E+09,9E+09,9E+09,9E+09,9E+09]],v6,fine,rdkTool,\WObj:=rdkWObj;
        MoveL [[258.317, 98.828, -1.500],[0.000000, 0.000000, 1.000000, 0.000000],[-1,0,-1,0],[9E+09,9E+09,9E+09,9E+09,9E+09,9E+09]],v6,fine,rdkTool,\WObj:=rdkWObj;
        MoveL [[258.319, 98.824, -1.500],[0.000000, 0.000000, -1.000000, 0.000000],[-1,0,-1,0],[9E+09,9E+09,9E+09,9E+09,9E+09,9E+09]],v6,fine,rdkTool,\WObj:=rdkWObj;
        MoveL [[258.319, 98.813, -1.500],[0.000000, 0.000000, -1.000000, 0.000000],[-1,0,-1,0],[9E+09,9E+09,9E+09,9E+09,9E+09,9E+09]],v6,fine,rdkTool,\WObj:=rdkWObj;
        MoveL [[258.307, 98.764, -1.500],[0.000000, 0.000000, -1.000000, 0.000000],[-1,0,-1,0],[9E+09,9E+09,9E+09,9E+09,9E+09,9E+09]],v6,fine,rdkTool,\WObj:=rdkWObj;
        MoveL [[258.228, 98.579, -1.500],[0.000000, 0.000000, 1.000000, 0.000000],[-1,0,-1,0],[9E+09,9E+09,9E+09,9E+09,9E+09,9E+09]],v6,fine,rdkTool,\WObj:=rdkWObj;
        MoveL [[257.979, 98.126, -1.500],[0.000000, 0.000000, -1.000000, 0.000000],[-1,0,-1,0],[9E+09,9E+09,9E+09,9E+09,9E+09,9E+09]],v6,fine,rdkTool,\WObj:=rdkWObj;
        MoveL [[257.354, 97.151, -1.500],[0.000000, 0.000000, 1.000000, 0.000000],[-1,0,-1,0],[9E+09,9E+09,9E+09,9E+09,9E+09,9E+09]],v6,fine,rdkTool,\WObj:=rdkWObj;
        MoveL [[257.324, 97.107, -1.500],[0.000000, 0.000000, 1.000000, 0.000000],[-1,0,-1,0],[9E+09,9E+09,9E+09,9E+09,9E+09,9E+09]],v6,fine,rdkTool,\WObj:=rdkWObj;
        MoveL [[255.628, 94.820, -1.500],[0.000000, 0.000000, -1.000000, 0.000000],[-1,0,-1,0],[9E+09,9E+09,9E+09,9E+09,9E+09,9E+09]],v6,fine,rdkTool,\WObj:=rdkWObj;
        MoveL [[252.923, 91.784, -1.500],[0.000000, 0.000000, -1.000000, 0.000000],[-1,0,-1,0],[9E+09,9E+09,9E+09,9E+09,9E+09,9E+09]],v6,fine,rdkTool,\WObj:=rdkWObj;
        MoveL [[250.022, 89.188, -1.500],[0.000000, 0.000000, -1.000000, 0.000000],[-1,0,-1,0],[9E+09,9E+09,9E+09,9E+09,9E+09,9E+09]],v6,fine,rdkTool,\WObj:=rdkWObj;
        MoveL [[247.749, 87.524, -1.500],[0.000000, 0.000000, -1.000000, 0.000000],[-1,0,-1,0],[9E+09,9E+09,9E+09,9E+09,9E+09,9E+09]],v6,fine,rdkTool,\WObj:=rdkWObj;
        MoveL [[244.357, 85.504, -1.500],[0.000000, 0.000000, -1.000000, 0.000000],[-1,0,-1,0],[9E+09,9E+09,9E+09,9E+09,9E+09,9E+09]],v6,fine,rdkTool,\WObj:=rdkWObj;
        MoveL [[241.144, 83.987, -1.500],[0.000000, 0.000000, -1.000000, 0.000000],[-1,0,-1,0],[9E+09,9E+09,9E+09,9E+09,9E+09,9E+09]],v6,fine,rdkTool,\WObj:=rdkWObj;
        MoveL [[237.826, 82.731, -1.500],[0.000000, 0.000000, -1.000000, 0.000000],[-1,0,-1,0],[9E+09,9E+09,9E+09,9E+09,9E+09,9E+09]],v6,fine,rdkTool,\WObj:=rdkWObj;
        MoveL [[234.223, 81.644, -1.500],[0.000000, 0.000000, 1.000000, 0.000000],[-1,0,-1,0],[9E+09,9E+09,9E+09,9E+09,9E+09,9E+09]],v6,fine,rdkTool,\WObj:=rdkWObj;
        MoveL [[231.284, 80.924, -1.500],[0.000000, 0.000000, -1.000000, 0.000000],[-1,0,-1,0],[9E+09,9E+09,9E+09,9E+09,9E+09,9E+09]],v6,fine,rdkTool,\WObj:=rdkWObj;
        MoveL [[231.191, 80.904, -1.500],[0.000000, 0.000000, -1.000000, 0.000000],[-1,0,-1,0],[9E+09,9E+09,9E+09,9E+09,9E+09,9E+09]],v6,fine,rdkTool,\WObj:=rdkWObj;
        MoveL [[230.650, 80.799, -1.500],[0.000000, 0.000000, -1.000000, 0.000000],[-1,0,-1,0],[9E+09,9E+09,9E+09,9E+09,9E+09,9E+09]],v6,fine,rdkTool,\WObj:=rdkWObj;
        MoveL [[229.743, 80.667, -1.500],[0.000000, 0.000000, -1.000000, 0.000000],[-1,0,-1,0],[9E+09,9E+09,9E+09,9E+09,9E+09,9E+09]],v6,fine,rdkTool,\WObj:=rdkWObj;
        MoveL [[228.280, 80.529, -1.500],[0.000000, 0.000000, -1.000000, 0.000000],[-1,0,-1,0],[9E+09,9E+09,9E+09,9E+09,9E+09,9E+09]],v6,fine,rdkTool,\WObj:=rdkWObj;
        MoveL [[226.219, 80.410, -1.500],[0.000000, 0.000000, 1.000000, 0.000000],[-1,0,-1,0],[9E+09,9E+09,9E+09,9E+09,9E+09,9E+09]],v6,fine,rdkTool,\WObj:=rdkWObj;
        MoveL [[223.276, 80.310, -1.500],[0.000000, 0.000000, 1.000000, 0.000000],[-1,0,-1,0],[9E+09,9E+09,9E+09,9E+09,9E+09,9E+09]],v6,fine,rdkTool,\WObj:=rdkWObj;
        MoveL [[218.792, 80.219, -1.500],[0.000000, 0.000000, -1.000000, 0.000000],[-1,0,-1,0],[9E+09,9E+09,9E+09,9E+09,9E+09,9E+09]],v6,fine,rdkTool,\WObj:=rdkWObj;
        MoveL [[212.037, 80.141, -1.500],[0.000000, 0.000000, 1.000000, 0.000000],[-1,0,-1,0],[9E+09,9E+09,9E+09,9E+09,9E+09,9E+09]],v6,fine,rdkTool,\WObj:=rdkWObj;
        MoveL [[202.754, 80.074, -1.500],[0.000000, 0.000000, -1.000000, 0.000000],[-1,0,-1,0],[9E+09,9E+09,9E+09,9E+09,9E+09,9E+09]],v6,fine,rdkTool,\WObj:=rdkWObj;
        MoveL [[195.786, 80.039, -1.500],[0.000000, 0.000000, -1.000000, 0.000000],[-1,0,-1,0],[9E+09,9E+09,9E+09,9E+09,9E+09,9E+09]],v6,fine,rdkTool,\WObj:=rdkWObj;
        MoveL [[185.495, 79.994, -1.500],[0.000000, 0.000000, -1.000000, 0.000000],[-1,0,-1,0],[9E+09,9E+09,9E+09,9E+09,9E+09,9E+09]],v6,fine,rdkTool,\WObj:=rdkWObj;
        MoveL [[185.495, 79.994, 3.000],[0.000000, 0.000000, -1.000000, 0.000000],[-1,0,-1,0],[9E+09,9E+09,9E+09,9E+09,9E+09,9E+09]],v2,fine,rdkTool,\WObj:=rdkWObj;
        MoveL [[185.495, 79.994, 15.000],[0.000000, 0.000000, 1.000000, 0.000000],[-1,0,-1,0],[9E+09,9E+09,9E+09,9E+09,9E+09,9E+09]],v1000,fine,rdkTool,\WObj:=rdkWObj;
        MoveL [[198.714, 217.305, 15.000],[0.000000, 0.000000, -1.000000, 0.000000],[-1,0,-1,0],[9E+09,9E+09,9E+09,9E+09,9E+09,9E+09]],v1000,fine,rdkTool,\WObj:=rdkWObj;
        MoveL [[198.714, 217.305, 3.000],[0.000000, 0.000000, -1.000000, 0.000000],[-1,0,-1,0],[9E+09,9E+09,9E+09,9E+09,9E+09,9E+09]],v1000,fine,rdkTool,\WObj:=rdkWObj;
        MoveL [[198.714, 217.305, -1.500],[0.000000, 0.000000, -1.000000, 0.000000],[-1,0,-1,0],[9E+09,9E+09,9E+09,9E+09,9E+09,9E+09]],v2,fine,rdkTool,\WObj:=rdkWObj;
        MoveL [[198.923, 217.462, -1.500],[0.000000, 0.000000, -1.000000, 0.000000],[-1,0,-1,0],[9E+09,9E+09,9E+09,9E+09,9E+09,9E+09]],v6,fine,rdkTool,\WObj:=rdkWObj;
        MoveL [[199.407, 217.716, -1.500],[0.000000, 0.000000, -1.000000, 0.000000],[-1,0,-1,0],[9E+09,9E+09,9E+09,9E+09,9E+09,9E+09]],v6,fine,rdkTool,\WObj:=rdkWObj;
        MoveL [[199.900, 217.861, -1.500],[0.000000, 0.000000, -1.000000, 0.000000],[-1,0,-1,0],[9E+09,9E+09,9E+09,9E+09,9E+09,9E+09]],v6,fine,rdkTool,\WObj:=rdkWObj;
        MoveL [[200.563, 217.971, -1.500],[0.000000, 0.000000, 1.000000, 0.000000],[-1,0,-1,0],[9E+09,9E+09,9E+09,9E+09,9E+09,9E+09]],v6,fine,rdkTool,\WObj:=rdkWObj;
        MoveL [[201.564, 218.058, -1.500],[0.000000, 0.000000, -1.000000, 0.000000],[-1,0,-1,0],[9E+09,9E+09,9E+09,9E+09,9E+09,9E+09]],v6,fine,rdkTool,\WObj:=rdkWObj;
        MoveL [[203.100, 218.122, -1.500],[0.000000, 0.000000, 1.000000, 0.000000],[-1,0,-1,0],[9E+09,9E+09,9E+09,9E+09,9E+09,9E+09]],v6,fine,rdkTool,\WObj:=rdkWObj;
        MoveL [[205.600, 218.161, -1.500],[0.000000, 0.000000, -1.000000, 0.000000],[-1,0,-1,0],[9E+09,9E+09,9E+09,9E+09,9E+09,9E+09]],v6,fine,rdkTool,\WObj:=rdkWObj;
        MoveL [[209.206, 218.174, -1.500],[0.000000, 0.000000, -1.000000, 0.000000],[-1,0,-1,0],[9E+09,9E+09,9E+09,9E+09,9E+09,9E+09]],v6,fine,rdkTool,\WObj:=rdkWObj;
        MoveL [[211.080, 218.174, -1.500],[0.000000, 0.000000, -1.000000, 0.000000],[-1,0,-1,0],[9E+09,9E+09,9E+09,9E+09,9E+09,9E+09]],v6,fine,rdkTool,\WObj:=rdkWObj;
        MoveL [[214.802, 218.156, -1.500],[0.000000, 0.000000, 1.000000, 0.000000],[-1,0,-1,0],[9E+09,9E+09,9E+09,9E+09,9E+09,9E+09]],v6,fine,rdkTool,\WObj:=rdkWObj;
        MoveL [[217.996, 218.099, -1.500],[0.000000, 0.000000, -1.000000, 0.000000],[-1,0,-1,0],[9E+09,9E+09,9E+09,9E+09,9E+09,9E+09]],v6,fine,rdkTool,\WObj:=rdkWObj;
        MoveL [[220.425, 218.002, -1.500],[0.000000, 0.000000, 1.000000, 0.000000],[-1,0,-1,0],[9E+09,9E+09,9E+09,9E+09,9E+09,9E+09]],v6,fine,rdkTool,\WObj:=rdkWObj;
        MoveL [[222.432, 217.858, -1.500],[0.000000, 0.000000, 1.000000, 0.000000],[-1,0,-1,0],[9E+09,9E+09,9E+09,9E+09,9E+09,9E+09]],v6,fine,rdkTool,\WObj:=rdkWObj;
        MoveL [[224.137, 217.658, -1.500],[0.000000, 0.000000, -1.000000, 0.000000],[-1,0,-1,0],[9E+09,9E+09,9E+09,9E+09,9E+09,9E+09]],v6,fine,rdkTool,\WObj:=rdkWObj;
        MoveL [[225.811, 217.352, -1.500],[0.000000, 0.000000, 1.000000, 0.000000],[-1,0,-1,0],[9E+09,9E+09,9E+09,9E+09,9E+09,9E+09]],v6,fine,rdkTool,\WObj:=rdkWObj;
        MoveL [[226.895, 217.074, -1.500],[0.000000, 0.000000, -1.000000, 0.000000],[-1,0,-1,0],[9E+09,9E+09,9E+09,9E+09,9E+09,9E+09]],v6,fine,rdkTool,\WObj:=rdkWObj;
        MoveL [[228.405, 216.556, -1.500],[0.000000, 0.000000, 1.000000, 0.000000],[-1,0,-1,0],[9E+09,9E+09,9E+09,9E+09,9E+09,9E+09]],v6,fine,rdkTool,\WObj:=rdkWObj;
        MoveL [[229.747, 215.971, -1.500],[0.000000, 0.000000, 1.000000, 0.000000],[-1,0,-1,0],[9E+09,9E+09,9E+09,9E+09,9E+09,9E+09]],v6,fine,rdkTool,\WObj:=rdkWObj;
        MoveL [[230.491, 215.606, -1.500],[0.000000, 0.000000, 1.000000, 0.000000],[-1,0,-1,0],[9E+09,9E+09,9E+09,9E+09,9E+09,9E+09]],v6,fine,rdkTool,\WObj:=rdkWObj;
        MoveL [[231.109, 215.272, -1.500],[0.000000, 0.000000, 1.000000, 0.000000],[-1,0,-1,0],[9E+09,9E+09,9E+09,9E+09,9E+09,9E+09]],v6,fine,rdkTool,\WObj:=rdkWObj;
        MoveL [[232.706, 214.229, -1.500],[0.000000, 0.000000, 1.000000, 0.000000],[-1,0,-1,0],[9E+09,9E+09,9E+09,9E+09,9E+09,9E+09]],v6,fine,rdkTool,\WObj:=rdkWObj;
        MoveL [[234.573, 212.676, -1.500],[0.000000, 0.000000, -1.000000, 0.000000],[-1,0,-1,0],[9E+09,9E+09,9E+09,9E+09,9E+09,9E+09]],v6,fine,rdkTool,\WObj:=rdkWObj;
        MoveL [[236.492, 210.670, -1.500],[0.000000, 0.000000, 1.000000, 0.000000],[-1,0,-1,0],[9E+09,9E+09,9E+09,9E+09,9E+09,9E+09]],v6,fine,rdkTool,\WObj:=rdkWObj;
        MoveL [[238.993, 207.208, -1.500],[0.000000, 0.000000, -1.000000, 0.000000],[-1,0,-1,0],[9E+09,9E+09,9E+09,9E+09,9E+09,9E+09]],v6,fine,rdkTool,\WObj:=rdkWObj;
        MoveL [[240.178, 204.978, -1.500],[0.000000, 0.000000, -1.000000, 0.000000],[-1,0,-1,0],[9E+09,9E+09,9E+09,9E+09,9E+09,9E+09]],v6,fine,rdkTool,\WObj:=rdkWObj;
        MoveL [[240.948, 203.044, -1.500],[0.000000, 0.000000, -1.000000, 0.000000],[-1,0,-1,0],[9E+09,9E+09,9E+09,9E+09,9E+09,9E+09]],v6,fine,rdkTool,\WObj:=rdkWObj;
        MoveL [[241.263, 201.979, -1.500],[0.000000, 0.000000, -1.000000, 0.000000],[-1,0,-1,0],[9E+09,9E+09,9E+09,9E+09,9E+09,9E+09]],v6,fine,rdkTool,\WObj:=rdkWObj;
        MoveL [[241.346, 201.640, -1.500],[0.000000, 0.000000, -1.000000, 0.000000],[-1,0,-1,0],[9E+09,9E+09,9E+09,9E+09,9E+09,9E+09]],v6,fine,rdkTool,\WObj:=rdkWObj;
        MoveL [[241.360, 201.562, -1.500],[0.000000, 0.000000, -1.000000, 0.000000],[-1,0,-1,0],[9E+09,9E+09,9E+09,9E+09,9E+09,9E+09]],v6,fine,rdkTool,\WObj:=rdkWObj;
        MoveL [[241.411, 201.127, -1.500],[0.000000, 0.000000, -1.000000, 0.000000],[-1,0,-1,0],[9E+09,9E+09,9E+09,9E+09,9E+09,9E+09]],v6,fine,rdkTool,\WObj:=rdkWObj;
        MoveL [[241.478, 200.082, -1.500],[0.000000, 0.000000, -1.000000, 0.000000],[-1,0,-1,0],[9E+09,9E+09,9E+09,9E+09,9E+09,9E+09]],v6,fine,rdkTool,\WObj:=rdkWObj;
        MoveL [[241.561, 197.857, -1.500],[0.000000, 0.000000, -1.000000, 0.000000],[-1,0,-1,0],[9E+09,9E+09,9E+09,9E+09,9E+09,9E+09]],v6,fine,rdkTool,\WObj:=rdkWObj;
        MoveL [[241.657, 193.479, -1.500],[0.000000, 0.000000, -1.000000, 0.000000],[-1,0,-1,0],[9E+09,9E+09,9E+09,9E+09,9E+09,9E+09]],v6,fine,rdkTool,\WObj:=rdkWObj;
        MoveL [[241.751, 185.463, -1.500],[0.000000, 0.000000, -1.000000, 0.000000],[-1,0,-1,0],[9E+09,9E+09,9E+09,9E+09,9E+09,9E+09]],v6,fine,rdkTool,\WObj:=rdkWObj;
        MoveL [[241.809, 173.965, -1.500],[0.000000, 0.000000, 1.000000, 0.000000],[-1,0,-1,0],[9E+09,9E+09,9E+09,9E+09,9E+09,9E+09]],v6,fine,rdkTool,\WObj:=rdkWObj;
        MoveL [[241.820, 166.748, -1.500],[0.000000, 0.000000, -1.000000, 0.000000],[-1,0,-1,0],[9E+09,9E+09,9E+09,9E+09,9E+09,9E+09]],v6,fine,rdkTool,\WObj:=rdkWObj;
        MoveL [[241.820, 166.748, 3.000],[0.000000, 0.000000, 1.000000, 0.000000],[-1,0,-1,0],[9E+09,9E+09,9E+09,9E+09,9E+09,9E+09]],v2,fine,rdkTool,\WObj:=rdkWObj;
        MoveL [[241.820, 166.748, 15.000],[0.000000, 0.000000, -1.000000, 0.000000],[-1,0,-1,0],[9E+09,9E+09,9E+09,9E+09,9E+09,9E+09]],v1000,fine,rdkTool,\WObj:=rdkWObj;
        MoveL [[213.646, 210.852, 15.000],[0.000000, 0.000000, -1.000000, 0.000000],[-1,0,-1,0],[9E+09,9E+09,9E+09,9E+09,9E+09,9E+09]],v1000,fine,rdkTool,\WObj:=rdkWObj;
        MoveL [[213.646, 210.852, 3.000],[0.000000, 0.000000, -1.000000, 0.000000],[-1,0,-1,0],[9E+09,9E+09,9E+09,9E+09,9E+09,9E+09]],v1000,fine,rdkTool,\WObj:=rdkWObj;
        MoveL [[213.646, 210.852, -1.500],[0.000000, 0.000000, 1.000000, 0.000000],[-1,0,-1,0],[9E+09,9E+09,9E+09,9E+09,9E+09,9E+09]],v2,fine,rdkTool,\WObj:=rdkWObj;
        MoveL [[213.982, 210.852, -1.500],[0.000000, 0.000000, 1.000000, 0.000000],[-1,0,-1,0],[9E+09,9E+09,9E+09,9E+09,9E+09,9E+09]],v6,fine,rdkTool,\WObj:=rdkWObj;
        MoveL [[216.691, 210.834, -1.500],[0.000000, 0.000000, -1.000000, 0.000000],[-1,0,-1,0],[9E+09,9E+09,9E+09,9E+09,9E+09,9E+09]],v6,fine,rdkTool,\WObj:=rdkWObj;
        MoveL [[219.255, 210.768, -1.500],[0.000000, 0.000000, -1.000000, 0.000000],[-1,0,-1,0],[9E+09,9E+09,9E+09,9E+09,9E+09,9E+09]],v6,fine,rdkTool,\WObj:=rdkWObj;
        MoveL [[221.229, 210.648, -1.500],[0.000000, 0.000000, -1.000000, 0.000000],[-1,0,-1,0],[9E+09,9E+09,9E+09,9E+09,9E+09,9E+09]],v6,fine,rdkTool,\WObj:=rdkWObj;
        MoveL [[222.845, 210.465, -1.500],[0.000000, 0.000000, 1.000000, 0.000000],[-1,0,-1,0],[9E+09,9E+09,9E+09,9E+09,9E+09,9E+09]],v6,fine,rdkTool,\WObj:=rdkWObj;
        MoveL [[224.239, 210.201, -1.500],[0.000000, 0.000000, 1.000000, 0.000000],[-1,0,-1,0],[9E+09,9E+09,9E+09,9E+09,9E+09,9E+09]],v6,fine,rdkTool,\WObj:=rdkWObj;
        MoveL [[225.556, 209.804, -1.500],[0.000000, 0.000000, 1.000000, 0.000000],[-1,0,-1,0],[9E+09,9E+09,9E+09,9E+09,9E+09,9E+09]],v6,fine,rdkTool,\WObj:=rdkWObj;
        MoveL [[226.957, 209.148, -1.500],[0.000000, 0.000000, 1.000000, 0.000000],[-1,0,-1,0],[9E+09,9E+09,9E+09,9E+09,9E+09,9E+09]],v6,fine,rdkTool,\WObj:=rdkWObj;
        MoveL [[227.769, 208.625, -1.500],[0.000000, 0.000000, 1.000000, 0.000000],[-1,0,-1,0],[9E+09,9E+09,9E+09,9E+09,9E+09,9E+09]],v6,fine,rdkTool,\WObj:=rdkWObj;
        MoveL [[228.726, 207.874, -1.500],[0.000000, 0.000000, -1.000000, 0.000000],[-1,0,-1,0],[9E+09,9E+09,9E+09,9E+09,9E+09,9E+09]],v6,fine,rdkTool,\WObj:=rdkWObj;
        MoveL [[229.612, 207.065, -1.500],[0.000000, 0.000000, 1.000000, 0.000000],[-1,0,-1,0],[9E+09,9E+09,9E+09,9E+09,9E+09,9E+09]],v6,fine,rdkTool,\WObj:=rdkWObj;
        MoveL [[230.435, 206.249, -1.500],[0.000000, 0.000000, 1.000000, 0.000000],[-1,0,-1,0],[9E+09,9E+09,9E+09,9E+09,9E+09,9E+09]],v6,fine,rdkTool,\WObj:=rdkWObj;
        MoveL [[230.695, 205.986, -1.500],[0.000000, 0.000000, 1.000000, 0.000000],[-1,0,-1,0],[9E+09,9E+09,9E+09,9E+09,9E+09,9E+09]],v6,fine,rdkTool,\WObj:=rdkWObj;
        MoveL [[231.076, 205.605, -1.500],[0.000000, 0.000000, -1.000000, 0.000000],[-1,0,-1,0],[9E+09,9E+09,9E+09,9E+09,9E+09,9E+09]],v6,fine,rdkTool,\WObj:=rdkWObj;
        MoveL [[231.558, 205.123, -1.500],[0.000000, 0.000000, 1.000000, 0.000000],[-1,0,-1,0],[9E+09,9E+09,9E+09,9E+09,9E+09,9E+09]],v6,fine,rdkTool,\WObj:=rdkWObj;
