%%%
  VERSION:1
  LANGUAGE:ENGLISH
%%%

MODULE MOD_Milling
    
    PERS tooldata rdkTool := [TRUE,[[0,0,141.258],[1,0,0,0]],[2,[0,0,15],[1,0,0,0],0,0,0.005]];
    PERS wobjdata rdkWObj := [FALSE, TRUE, "", [[226.5,-1979.7,548.6],[1,0,0,0]],[[0,0,0],[1,0,0,0]]];

    ! -------------------------------
    ! Code added by Matthijs Visser 
    ! Define your variables here
    ! ...
    VAR speeddata v2 := [20,500,500,500];
    VAR speeddata v6 := [40,500,500,500];


    ! -------------------------------
    ! Define your functions here
    ! ...
    PROC Main()
          Milling;
    ENDPROC
    
    PROC Milling()
        ! Program generated by RoboDK 2.5.8 for ABB IRB 6400 2.4 120 on 30/09/2016 12:43:48
        ! Using nominal kinematics.
        MoveAbsJ [[-85.141380,38.716550,38.589000,0.000000,51.411000,-85.141380],[9E+09,9E+09,9E+09,9E+09,9E+09,9E+09]],v1000,fine,rdkTool,\WObj:=rdkWObj;
        MoveL [[0.000, 0.000, 115.000],[0.000000, 0.000000, 1.000000, 0.000000],[-1,0,-1,0],[9E+09,9E+09,9E+09,9E+09,9E+09,9E+09]],v1000,fine,rdkTool,\WObj:=rdkWObj;
        MoveL [[0.000, 0.000, 15.000],[0.000000, 0.000000, -1.000000, 0.000000],[-1,0,-1,0],[9E+09,9E+09,9E+09,9E+09,9E+09,9E+09]],v1000,fine,rdkTool,\WObj:=rdkWObj;
        MoveL [[0.000, 0.000, 15.000],[0.000000, 0.000000, -1.000000, 0.000000],[-1,0,-1,0],[9E+09,9E+09,9E+09,9E+09,9E+09,9E+09]],v1000,fine,rdkTool,\WObj:=rdkWObj;
        MoveL [[48.091, -40.594, 15.000],[0.000000, 0.000000, 1.000000, 0.000000],[-1,0,-1,0],[9E+09,9E+09,9E+09,9E+09,9E+09,9E+09]],v1000,fine,rdkTool,\WObj:=rdkWObj;
        MoveL [[48.091, -40.594, 3.000],[0.000000, 0.000000, 1.000000, 0.000000],[-1,0,-1,0],[9E+09,9E+09,9E+09,9E+09,9E+09,9E+09]],v1000,fine,rdkTool,\WObj:=rdkWObj;
        MoveL [[48.091, -40.594, -1.500],[0.000000, 0.000000, -1.000000, 0.000000],[-1,0,-1,0],[9E+09,9E+09,9E+09,9E+09,9E+09,9E+09]],v2,fine,rdkTool,\WObj:=rdkWObj;
        MoveL [[122.862, -40.710, -1.500],[0.000000, 0.000000, 1.000000, 0.000000],[-1,0,-1,0],[9E+09,9E+09,9E+09,9E+09,9E+09,9E+09]],v6,fine,rdkTool,\WObj:=rdkWObj;
        MoveL [[197.633, -40.826, -1.500],[0.000000, 0.000000, 1.000000, 0.000000],[-1,0,-1,0],[9E+09,9E+09,9E+09,9E+09,9E+09,9E+09]],v6,fine,rdkTool,\WObj:=rdkWObj;
        MoveL [[197.768, -43.924, -1.500],[0.000000, 0.000000, -1.000000, 0.000000],[-1,0,-1,0],[9E+09,9E+09,9E+09,9E+09,9E+09,9E+09]],v6,fine,rdkTool,\WObj:=rdkWObj;
        MoveL [[48.091, -43.954, -1.500],[0.000000, 0.000000, -1.000000, 0.000000],[-1,0,-1,0],[9E+09,9E+09,9E+09,9E+09,9E+09,9E+09]],v6,fine,rdkTool,\WObj:=rdkWObj;
        MoveL [[48.091, -40.594, -1.500],[0.000000, 0.000000, -1.000000, 0.000000],[-1,0,-1,0],[9E+09,9E+09,9E+09,9E+09,9E+09,9E+09]],v6,fine,rdkTool,\WObj:=rdkWObj;
        MoveL [[48.091, -40.594, 3.000],[0.000000, 0.000000, 1.000000, 0.000000],[-1,0,-1,0],[9E+09,9E+09,9E+09,9E+09,9E+09,9E+09]],v2,fine,rdkTool,\WObj:=rdkWObj;
        MoveL [[48.091, -40.594, 15.000],[0.000000, 0.000000, 1.000000, 0.000000],[-1,0,-1,0],[9E+09,9E+09,9E+09,9E+09,9E+09,9E+09]],v1000,fine,rdkTool,\WObj:=rdkWObj;
        MoveL [[49.007, -41.513, 15.000],[0.000000, 0.000000, -1.000000, 0.000000],[-1,0,-1,0],[9E+09,9E+09,9E+09,9E+09,9E+09,9E+09]],v1000,fine,rdkTool,\WObj:=rdkWObj;
        MoveL [[49.007, -41.513, 3.000],[0.000000, 0.000000, -1.000000, 0.000000],[-1,0,-1,0],[9E+09,9E+09,9E+09,9E+09,9E+09,9E+09]],v1000,fine,rdkTool,\WObj:=rdkWObj;
        MoveL [[49.007, -41.513, -1.500],[0.000000, 0.000000, 1.000000, 0.000000],[-1,0,-1,0],[9E+09,9E+09,9E+09,9E+09,9E+09,9E+09]],v2,fine,rdkTool,\WObj:=rdkWObj;
        MoveL [[122.748, -41.513, -1.500],[0.000000, 0.000000, -1.000000, 0.000000],[-1,0,-1,0],[9E+09,9E+09,9E+09,9E+09,9E+09,9E+09]],v6,fine,rdkTool,\WObj:=rdkWObj;
        MoveL [[196.488, -41.513, -1.500],[0.000000, 0.000000, -1.000000, 0.000000],[-1,0,-1,0],[9E+09,9E+09,9E+09,9E+09,9E+09,9E+09]],v6,fine,rdkTool,\WObj:=rdkWObj;
        MoveL [[196.488, -44.032, -1.500],[0.000000, 0.000000, -1.000000, 0.000000],[-1,0,-1,0],[9E+09,9E+09,9E+09,9E+09,9E+09,9E+09]],v6,fine,rdkTool,\WObj:=rdkWObj;
        MoveL [[196.488, -46.551, -1.500],[0.000000, 0.000000, 1.000000, 0.000000],[-1,0,-1,0],[9E+09,9E+09,9E+09,9E+09,9E+09,9E+09]],v6,fine,rdkTool,\WObj:=rdkWObj;
        MoveL [[122.748, -46.551, -1.500],[0.000000, 0.000000, -1.000000, 0.000000],[-1,0,-1,0],[9E+09,9E+09,9E+09,9E+09,9E+09,9E+09]],v6,fine,rdkTool,\WObj:=rdkWObj;
        MoveL [[49.007, -46.551, -1.500],[0.000000, 0.000000, 1.000000, 0.000000],[-1,0,-1,0],[9E+09,9E+09,9E+09,9E+09,9E+09,9E+09]],v6,fine,rdkTool,\WObj:=rdkWObj;
        MoveL [[49.007, -44.032, -1.500],[0.000000, 0.000000, 1.000000, 0.000000],[-1,0,-1,0],[9E+09,9E+09,9E+09,9E+09,9E+09,9E+09]],v6,fine,rdkTool,\WObj:=rdkWObj;
        MoveL [[49.007, -41.513, -1.500],[0.000000, 0.000000, 1.000000, 0.000000],[-1,0,-1,0],[9E+09,9E+09,9E+09,9E+09,9E+09,9E+09]],v6,fine,rdkTool,\WObj:=rdkWObj;
        MoveL [[49.007, -41.513, 3.000],[0.000000, 0.000000, -1.000000, 0.000000],[-1,0,-1,0],[9E+09,9E+09,9E+09,9E+09,9E+09,9E+09]],v2,fine,rdkTool,\WObj:=rdkWObj;
        MoveL [[49.007, -41.513, 15.000],[0.000000, 0.000000, -1.000000, 0.000000],[-1,0,-1,0],[9E+09,9E+09,9E+09,9E+09,9E+09,9E+09]],v1000,fine,rdkTool,\WObj:=rdkWObj;
        MoveL [[238.813, 11.179, 15.000],[0.000000, 0.000000, -1.000000, 0.000000],[-1,0,-1,0],[9E+09,9E+09,9E+09,9E+09,9E+09,9E+09]],v1000,fine,rdkTool,\WObj:=rdkWObj;
        MoveL [[238.813, 11.179, 3.000],[0.000000, 0.000000, -1.000000, 0.000000],[-1,0,-1,0],[9E+09,9E+09,9E+09,9E+09,9E+09,9E+09]],v1000,fine,rdkTool,\WObj:=rdkWObj;
        MoveL [[238.813, 11.179, -1.500],[0.000000, 0.000000, -1.000000, 0.000000],[-1,0,-1,0],[9E+09,9E+09,9E+09,9E+09,9E+09,9E+09]],v2,fine,rdkTool,\WObj:=rdkWObj;
        MoveL [[241.887, 11.602, -1.500],[0.000000, 0.000000, -1.000000, 0.000000],[-1,0,-1,0],[9E+09,9E+09,9E+09,9E+09,9E+09,9E+09]],v6,fine,rdkTool,\WObj:=rdkWObj;
        MoveL [[240.569, 10.284, -1.500],[0.000000, 0.000000, 1.000000, 0.000000],[-1,0,-1,0],[9E+09,9E+09,9E+09,9E+09,9E+09,9E+09]],v6,fine,rdkTool,\WObj:=rdkWObj;
        MoveL [[238.813, 11.179, -1.500],[0.000000, 0.000000, -1.000000, 0.000000],[-1,0,-1,0],[9E+09,9E+09,9E+09,9E+09,9E+09,9E+09]],v6,fine,rdkTool,\WObj:=rdkWObj;
        MoveL [[238.813, 11.179, 3.000],[0.000000, 0.000000, -1.000000, 0.000000],[-1,0,-1,0],[9E+09,9E+09,9E+09,9E+09,9E+09,9E+09]],v2,fine,rdkTool,\WObj:=rdkWObj;
        MoveL [[238.813, 11.179, 15.000],[0.000000, 0.000000, -1.000000, 0.000000],[-1,0,-1,0],[9E+09,9E+09,9E+09,9E+09,9E+09,9E+09]],v1000,fine,rdkTool,\WObj:=rdkWObj;
        MoveL [[224.043, -9.759, 15.000],[0.000000, 0.000000, 1.000000, 0.000000],[-1,0,-1,0],[9E+09,9E+09,9E+09,9E+09,9E+09,9E+09]],v1000,fine,rdkTool,\WObj:=rdkWObj;
        MoveL [[224.043, -9.759, 3.000],[0.000000, 0.000000, -1.000000, 0.000000],[-1,0,-1,0],[9E+09,9E+09,9E+09,9E+09,9E+09,9E+09]],v1000,fine,rdkTool,\WObj:=rdkWObj;
        MoveL [[224.043, -9.759, -1.500],[0.000000, 0.000000, -1.000000, 0.000000],[-1,0,-1,0],[9E+09,9E+09,9E+09,9E+09,9E+09,9E+09]],v2,fine,rdkTool,\WObj:=rdkWObj;
        MoveL [[225.492, -8.487, -1.500],[0.000000, 0.000000, 1.000000, 0.000000],[-1,0,-1,0],[9E+09,9E+09,9E+09,9E+09,9E+09,9E+09]],v6,fine,rdkTool,\WObj:=rdkWObj;
        MoveL [[227.593, -9.387, -1.500],[0.000000, 0.000000, -1.000000, 0.000000],[-1,0,-1,0],[9E+09,9E+09,9E+09,9E+09,9E+09,9E+09]],v6,fine,rdkTool,\WObj:=rdkWObj;
        MoveL [[224.043, -9.759, -1.500],[0.000000, 0.000000, -1.000000, 0.000000],[-1,0,-1,0],[9E+09,9E+09,9E+09,9E+09,9E+09,9E+09]],v6,fine,rdkTool,\WObj:=rdkWObj;
        MoveL [[224.043, -9.759, 3.000],[0.000000, 0.000000, -1.000000, 0.000000],[-1,0,-1,0],[9E+09,9E+09,9E+09,9E+09,9E+09,9E+09]],v2,fine,rdkTool,\WObj:=rdkWObj;
        MoveL [[224.043, -9.759, 15.000],[0.000000, 0.000000, 1.000000, 0.000000],[-1,0,-1,0],[9E+09,9E+09,9E+09,9E+09,9E+09,9E+09]],v1000,fine,rdkTool,\WObj:=rdkWObj;
        MoveL [[334.779, -6.657, 15.000],[0.000000, 0.000000, -1.000000, 0.000000],[-1,0,-1,0],[9E+09,9E+09,9E+09,9E+09,9E+09,9E+09]],v1000,fine,rdkTool,\WObj:=rdkWObj;
        MoveL [[334.779, -6.657, 3.000],[0.000000, 0.000000, 1.000000, 0.000000],[-1,0,-1,0],[9E+09,9E+09,9E+09,9E+09,9E+09,9E+09]],v1000,fine,rdkTool,\WObj:=rdkWObj;
        MoveL [[334.779, -6.657, -1.500],[0.000000, 0.000000, 1.000000, 0.000000],[-1,0,-1,0],[9E+09,9E+09,9E+09,9E+09,9E+09,9E+09]],v2,fine,rdkTool,\WObj:=rdkWObj;
        MoveL [[335.782, -4.872, -1.500],[0.000000, 0.000000, 1.000000, 0.000000],[-1,0,-1,0],[9E+09,9E+09,9E+09,9E+09,9E+09,9E+09]],v6,fine,rdkTool,\WObj:=rdkWObj;
        MoveL [[339.188, -4.872, -1.500],[0.000000, 0.000000, -1.000000, 0.000000],[-1,0,-1,0],[9E+09,9E+09,9E+09,9E+09,9E+09,9E+09]],v6,fine,rdkTool,\WObj:=rdkWObj;
        MoveL [[342.594, -4.872, -1.500],[0.000000, 0.000000, -1.000000, 0.000000],[-1,0,-1,0],[9E+09,9E+09,9E+09,9E+09,9E+09,9E+09]],v6,fine,rdkTool,\WObj:=rdkWObj;
        MoveL [[342.594, -6.190, -1.500],[0.000000, 0.000000, 1.000000, 0.000000],[-1,0,-1,0],[9E+09,9E+09,9E+09,9E+09,9E+09,9E+09]],v6,fine,rdkTool,\WObj:=rdkWObj;
        MoveL [[334.779, -6.657, -1.500],[0.000000, 0.000000, 1.000000, 0.000000],[-1,0,-1,0],[9E+09,9E+09,9E+09,9E+09,9E+09,9E+09]],v6,fine,rdkTool,\WObj:=rdkWObj;
        MoveL [[334.779, -6.657, 3.000],[0.000000, 0.000000, 1.000000, 0.000000],[-1,0,-1,0],[9E+09,9E+09,9E+09,9E+09,9E+09,9E+09]],v2,fine,rdkTool,\WObj:=rdkWObj;
        MoveL [[334.779, -6.657, 15.000],[0.000000, 0.000000, -1.000000, 0.000000],[-1,0,-1,0],[9E+09,9E+09,9E+09,9E+09,9E+09,9E+09]],v1000,fine,rdkTool,\WObj:=rdkWObj;
        MoveL [[48.200, 0.739, 15.000],[0.000000, 0.000000, -1.000000, 0.000000],[-1,0,-1,0],[9E+09,9E+09,9E+09,9E+09,9E+09,9E+09]],v1000,fine,rdkTool,\WObj:=rdkWObj;
        MoveL [[48.200, 0.739, 3.000],[0.000000, 0.000000, 1.000000, 0.000000],[-1,0,-1,0],[9E+09,9E+09,9E+09,9E+09,9E+09,9E+09]],v1000,fine,rdkTool,\WObj:=rdkWObj;
        MoveL [[48.200, 0.739, -1.500],[0.000000, 0.000000, -1.000000, 0.000000],[-1,0,-1,0],[9E+09,9E+09,9E+09,9E+09,9E+09,9E+09]],v2,fine,rdkTool,\WObj:=rdkWObj;
        MoveL [[48.320, 17.342, -1.500],[0.000000, 0.000000, -1.000000, 0.000000],[-1,0,-1,0],[9E+09,9E+09,9E+09,9E+09,9E+09,9E+09]],v6,fine,rdkTool,\WObj:=rdkWObj;
        MoveL [[51.755, 17.342, -1.500],[0.000000, 0.000000, -1.000000, 0.000000],[-1,0,-1,0],[9E+09,9E+09,9E+09,9E+09,9E+09,9E+09]],v6,fine,rdkTool,\WObj:=rdkWObj;
        MoveL [[55.191, 17.342, -1.500],[0.000000, 0.000000, -1.000000, 0.000000],[-1,0,-1,0],[9E+09,9E+09,9E+09,9E+09,9E+09,9E+09]],v6,fine,rdkTool,\WObj:=rdkWObj;
        MoveL [[59.229, 9.109, -1.500],[0.000000, 0.000000, -1.000000, 0.000000],[-1,0,-1,0],[9E+09,9E+09,9E+09,9E+09,9E+09,9E+09]],v6,fine,rdkTool,\WObj:=rdkWObj;
        MoveL [[63.267, 0.876, -1.500],[0.000000, 0.000000, -1.000000, 0.000000],[-1,0,-1,0],[9E+09,9E+09,9E+09,9E+09,9E+09,9E+09]],v6,fine,rdkTool,\WObj:=rdkWObj;
        MoveL [[66.218, 7.048, -1.500],[0.000000, 0.000000, -1.000000, 0.000000],[-1,0,-1,0],[9E+09,9E+09,9E+09,9E+09,9E+09,9E+09]],v6,fine,rdkTool,\WObj:=rdkWObj;
        MoveL [[48.200, 0.739, -1.500],[0.000000, 0.000000, -1.000000, 0.000000],[-1,0,-1,0],[9E+09,9E+09,9E+09,9E+09,9E+09,9E+09]],v6,fine,rdkTool,\WObj:=rdkWObj;
        MoveL [[48.200, 0.739, 3.000],[0.000000, 0.000000, 1.000000, 0.000000],[-1,0,-1,0],[9E+09,9E+09,9E+09,9E+09,9E+09,9E+09]],v2,fine,rdkTool,\WObj:=rdkWObj;
        MoveL [[48.200, 0.739, 15.000],[0.000000, 0.000000, -1.000000, 0.000000],[-1,0,-1,0],[9E+09,9E+09,9E+09,9E+09,9E+09,9E+09]],v1000,fine,rdkTool,\WObj:=rdkWObj;
        MoveL [[48.200, 0.739, 15.000],[0.000000, 0.000000, -1.000000, 0.000000],[-1,0,-1,0],[9E+09,9E+09,9E+09,9E+09,9E+09,9E+09]],v1000,fine,rdkTool,\WObj:=rdkWObj;
        MoveL [[48.200, 0.739, 3.000],[0.000000, 0.000000, 1.000000, 0.000000],[-1,0,-1,0],[9E+09,9E+09,9E+09,9E+09,9E+09,9E+09]],v1000,fine,rdkTool,\WObj:=rdkWObj;
        MoveL [[48.200, 0.739, -1.500],[0.000000, 0.000000, -1.000000, 0.000000],[-1,0,-1,0],[9E+09,9E+09,9E+09,9E+09,9E+09,9E+09]],v2,fine,rdkTool,\WObj:=rdkWObj;
        MoveL [[70.195, 15.281, -1.500],[0.000000, 0.000000, -1.000000, 0.000000],[-1,0,-1,0],[9E+09,9E+09,9E+09,9E+09,9E+09,9E+09]],v6,fine,rdkTool,\WObj:=rdkWObj;
        MoveL [[71.221, 17.342, -1.500],[0.000000, 0.000000, -1.000000, 0.000000],[-1,0,-1,0],[9E+09,9E+09,9E+09,9E+09,9E+09,9E+09]],v6,fine,rdkTool,\WObj:=rdkWObj;
        MoveL [[74.656, 17.342, -1.500],[0.000000, 0.000000, -1.000000, 0.000000],[-1,0,-1,0],[9E+09,9E+09,9E+09,9E+09,9E+09,9E+09]],v6,fine,rdkTool,\WObj:=rdkWObj;
        MoveL [[78.091, 17.342, -1.500],[0.000000, 0.000000, -1.000000, 0.000000],[-1,0,-1,0],[9E+09,9E+09,9E+09,9E+09,9E+09,9E+09]],v6,fine,rdkTool,\WObj:=rdkWObj;
        MoveL [[78.211, 0.739, -1.500],[0.000000, 0.000000, -1.000000, 0.000000],[-1,0,-1,0],[9E+09,9E+09,9E+09,9E+09,9E+09,9E+09]],v6,fine,rdkTool,\WObj:=rdkWObj;
        MoveL [[78.332, -15.864, -1.500],[0.000000, 0.000000, -1.000000, 0.000000],[-1,0,-1,0],[9E+09,9E+09,9E+09,9E+09,9E+09,9E+09]],v6,fine,rdkTool,\WObj:=rdkWObj;
        MoveL [[74.662, -15.864, -1.500],[0.000000, 0.000000, -1.000000, 0.000000],[-1,0,-1,0],[9E+09,9E+09,9E+09,9E+09,9E+09,9E+09]],v6,fine,rdkTool,\WObj:=rdkWObj;
        MoveL [[70.992, -15.864, -1.500],[0.000000, 0.000000, 1.000000, 0.000000],[-1,0,-1,0],[9E+09,9E+09,9E+09,9E+09,9E+09,9E+09]],v6,fine,rdkTool,\WObj:=rdkWObj;
        MoveL [[70.992, -7.552, -1.500],[0.000000, 0.000000, -1.000000, 0.000000],[-1,0,-1,0],[9E+09,9E+09,9E+09,9E+09,9E+09,9E+09]],v6,fine,rdkTool,\WObj:=rdkWObj;
        MoveL [[70.992, 0.760, -1.500],[0.000000, 0.000000, -1.000000, 0.000000],[-1,0,-1,0],[9E+09,9E+09,9E+09,9E+09,9E+09,9E+09]],v6,fine,rdkTool,\WObj:=rdkWObj;
        MoveL [[68.486, -4.346, -1.500],[0.000000, 0.000000, -1.000000, 0.000000],[-1,0,-1,0],[9E+09,9E+09,9E+09,9E+09,9E+09,9E+09]],v6,fine,rdkTool,\WObj:=rdkWObj;
        MoveL [[65.980, -9.452, -1.500],[0.000000, 0.000000, -1.000000, 0.000000],[-1,0,-1,0],[9E+09,9E+09,9E+09,9E+09,9E+09,9E+09]],v6,fine,rdkTool,\WObj:=rdkWObj;
        MoveL [[63.307, -9.452, -1.500],[0.000000, 0.000000, -1.000000, 0.000000],[-1,0,-1,0],[9E+09,9E+09,9E+09,9E+09,9E+09,9E+09]],v6,fine,rdkTool,\WObj:=rdkWObj;
        MoveL [[60.634, -9.452, -1.500],[0.000000, 0.000000, -1.000000, 0.000000],[-1,0,-1,0],[9E+09,9E+09,9E+09,9E+09,9E+09,9E+09]],v6,fine,rdkTool,\WObj:=rdkWObj;
        MoveL [[58.027, -4.106, -1.500],[0.000000, 0.000000, -1.000000, 0.000000],[-1,0,-1,0],[9E+09,9E+09,9E+09,9E+09,9E+09,9E+09]],v6,fine,rdkTool,\WObj:=rdkWObj;
        MoveL [[55.420, 1.240, -1.500],[0.000000, 0.000000, -1.000000, 0.000000],[-1,0,-1,0],[9E+09,9E+09,9E+09,9E+09,9E+09,9E+09]],v6,fine,rdkTool,\WObj:=rdkWObj;
        MoveL [[55.420, -7.312, -1.500],[0.000000, 0.000000, -1.000000, 0.000000],[-1,0,-1,0],[9E+09,9E+09,9E+09,9E+09,9E+09,9E+09]],v6,fine,rdkTool,\WObj:=rdkWObj;
        MoveL [[55.420, -15.864, -1.500],[0.000000, 0.000000, 1.000000, 0.000000],[-1,0,-1,0],[9E+09,9E+09,9E+09,9E+09,9E+09,9E+09]],v6,fine,rdkTool,\WObj:=rdkWObj;
        MoveL [[51.750, -15.864, -1.500],[0.000000, 0.000000, 1.000000, 0.000000],[-1,0,-1,0],[9E+09,9E+09,9E+09,9E+09,9E+09,9E+09]],v6,fine,rdkTool,\WObj:=rdkWObj;
        MoveL [[48.080, -15.864, -1.500],[0.000000, 0.000000, -1.000000, 0.000000],[-1,0,-1,0],[9E+09,9E+09,9E+09,9E+09,9E+09,9E+09]],v6,fine,rdkTool,\WObj:=rdkWObj;
        MoveL [[48.200, 0.739, -1.500],[0.000000, 0.000000, -1.000000, 0.000000],[-1,0,-1,0],[9E+09,9E+09,9E+09,9E+09,9E+09,9E+09]],v6,fine,rdkTool,\WObj:=rdkWObj;
        MoveL [[48.200, 0.739, 3.000],[0.000000, 0.000000, 1.000000, 0.000000],[-1,0,-1,0],[9E+09,9E+09,9E+09,9E+09,9E+09,9E+09]],v2,fine,rdkTool,\WObj:=rdkWObj;
        MoveL [[48.200, 0.739, 15.000],[0.000000, 0.000000, -1.000000, 0.000000],[-1,0,-1,0],[9E+09,9E+09,9E+09,9E+09,9E+09,9E+09]],v1000,fine,rdkTool,\WObj:=rdkWObj;
        MoveL [[67.897, 7.592, 15.000],[0.000000, 0.000000, 1.000000, 0.000000],[-1,0,-1,0],[9E+09,9E+09,9E+09,9E+09,9E+09,9E+09]],v1000,fine,rdkTool,\WObj:=rdkWObj;
        MoveL [[67.897, 7.592, 3.000],[0.000000, 0.000000, -1.000000, 0.000000],[-1,0,-1,0],[9E+09,9E+09,9E+09,9E+09,9E+09,9E+09]],v1000,fine,rdkTool,\WObj:=rdkWObj;
        MoveL [[67.897, 7.592, -1.500],[0.000000, 0.000000, 1.000000, 0.000000],[-1,0,-1,0],[9E+09,9E+09,9E+09,9E+09,9E+09,9E+09]],v2,fine,rdkTool,\WObj:=rdkWObj;
        MoveL [[71.847, 15.968, -1.500],[0.000000, 0.000000, -1.000000, 0.000000],[-1,0,-1,0],[9E+09,9E+09,9E+09,9E+09,9E+09,9E+09]],v6,fine,rdkTool,\WObj:=rdkWObj;
        MoveL [[74.632, 16.104, -1.500],[0.000000, 0.000000, -1.000000, 0.000000],[-1,0,-1,0],[9E+09,9E+09,9E+09,9E+09,9E+09,9E+09]],v6,fine,rdkTool,\WObj:=rdkWObj;
        MoveL [[77.416, 16.241, -1.500],[0.000000, 0.000000, -1.000000, 0.000000],[-1,0,-1,0],[9E+09,9E+09,9E+09,9E+09,9E+09,9E+09]],v6,fine,rdkTool,\WObj:=rdkWObj;
        MoveL [[77.296, 0.761, -1.500],[0.000000, 0.000000, -1.000000, 0.000000],[-1,0,-1,0],[9E+09,9E+09,9E+09,9E+09,9E+09,9E+09]],v6,fine,rdkTool,\WObj:=rdkWObj;
        MoveL [[77.175, -14.719, -1.500],[0.000000, 0.000000, -1.000000, 0.000000],[-1,0,-1,0],[9E+09,9E+09,9E+09,9E+09,9E+09,9E+09]],v6,fine,rdkTool,\WObj:=rdkWObj;
        MoveL [[74.656, -14.719, -1.500],[0.000000, 0.000000, -1.000000, 0.000000],[-1,0,-1,0],[9E+09,9E+09,9E+09,9E+09,9E+09,9E+09]],v6,fine,rdkTool,\WObj:=rdkWObj;
        MoveL [[72.137, -14.719, -1.500],[0.000000, 0.000000, -1.000000, 0.000000],[-1,0,-1,0],[9E+09,9E+09,9E+09,9E+09,9E+09,9E+09]],v6,fine,rdkTool,\WObj:=rdkWObj;
        MoveL [[72.066, -7.391, -1.500],[0.000000, 0.000000, -1.000000, 0.000000],[-1,0,-1,0],[9E+09,9E+09,9E+09,9E+09,9E+09,9E+09]],v6,fine,rdkTool,\WObj:=rdkWObj;
        MoveL [[67.897, 7.592, -1.500],[0.000000, 0.000000, 1.000000, 0.000000],[-1,0,-1,0],[9E+09,9E+09,9E+09,9E+09,9E+09,9E+09]],v6,fine,rdkTool,\WObj:=rdkWObj;
        MoveL [[67.897, 7.592, 3.000],[0.000000, 0.000000, -1.000000, 0.000000],[-1,0,-1,0],[9E+09,9E+09,9E+09,9E+09,9E+09,9E+09]],v2,fine,rdkTool,\WObj:=rdkWObj;
        MoveL [[67.897, 7.592, 15.000],[0.000000, 0.000000, 1.000000, 0.000000],[-1,0,-1,0],[9E+09,9E+09,9E+09,9E+09,9E+09,9E+09]],v1000,fine,rdkTool,\WObj:=rdkWObj;
        MoveL [[49.020, 0.907, 15.000],[0.000000, 0.000000, 1.000000, 0.000000],[-1,0,-1,0],[9E+09,9E+09,9E+09,9E+09,9E+09,9E+09]],v1000,fine,rdkTool,\WObj:=rdkWObj;
        MoveL [[49.020, 0.907, 3.000],[0.000000, 0.000000, -1.000000, 0.000000],[-1,0,-1,0],[9E+09,9E+09,9E+09,9E+09,9E+09,9E+09]],v1000,fine,rdkTool,\WObj:=rdkWObj;
        MoveL [[49.020, 0.907, -1.500],[0.000000, 0.000000, 1.000000, 0.000000],[-1,0,-1,0],[9E+09,9E+09,9E+09,9E+09,9E+09,9E+09]],v2,fine,rdkTool,\WObj:=rdkWObj;
        MoveL [[48.987, 16.197, -1.500],[0.000000, 0.000000, -1.000000, 0.000000],[-1,0,-1,0],[9E+09,9E+09,9E+09,9E+09,9E+09,9E+09]],v6,fine,rdkTool,\WObj:=rdkWObj;
        MoveL [[51.729, 16.197, -1.500],[0.000000, 0.000000, -1.000000, 0.000000],[-1,0,-1,0],[9E+09,9E+09,9E+09,9E+09,9E+09,9E+09]],v6,fine,rdkTool,\WObj:=rdkWObj;
        MoveL [[54.471, 16.197, -1.500],[0.000000, 0.000000, 1.000000, 0.000000],[-1,0,-1,0],[9E+09,9E+09,9E+09,9E+09,9E+09,9E+09]],v6,fine,rdkTool,\WObj:=rdkWObj;
        MoveL [[57.695, 9.441, -1.500],[0.000000, 0.000000, 1.000000, 0.000000],[-1,0,-1,0],[9E+09,9E+09,9E+09,9E+09,9E+09,9E+09]],v6,fine,rdkTool,\WObj:=rdkWObj;
        MoveL [[49.020, 0.907, -1.500],[0.000000, 0.000000, 1.000000, 0.000000],[-1,0,-1,0],[9E+09,9E+09,9E+09,9E+09,9E+09,9E+09]],v6,fine,rdkTool,\WObj:=rdkWObj;
        MoveL [[49.020, 0.907, 3.000],[0.000000, 0.000000, -1.000000, 0.000000],[-1,0,-1,0],[9E+09,9E+09,9E+09,9E+09,9E+09,9E+09]],v2,fine,rdkTool,\WObj:=rdkWObj;
        MoveL [[49.020, 0.907, 15.000],[0.000000, 0.000000, 1.000000, 0.000000],[-1,0,-1,0],[9E+09,9E+09,9E+09,9E+09,9E+09,9E+09]],v1000,fine,rdkTool,\WObj:=rdkWObj;
        MoveL [[51.967, -14.854, 15.000],[0.000000, 0.000000, -1.000000, 0.000000],[-1,0,-1,0],[9E+09,9E+09,9E+09,9E+09,9E+09,9E+09]],v1000,fine,rdkTool,\WObj:=rdkWObj;
        MoveL [[51.967, -14.854, 3.000],[0.000000, 0.000000, -1.000000, 0.000000],[-1,0,-1,0],[9E+09,9E+09,9E+09,9E+09,9E+09,9E+09]],v1000,fine,rdkTool,\WObj:=rdkWObj;
        MoveL [[51.967, -14.854, -1.500],[0.000000, 0.000000, -1.000000, 0.000000],[-1,0,-1,0],[9E+09,9E+09,9E+09,9E+09,9E+09,9E+09]],v2,fine,rdkTool,\WObj:=rdkWObj;
        MoveL [[54.402, -5.788, -1.500],[0.000000, 0.000000, 1.000000, 0.000000],[-1,0,-1,0],[9E+09,9E+09,9E+09,9E+09,9E+09,9E+09]],v6,fine,rdkTool,\WObj:=rdkWObj;
        MoveL [[54.275, -14.719, -1.500],[0.000000, 0.000000, 1.000000, 0.000000],[-1,0,-1,0],[9E+09,9E+09,9E+09,9E+09,9E+09,9E+09]],v6,fine,rdkTool,\WObj:=rdkWObj;
        MoveL [[51.967, -14.854, -1.500],[0.000000, 0.000000, -1.000000, 0.000000],[-1,0,-1,0],[9E+09,9E+09,9E+09,9E+09,9E+09,9E+09]],v6,fine,rdkTool,\WObj:=rdkWObj;
        MoveL [[51.967, -14.854, 3.000],[0.000000, 0.000000, -1.000000, 0.000000],[-1,0,-1,0],[9E+09,9E+09,9E+09,9E+09,9E+09,9E+09]],v2,fine,rdkTool,\WObj:=rdkWObj;
        MoveL [[51.967, -14.854, 15.000],[0.000000, 0.000000, -1.000000, 0.000000],[-1,0,-1,0],[9E+09,9E+09,9E+09,9E+09,9E+09,9E+09]],v1000,fine,rdkTool,\WObj:=rdkWObj;
        MoveL [[89.848, -15.768, 15.000],[0.000000, 0.000000, -1.000000, 0.000000],[-1,0,-1,0],[9E+09,9E+09,9E+09,9E+09,9E+09,9E+09]],v1000,fine,rdkTool,\WObj:=rdkWObj;
        MoveL [[89.848, -15.768, 3.000],[0.000000, 0.000000, -1.000000, 0.000000],[-1,0,-1,0],[9E+09,9E+09,9E+09,9E+09,9E+09,9E+09]],v1000,fine,rdkTool,\WObj:=rdkWObj;
        MoveL [[89.848, -15.768, -1.500],[0.000000, 0.000000, -1.000000, 0.000000],[-1,0,-1,0],[9E+09,9E+09,9E+09,9E+09,9E+09,9E+09]],v2,fine,rdkTool,\WObj:=rdkWObj;
        MoveL [[93.590, -15.635, -1.500],[0.000000, 0.000000, 1.000000, 0.000000],[-1,0,-1,0],[9E+09,9E+09,9E+09,9E+09,9E+09,9E+09]],v6,fine,rdkTool,\WObj:=rdkWObj;
        MoveL [[94.471, -12.987, -1.500],[0.000000, 0.000000, 1.000000, 0.000000],[-1,0,-1,0],[9E+09,9E+09,9E+09,9E+09,9E+09,9E+09]],v6,fine,rdkTool,\WObj:=rdkWObj;
        MoveL [[95.353, -10.340, -1.500],[0.000000, 0.000000, -1.000000, 0.000000],[-1,0,-1,0],[9E+09,9E+09,9E+09,9E+09,9E+09,9E+09]],v6,fine,rdkTool,\WObj:=rdkWObj;
        MoveL [[100.691, -10.468, -1.500],[0.000000, 0.000000, 1.000000, 0.000000],[-1,0,-1,0],[9E+09,9E+09,9E+09,9E+09,9E+09,9E+09]],v6,fine,rdkTool,\WObj:=rdkWObj;
        MoveL [[106.030, -10.597, -1.500],[0.000000, 0.000000, 1.000000, 0.000000],[-1,0,-1,0],[9E+09,9E+09,9E+09,9E+09,9E+09,9E+09]],v6,fine,rdkTool,\WObj:=rdkWObj;
        MoveL [[106.937, -13.231, -1.500],[0.000000, 0.000000, -1.000000, 0.000000],[-1,0,-1,0],[9E+09,9E+09,9E+09,9E+09,9E+09,9E+09]],v6,fine,rdkTool,\WObj:=rdkWObj;
        MoveL [[107.844, -15.864, -1.500],[0.000000, 0.000000, -1.000000, 0.000000],[-1,0,-1,0],[9E+09,9E+09,9E+09,9E+09,9E+09,9E+09]],v6,fine,rdkTool,\WObj:=rdkWObj;
        MoveL [[111.631, -15.864, -1.500],[0.000000, 0.000000, -1.000000, 0.000000],[-1,0,-1,0],[9E+09,9E+09,9E+09,9E+09,9E+09,9E+09]],v6,fine,rdkTool,\WObj:=rdkWObj;
        MoveL [[89.848, -15.768, -1.500],[0.000000, 0.000000, -1.000000, 0.000000],[-1,0,-1,0],[9E+09,9E+09,9E+09,9E+09,9E+09,9E+09]],v6,fine,rdkTool,\WObj:=rdkWObj;
        MoveL [[89.848, -15.768, 3.000],[0.000000, 0.000000, -1.000000, 0.000000],[-1,0,-1,0],[9E+09,9E+09,9E+09,9E+09,9E+09,9E+09]],v2,fine,rdkTool,\WObj:=rdkWObj;
        MoveL [[89.848, -15.768, 15.000],[0.000000, 0.000000, -1.000000, 0.000000],[-1,0,-1,0],[9E+09,9E+09,9E+09,9E+09,9E+09,9E+09]],v1000,fine,rdkTool,\WObj:=rdkWObj;
        MoveL [[93.532, -12.086, 15.000],[0.000000, 0.000000, -1.000000, 0.000000],[-1,0,-1,0],[9E+09,9E+09,9E+09,9E+09,9E+09,9E+09]],v1000,fine,rdkTool,\WObj:=rdkWObj;
        MoveL [[93.532, -12.086, 3.000],[0.000000, 0.000000, -1.000000, 0.000000],[-1,0,-1,0],[9E+09,9E+09,9E+09,9E+09,9E+09,9E+09]],v1000,fine,rdkTool,\WObj:=rdkWObj;
        MoveL [[93.532, -12.086, -1.500],[0.000000, 0.000000, -1.000000, 0.000000],[-1,0,-1,0],[9E+09,9E+09,9E+09,9E+09,9E+09,9E+09]],v2,fine,rdkTool,\WObj:=rdkWObj;
        MoveL [[94.625, -9.223, -1.500],[0.000000, 0.000000, -1.000000, 0.000000],[-1,0,-1,0],[9E+09,9E+09,9E+09,9E+09,9E+09,9E+09]],v6,fine,rdkTool,\WObj:=rdkWObj;
        MoveL [[100.486, -9.223, -1.500],[0.000000, 0.000000, -1.000000, 0.000000],[-1,0,-1,0],[9E+09,9E+09,9E+09,9E+09,9E+09,9E+09]],v6,fine,rdkTool,\WObj:=rdkWObj;
        MoveL [[93.532, -12.086, -1.500],[0.000000, 0.000000, -1.000000, 0.000000],[-1,0,-1,0],[9E+09,9E+09,9E+09,9E+09,9E+09,9E+09]],v6,fine,rdkTool,\WObj:=rdkWObj;
        MoveL [[93.532, -12.086, 3.000],[0.000000, 0.000000, -1.000000, 0.000000],[-1,0,-1,0],[9E+09,9E+09,9E+09,9E+09,9E+09,9E+09]],v2,fine,rdkTool,\WObj:=rdkWObj;
        MoveL [[93.532, -12.086, 15.000],[0.000000, 0.000000, -1.000000, 0.000000],[-1,0,-1,0],[9E+09,9E+09,9E+09,9E+09,9E+09,9E+09]],v1000,fine,rdkTool,\WObj:=rdkWObj;
        MoveL [[107.895, -12.200, 15.000],[0.000000, 0.000000, -1.000000, 0.000000],[-1,0,-1,0],[9E+09,9E+09,9E+09,9E+09,9E+09,9E+09]],v1000,fine,rdkTool,\WObj:=rdkWObj;
        MoveL [[107.895, -12.200, 3.000],[0.000000, 0.000000, 1.000000, 0.000000],[-1,0,-1,0],[9E+09,9E+09,9E+09,9E+09,9E+09,9E+09]],v1000,fine,rdkTool,\WObj:=rdkWObj;
        MoveL [[107.895, -12.200, -1.500],[0.000000, 0.000000, 1.000000, 0.000000],[-1,0,-1,0],[9E+09,9E+09,9E+09,9E+09,9E+09,9E+09]],v2,fine,rdkTool,\WObj:=rdkWObj;
        MoveL [[111.474, -14.858, -1.500],[0.000000, 0.000000, -1.000000, 0.000000],[-1,0,-1,0],[9E+09,9E+09,9E+09,9E+09,9E+09,9E+09]],v6,fine,rdkTool,\WObj:=rdkWObj;
        MoveL [[108.785, -14.719, -1.500],[0.000000, 0.000000, 1.000000, 0.000000],[-1,0,-1,0],[9E+09,9E+09,9E+09,9E+09,9E+09,9E+09]],v6,fine,rdkTool,\WObj:=rdkWObj;
        MoveL [[107.895, -12.200, -1.500],[0.000000, 0.000000, 1.000000, 0.000000],[-1,0,-1,0],[9E+09,9E+09,9E+09,9E+09,9E+09,9E+09]],v6,fine,rdkTool,\WObj:=rdkWObj;
        MoveL [[107.895, -12.200, 3.000],[0.000000, 0.000000, 1.000000, 0.000000],[-1,0,-1,0],[9E+09,9E+09,9E+09,9E+09,9E+09,9E+09]],v2,fine,rdkTool,\WObj:=rdkWObj;
        MoveL [[107.895, -12.200, 15.000],[0.000000, 0.000000, -1.000000, 0.000000],[-1,0,-1,0],[9E+09,9E+09,9E+09,9E+09,9E+09,9E+09]],v1000,fine,rdkTool,\WObj:=rdkWObj;
        MoveL [[89.960, -14.948, 15.000],[0.000000, 0.000000, -1.000000, 0.000000],[-1,0,-1,0],[9E+09,9E+09,9E+09,9E+09,9E+09,9E+09]],v1000,fine,rdkTool,\WObj:=rdkWObj;
        MoveL [[89.960, -14.948, 3.000],[0.000000, 0.000000, -1.000000, 0.000000],[-1,0,-1,0],[9E+09,9E+09,9E+09,9E+09,9E+09,9E+09]],v1000,fine,rdkTool,\WObj:=rdkWObj;
        MoveL [[89.960, -14.948, -1.500],[0.000000, 0.000000, 1.000000, 0.000000],[-1,0,-1,0],[9E+09,9E+09,9E+09,9E+09,9E+09,9E+09]],v2,fine,rdkTool,\WObj:=rdkWObj;
        MoveL [[93.532, -12.086, -1.500],[0.000000, 0.000000, -1.000000, 0.000000],[-1,0,-1,0],[9E+09,9E+09,9E+09,9E+09,9E+09,9E+09]],v6,fine,rdkTool,\WObj:=rdkWObj;
        MoveL [[92.439, -14.948, -1.500],[0.000000, 0.000000, 1.000000, 0.000000],[-1,0,-1,0],[9E+09,9E+09,9E+09,9E+09,9E+09,9E+09]],v6,fine,rdkTool,\WObj:=rdkWObj;
        MoveL [[89.960, -14.948, -1.500],[0.000000, 0.000000, 1.000000, 0.000000],[-1,0,-1,0],[9E+09,9E+09,9E+09,9E+09,9E+09,9E+09]],v6,fine,rdkTool,\WObj:=rdkWObj;
        MoveL [[89.960, -14.948, 3.000],[0.000000, 0.000000, -1.000000, 0.000000],[-1,0,-1,0],[9E+09,9E+09,9E+09,9E+09,9E+09,9E+09]],v2,fine,rdkTool,\WObj:=rdkWObj;
        MoveL [[89.960, -14.948, 15.000],[0.000000, 0.000000, -1.000000, 0.000000],[-1,0,-1,0],[9E+09,9E+09,9E+09,9E+09,9E+09,9E+09]],v1000,fine,rdkTool,\WObj:=rdkWObj;
        MoveL [[122.856, 1.314, 15.000],[0.000000, 0.000000, 1.000000, 0.000000],[-1,0,-1,0],[9E+09,9E+09,9E+09,9E+09,9E+09,9E+09]],v1000,fine,rdkTool,\WObj:=rdkWObj;
        MoveL [[122.856, 1.314, 3.000],[0.000000, 0.000000, -1.000000, 0.000000],[-1,0,-1,0],[9E+09,9E+09,9E+09,9E+09,9E+09,9E+09]],v1000,fine,rdkTool,\WObj:=rdkWObj;
        MoveL [[122.856, 1.314, -1.500],[0.000000, 0.000000, -1.000000, 0.000000],[-1,0,-1,0],[9E+09,9E+09,9E+09,9E+09,9E+09,9E+09]],v2,fine,rdkTool,\WObj:=rdkWObj;
        MoveL [[122.977, 17.342, -1.500],[0.000000, 0.000000, -1.000000, 0.000000],[-1,0,-1,0],[9E+09,9E+09,9E+09,9E+09,9E+09,9E+09]],v6,fine,rdkTool,\WObj:=rdkWObj;
        MoveL [[126.226, 17.475, -1.500],[0.000000, 0.000000, 1.000000, 0.000000],[-1,0,-1,0],[9E+09,9E+09,9E+09,9E+09,9E+09,9E+09]],v6,fine,rdkTool,\WObj:=rdkWObj;
        MoveL [[122.856, 1.314, -1.500],[0.000000, 0.000000, -1.000000, 0.000000],[-1,0,-1,0],[9E+09,9E+09,9E+09,9E+09,9E+09,9E+09]],v6,fine,rdkTool,\WObj:=rdkWObj;
        MoveL [[122.856, 1.314, 3.000],[0.000000, 0.000000, -1.000000, 0.000000],[-1,0,-1,0],[9E+09,9E+09,9E+09,9E+09,9E+09,9E+09]],v2,fine,rdkTool,\WObj:=rdkWObj;
        MoveL [[122.856, 1.314, 15.000],[0.000000, 0.000000, 1.000000, 0.000000],[-1,0,-1,0],[9E+09,9E+09,9E+09,9E+09,9E+09,9E+09]],v1000,fine,rdkTool,\WObj:=rdkWObj;
        MoveL [[130.763, 4.975, 15.000],[0.000000, 0.000000, 1.000000, 0.000000],[-1,0,-1,0],[9E+09,9E+09,9E+09,9E+09,9E+09,9E+09]],v1000,fine,rdkTool,\WObj:=rdkWObj;
        MoveL [[130.763, 4.975, 3.000],[0.000000, 0.000000, -1.000000, 0.000000],[-1,0,-1,0],[9E+09,9E+09,9E+09,9E+09,9E+09,9E+09]],v1000,fine,rdkTool,\WObj:=rdkWObj;
        MoveL [[130.763, 4.975, -1.500],[0.000000, 0.000000, 1.000000, 0.000000],[-1,0,-1,0],[9E+09,9E+09,9E+09,9E+09,9E+09,9E+09]],v2,fine,rdkTool,\WObj:=rdkWObj;
        MoveL [[130.633, 10.671, -1.500],[0.000000, 0.000000, 1.000000, 0.000000],[-1,0,-1,0],[9E+09,9E+09,9E+09,9E+09,9E+09,9E+09]],v6,fine,rdkTool,\WObj:=rdkWObj;
        MoveL [[135.144, 10.472, -1.500],[0.000000, 0.000000, 1.000000, 0.000000],[-1,0,-1,0],[9E+09,9E+09,9E+09,9E+09,9E+09,9E+09]],v6,fine,rdkTool,\WObj:=rdkWObj;
        MoveL [[130.763, 4.975, -1.500],[0.000000, 0.000000, 1.000000, 0.000000],[-1,0,-1,0],[9E+09,9E+09,9E+09,9E+09,9E+09,9E+09]],v6,fine,rdkTool,\WObj:=rdkWObj;
        MoveL [[130.763, 4.975, 3.000],[0.000000, 0.000000, -1.000000, 0.000000],[-1,0,-1,0],[9E+09,9E+09,9E+09,9E+09,9E+09,9E+09]],v2,fine,rdkTool,\WObj:=rdkWObj;
        MoveL [[130.763, 4.975, 15.000],[0.000000, 0.000000, 1.000000, 0.000000],[-1,0,-1,0],[9E+09,9E+09,9E+09,9E+09,9E+09,9E+09]],v1000,fine,rdkTool,\WObj:=rdkWObj;
        MoveL [[137.843, -8.998, 15.000],[0.000000, 0.000000, 1.000000, 0.000000],[-1,0,-1,0],[9E+09,9E+09,9E+09,9E+09,9E+09,9E+09]],v1000,fine,rdkTool,\WObj:=rdkWObj;
        MoveL [[137.843, -8.998, 3.000],[0.000000, 0.000000, 1.000000, 0.000000],[-1,0,-1,0],[9E+09,9E+09,9E+09,9E+09,9E+09,9E+09]],v1000,fine,rdkTool,\WObj:=rdkWObj;
        MoveL [[137.843, -8.998, -1.500],[0.000000, 0.000000, 1.000000, 0.000000],[-1,0,-1,0],[9E+09,9E+09,9E+09,9E+09,9E+09,9E+09]],v2,fine,rdkTool,\WObj:=rdkWObj;
        MoveL [[145.744, -15.864, -1.500],[0.000000, 0.000000, -1.000000, 0.000000],[-1,0,-1,0],[9E+09,9E+09,9E+09,9E+09,9E+09,9E+09]],v6,fine,rdkTool,\WObj:=rdkWObj;
        MoveL [[141.717, -15.864, -1.500],[0.000000, 0.000000, -1.000000, 0.000000],[-1,0,-1,0],[9E+09,9E+09,9E+09,9E+09,9E+09,9E+09]],v6,fine,rdkTool,\WObj:=rdkWObj;
        MoveL [[137.843, -8.998, -1.500],[0.000000, 0.000000, 1.000000, 0.000000],[-1,0,-1,0],[9E+09,9E+09,9E+09,9E+09,9E+09,9E+09]],v6,fine,rdkTool,\WObj:=rdkWObj;
        MoveL [[137.843, -8.998, 3.000],[0.000000, 0.000000, 1.000000, 0.000000],[-1,0,-1,0],[9E+09,9E+09,9E+09,9E+09,9E+09,9E+09]],v2,fine,rdkTool,\WObj:=rdkWObj;
        MoveL [[137.843, -8.998, 15.000],[0.000000, 0.000000, 1.000000, 0.000000],[-1,0,-1,0],[9E+09,9E+09,9E+09,9E+09,9E+09,9E+09]],v1000,fine,rdkTool,\WObj:=rdkWObj;
        MoveL [[129.160, -5.662, 15.000],[0.000000, 0.000000, -1.000000, 0.000000],[-1,0,-1,0],[9E+09,9E+09,9E+09,9E+09,9E+09,9E+09]],v1000,fine,rdkTool,\WObj:=rdkWObj;
        MoveL [[129.160, -5.662, 3.000],[0.000000, 0.000000, 1.000000, 0.000000],[-1,0,-1,0],[9E+09,9E+09,9E+09,9E+09,9E+09,9E+09]],v1000,fine,rdkTool,\WObj:=rdkWObj;
        MoveL [[129.160, -5.662, -1.500],[0.000000, 0.000000, -1.000000, 0.000000],[-1,0,-1,0],[9E+09,9E+09,9E+09,9E+09,9E+09,9E+09]],v2,fine,rdkTool,\WObj:=rdkWObj;
        MoveL [[131.106, -3.227, -1.500],[0.000000, 0.000000, 1.000000, 0.000000],[-1,0,-1,0],[9E+09,9E+09,9E+09,9E+09,9E+09,9E+09]],v6,fine,rdkTool,\WObj:=rdkWObj;
        MoveL [[129.160, -10.305, -1.500],[0.000000, 0.000000, 1.000000, 0.000000],[-1,0,-1,0],[9E+09,9E+09,9E+09,9E+09,9E+09,9E+09]],v6,fine,rdkTool,\WObj:=rdkWObj;
        MoveL [[129.160, -5.662, -1.500],[0.000000, 0.000000, -1.000000, 0.000000],[-1,0,-1,0],[9E+09,9E+09,9E+09,9E+09,9E+09,9E+09]],v6,fine,rdkTool,\WObj:=rdkWObj;
        MoveL [[129.160, -5.662, 3.000],[0.000000, 0.000000, 1.000000, 0.000000],[-1,0,-1,0],[9E+09,9E+09,9E+09,9E+09,9E+09,9E+09]],v2,fine,rdkTool,\WObj:=rdkWObj;
        MoveL [[129.160, -5.662, 15.000],[0.000000, 0.000000, -1.000000, 0.000000],[-1,0,-1,0],[9E+09,9E+09,9E+09,9E+09,9E+09,9E+09]],v1000,fine,rdkTool,\WObj:=rdkWObj;
        MoveL [[139.465, -9.229, 15.000],[0.000000, 0.000000, 1.000000, 0.000000],[-1,0,-1,0],[9E+09,9E+09,9E+09,9E+09,9E+09,9E+09]],v1000,fine,rdkTool,\WObj:=rdkWObj;
        MoveL [[139.465, -9.229, 3.000],[0.000000, 0.000000, -1.000000, 0.000000],[-1,0,-1,0],[9E+09,9E+09,9E+09,9E+09,9E+09,9E+09]],v1000,fine,rdkTool,\WObj:=rdkWObj;
        MoveL [[139.465, -9.229, -1.500],[0.000000, 0.000000, -1.000000, 0.000000],[-1,0,-1,0],[9E+09,9E+09,9E+09,9E+09,9E+09,9E+09]],v2,fine,rdkTool,\WObj:=rdkWObj;
        MoveL [[147.238, -12.775, -1.500],[0.000000, 0.000000, 1.000000, 0.000000],[-1,0,-1,0],[9E+09,9E+09,9E+09,9E+09,9E+09,9E+09]],v6,fine,rdkTool,\WObj:=rdkWObj;
        MoveL [[148.475, -14.950, -1.500],[0.000000, 0.000000, -1.000000, 0.000000],[-1,0,-1,0],[9E+09,9E+09,9E+09,9E+09,9E+09,9E+09]],v6,fine,rdkTool,\WObj:=rdkWObj;
        MoveL [[145.573, -14.947, -1.500],[0.000000, 0.000000, -1.000000, 0.000000],[-1,0,-1,0],[9E+09,9E+09,9E+09,9E+09,9E+09,9E+09]],v6,fine,rdkTool,\WObj:=rdkWObj;
        MoveL [[142.671, -14.945, -1.500],[0.000000, 0.000000, -1.000000, 0.000000],[-1,0,-1,0],[9E+09,9E+09,9E+09,9E+09,9E+09,9E+09]],v6,fine,rdkTool,\WObj:=rdkWObj;
        MoveL [[139.465, -9.229, -1.500],[0.000000, 0.000000, -1.000000, 0.000000],[-1,0,-1,0],[9E+09,9E+09,9E+09,9E+09,9E+09,9E+09]],v6,fine,rdkTool,\WObj:=rdkWObj;
        MoveL [[139.465, -9.229, 3.000],[0.000000, 0.000000, -1.000000, 0.000000],[-1,0,-1,0],[9E+09,9E+09,9E+09,9E+09,9E+09,9E+09]],v2,fine,rdkTool,\WObj:=rdkWObj;
        MoveL [[139.465, -9.229, 15.000],[0.000000, 0.000000, 1.000000, 0.000000],[-1,0,-1,0],[9E+09,9E+09,9E+09,9E+09,9E+09,9E+09]],v1000,fine,rdkTool,\WObj:=rdkWObj;
        MoveL [[136.042, 9.552, 15.000],[0.000000, 0.000000, 1.000000, 0.000000],[-1,0,-1,0],[9E+09,9E+09,9E+09,9E+09,9E+09,9E+09]],v1000,fine,rdkTool,\WObj:=rdkWObj;
        MoveL [[136.042, 9.552, 3.000],[0.000000, 0.000000, 1.000000, 0.000000],[-1,0,-1,0],[9E+09,9E+09,9E+09,9E+09,9E+09,9E+09]],v1000,fine,rdkTool,\WObj:=rdkWObj;
        MoveL [[136.042, 9.552, -1.500],[0.000000, 0.000000, -1.000000, 0.000000],[-1,0,-1,0],[9E+09,9E+09,9E+09,9E+09,9E+09,9E+09]],v2,fine,rdkTool,\WObj:=rdkWObj;
        MoveL [[141.297, 16.192, -1.500],[0.000000, 0.000000, -1.000000, 0.000000],[-1,0,-1,0],[9E+09,9E+09,9E+09,9E+09,9E+09,9E+09]],v6,fine,rdkTool,\WObj:=rdkWObj;
        MoveL [[144.412, 16.193, -1.500],[0.000000, 0.000000, 1.000000, 0.000000],[-1,0,-1,0],[9E+09,9E+09,9E+09,9E+09,9E+09,9E+09]],v6,fine,rdkTool,\WObj:=rdkWObj;
        MoveL [[147.526, 16.195, -1.500],[0.000000, 0.000000, -1.000000, 0.000000],[-1,0,-1,0],[9E+09,9E+09,9E+09,9E+09,9E+09,9E+09]],v6,fine,rdkTool,\WObj:=rdkWObj;
        MoveL [[144.198, 12.187, -1.500],[0.000000, 0.000000, -1.000000, 0.000000],[-1,0,-1,0],[9E+09,9E+09,9E+09,9E+09,9E+09,9E+09]],v6,fine,rdkTool,\WObj:=rdkWObj;
        MoveL [[136.042, 9.552, -1.500],[0.000000, 0.000000, -1.000000, 0.000000],[-1,0,-1,0],[9E+09,9E+09,9E+09,9E+09,9E+09,9E+09]],v6,fine,rdkTool,\WObj:=rdkWObj;
        MoveL [[136.042, 9.552, 3.000],[0.000000, 0.000000, 1.000000, 0.000000],[-1,0,-1,0],[9E+09,9E+09,9E+09,9E+09,9E+09,9E+09]],v2,fine,rdkTool,\WObj:=rdkWObj;
        MoveL [[136.042, 9.552, 15.000],[0.000000, 0.000000, 1.000000, 0.000000],[-1,0,-1,0],[9E+09,9E+09,9E+09,9E+09,9E+09,9E+09]],v1000,fine,rdkTool,\WObj:=rdkWObj;
        MoveL [[124.122, 0.622, 15.000],[0.000000, 0.000000, -1.000000, 0.000000],[-1,0,-1,0],[9E+09,9E+09,9E+09,9E+09,9E+09,9E+09]],v1000,fine,rdkTool,\WObj:=rdkWObj;
        MoveL [[124.122, 0.622, 3.000],[0.000000, 0.000000, -1.000000, 0.000000],[-1,0,-1,0],[9E+09,9E+09,9E+09,9E+09,9E+09,9E+09]],v1000,fine,rdkTool,\WObj:=rdkWObj;
        MoveL [[124.122, 0.622, -1.500],[0.000000, 0.000000, -1.000000, 0.000000],[-1,0,-1,0],[9E+09,9E+09,9E+09,9E+09,9E+09,9E+09]],v2,fine,rdkTool,\WObj:=rdkWObj;
        MoveL [[124.122, 16.195, -1.500],[0.000000, 0.000000, 1.000000, 0.000000],[-1,0,-1,0],[9E+09,9E+09,9E+09,9E+09,9E+09,9E+09]],v6,fine,rdkTool,\WObj:=rdkWObj;
        MoveL [[126.641, 16.195, -1.500],[0.000000, 0.000000, -1.000000, 0.000000],[-1,0,-1,0],[9E+09,9E+09,9E+09,9E+09,9E+09,9E+09]],v6,fine,rdkTool,\WObj:=rdkWObj;
        MoveL [[129.160, 16.195, -1.500],[0.000000, 0.000000, -1.000000, 0.000000],[-1,0,-1,0],[9E+09,9E+09,9E+09,9E+09,9E+09,9E+09]],v6,fine,rdkTool,\WObj:=rdkWObj;
        MoveL [[129.160, 9.553, -1.500],[0.000000, 0.000000, -1.000000, 0.000000],[-1,0,-1,0],[9E+09,9E+09,9E+09,9E+09,9E+09,9E+09]],v6,fine,rdkTool,\WObj:=rdkWObj;
        MoveL [[129.160, -10.305, -1.500],[0.000000, 0.000000, 1.000000, 0.000000],[-1,0,-1,0],[9E+09,9E+09,9E+09,9E+09,9E+09,9E+09]],v6,fine,rdkTool,\WObj:=rdkWObj;
        MoveL [[129.160, -10.307, -1.500],[0.000000, 0.000000, 1.000000, 0.000000],[-1,0,-1,0],[9E+09,9E+09,9E+09,9E+09,9E+09,9E+09]],v6,fine,rdkTool,\WObj:=rdkWObj;
        MoveL [[129.160, -14.950, -1.500],[0.000000, 0.000000, -1.000000, 0.000000],[-1,0,-1,0],[9E+09,9E+09,9E+09,9E+09,9E+09,9E+09]],v6,fine,rdkTool,\WObj:=rdkWObj;
        MoveL [[126.641, -14.950, -1.500],[0.000000, 0.000000, 1.000000, 0.000000],[-1,0,-1,0],[9E+09,9E+09,9E+09,9E+09,9E+09,9E+09]],v6,fine,rdkTool,\WObj:=rdkWObj;
        MoveL [[124.122, -14.950, -1.500],[0.000000, 0.000000, -1.000000, 0.000000],[-1,0,-1,0],[9E+09,9E+09,9E+09,9E+09,9E+09,9E+09]],v6,fine,rdkTool,\WObj:=rdkWObj;
        MoveL [[124.122, 0.622, -1.500],[0.000000, 0.000000, -1.000000, 0.000000],[-1,0,-1,0],[9E+09,9E+09,9E+09,9E+09,9E+09,9E+09]],v6,fine,rdkTool,\WObj:=rdkWObj;
        MoveL [[124.122, 0.622, 3.000],[0.000000, 0.000000, -1.000000, 0.000000],[-1,0,-1,0],[9E+09,9E+09,9E+09,9E+09,9E+09,9E+09]],v2,fine,rdkTool,\WObj:=rdkWObj;
        MoveL [[124.122, 0.622, 15.000],[0.000000, 0.000000, -1.000000, 0.000000],[-1,0,-1,0],[9E+09,9E+09,9E+09,9E+09,9E+09,9E+09]],v1000,fine,rdkTool,\WObj:=rdkWObj;
        MoveL [[157.665, 1.314, 15.000],[0.000000, 0.000000, -1.000000, 0.000000],[-1,0,-1,0],[9E+09,9E+09,9E+09,9E+09,9E+09,9E+09]],v1000,fine,rdkTool,\WObj:=rdkWObj;
        MoveL [[157.665, 1.314, 3.000],[0.000000, 0.000000, 1.000000, 0.000000],[-1,0,-1,0],[9E+09,9E+09,9E+09,9E+09,9E+09,9E+09]],v1000,fine,rdkTool,\WObj:=rdkWObj;
        MoveL [[157.665, 1.314, -1.500],[0.000000, 0.000000, 1.000000, 0.000000],[-1,0,-1,0],[9E+09,9E+09,9E+09,9E+09,9E+09,9E+09]],v2,fine,rdkTool,\WObj:=rdkWObj;
        MoveL [[157.786, 17.342, -1.500],[0.000000, 0.000000, 1.000000, 0.000000],[-1,0,-1,0],[9E+09,9E+09,9E+09,9E+09,9E+09,9E+09]],v6,fine,rdkTool,\WObj:=rdkWObj;
        MoveL [[168.778, 17.342, -1.500],[0.000000, 0.000000, 1.000000, 0.000000],[-1,0,-1,0],[9E+09,9E+09,9E+09,9E+09,9E+09,9E+09]],v6,fine,rdkTool,\WObj:=rdkWObj;
        MoveL [[179.770, 17.342, -1.500],[0.000000, 0.000000, -1.000000, 0.000000],[-1,0,-1,0],[9E+09,9E+09,9E+09,9E+09,9E+09,9E+09]],v6,fine,rdkTool,\WObj:=rdkWObj;
        MoveL [[179.905, 14.021, -1.500],[0.000000, 0.000000, 1.000000, 0.000000],[-1,0,-1,0],[9E+09,9E+09,9E+09,9E+09,9E+09,9E+09]],v6,fine,rdkTool,\WObj:=rdkWObj;
        MoveL [[180.039, 10.701, -1.500],[0.000000, 0.000000, 1.000000, 0.000000],[-1,0,-1,0],[9E+09,9E+09,9E+09,9E+09,9E+09,9E+09]],v6,fine,rdkTool,\WObj:=rdkWObj;
        MoveL [[172.462, 10.701, -1.500],[0.000000, 0.000000, -1.000000, 0.000000],[-1,0,-1,0],[9E+09,9E+09,9E+09,9E+09,9E+09,9E+09]],v6,fine,rdkTool,\WObj:=rdkWObj;
        MoveL [[164.885, 10.701, -1.500],[0.000000, 0.000000, -1.000000, 0.000000],[-1,0,-1,0],[9E+09,9E+09,9E+09,9E+09,9E+09,9E+09]],v6,fine,rdkTool,\WObj:=rdkWObj;
        MoveL [[164.885, 7.507, -1.500],[0.000000, 0.000000, -1.000000, 0.000000],[-1,0,-1,0],[9E+09,9E+09,9E+09,9E+09,9E+09,9E+09]],v6,fine,rdkTool,\WObj:=rdkWObj;
        MoveL [[164.885, 4.314, -1.500],[0.000000, 0.000000, 1.000000, 0.000000],[-1,0,-1,0],[9E+09,9E+09,9E+09,9E+09,9E+09,9E+09]],v6,fine,rdkTool,\WObj:=rdkWObj;
        MoveL [[171.182, 4.187, -1.500],[0.000000, 0.000000, -1.000000, 0.000000],[-1,0,-1,0],[9E+09,9E+09,9E+09,9E+09,9E+09,9E+09]],v6,fine,rdkTool,\WObj:=rdkWObj;
        MoveL [[177.480, 4.059, -1.500],[0.000000, 0.000000, -1.000000, 0.000000],[-1,0,-1,0],[9E+09,9E+09,9E+09,9E+09,9E+09,9E+09]],v6,fine,rdkTool,\WObj:=rdkWObj;
        MoveL [[177.614, 0.752, -1.500],[0.000000, 0.000000, -1.000000, 0.000000],[-1,0,-1,0],[9E+09,9E+09,9E+09,9E+09,9E+09,9E+09]],v6,fine,rdkTool,\WObj:=rdkWObj;
        MoveL [[177.749, -2.556, -1.500],[0.000000, 0.000000, -1.000000, 0.000000],[-1,0,-1,0],[9E+09,9E+09,9E+09,9E+09,9E+09,9E+09]],v6,fine,rdkTool,\WObj:=rdkWObj;
        MoveL [[171.431, -2.683, -1.500],[0.000000, 0.000000, 1.000000, 0.000000],[-1,0,-1,0],[9E+09,9E+09,9E+09,9E+09,9E+09,9E+09]],v6,fine,rdkTool,\WObj:=rdkWObj;
        MoveL [[165.114, -2.811, -1.500],[0.000000, 0.000000, -1.000000, 0.000000],[-1,0,-1,0],[9E+09,9E+09,9E+09,9E+09,9E+09,9E+09]],v6,fine,rdkTool,\WObj:=rdkWObj;
        MoveL [[165.114, -6.017, -1.500],[0.000000, 0.000000, -1.000000, 0.000000],[-1,0,-1,0],[9E+09,9E+09,9E+09,9E+09,9E+09,9E+09]],v6,fine,rdkTool,\WObj:=rdkWObj;
        MoveL [[165.114, -9.223, -1.500],[0.000000, 0.000000, 1.000000, 0.000000],[-1,0,-1,0],[9E+09,9E+09,9E+09,9E+09,9E+09,9E+09]],v6,fine,rdkTool,\WObj:=rdkWObj;
        MoveL [[172.556, -9.349, -1.500],[0.000000, 0.000000, -1.000000, 0.000000],[-1,0,-1,0],[9E+09,9E+09,9E+09,9E+09,9E+09,9E+09]],v6,fine,rdkTool,\WObj:=rdkWObj;
        MoveL [[179.999, -9.475, -1.500],[0.000000, 0.000000, -1.000000, 0.000000],[-1,0,-1,0],[9E+09,9E+09,9E+09,9E+09,9E+09,9E+09]],v6,fine,rdkTool,\WObj:=rdkWObj;
        MoveL [[179.999, -12.669, -1.500],[0.000000, 0.000000, 1.000000, 0.000000],[-1,0,-1,0],[9E+09,9E+09,9E+09,9E+09,9E+09,9E+09]],v6,fine,rdkTool,\WObj:=rdkWObj;
        MoveL [[179.999, -15.864, -1.500],[0.000000, 0.000000, -1.000000, 0.000000],[-1,0,-1,0],[9E+09,9E+09,9E+09,9E+09,9E+09,9E+09]],v6,fine,rdkTool,\WObj:=rdkWObj;
        MoveL [[168.992, -15.864, -1.500],[0.000000, 0.000000, 1.000000, 0.000000],[-1,0,-1,0],[9E+09,9E+09,9E+09,9E+09,9E+09,9E+09]],v6,fine,rdkTool,\WObj:=rdkWObj;
        MoveL [[157.665, 1.314, -1.500],[0.000000, 0.000000, 1.000000, 0.000000],[-1,0,-1,0],[9E+09,9E+09,9E+09,9E+09,9E+09,9E+09]],v6,fine,rdkTool,\WObj:=rdkWObj;
        MoveL [[157.665, 1.314, 3.000],[0.000000, 0.000000, 1.000000, 0.000000],[-1,0,-1,0],[9E+09,9E+09,9E+09,9E+09,9E+09,9E+09]],v2,fine,rdkTool,\WObj:=rdkWObj;
        MoveL [[157.665, 1.314, 15.000],[0.000000, 0.000000, -1.000000, 0.000000],[-1,0,-1,0],[9E+09,9E+09,9E+09,9E+09,9E+09,9E+09]],v1000,fine,rdkTool,\WObj:=rdkWObj;
        MoveL [[163.969, -6.055, 15.000],[0.000000, 0.000000, -1.000000, 0.000000],[-1,0,-1,0],[9E+09,9E+09,9E+09,9E+09,9E+09,9E+09]],v1000,fine,rdkTool,\WObj:=rdkWObj;
        MoveL [[163.969, -6.055, 3.000],[0.000000, 0.000000, -1.000000, 0.000000],[-1,0,-1,0],[9E+09,9E+09,9E+09,9E+09,9E+09,9E+09]],v1000,fine,rdkTool,\WObj:=rdkWObj;
        MoveL [[163.969, -6.055, -1.500],[0.000000, 0.000000, -1.000000, 0.000000],[-1,0,-1,0],[9E+09,9E+09,9E+09,9E+09,9E+09,9E+09]],v2,fine,rdkTool,\WObj:=rdkWObj;
        MoveL [[178.992, -12.658, -1.500],[0.000000, 0.000000, -1.000000, 0.000000],[-1,0,-1,0],[9E+09,9E+09,9E+09,9E+09,9E+09,9E+09]],v6,fine,rdkTool,\WObj:=rdkWObj;
        MoveL [[178.854, -10.368, -1.500],[0.000000, 0.000000, -1.000000, 0.000000],[-1,0,-1,0],[9E+09,9E+09,9E+09,9E+09,9E+09,9E+09]],v6,fine,rdkTool,\WObj:=rdkWObj;
        MoveL [[171.411, -10.368, -1.500],[0.000000, 0.000000, -1.000000, 0.000000],[-1,0,-1,0],[9E+09,9E+09,9E+09,9E+09,9E+09,9E+09]],v6,fine,rdkTool,\WObj:=rdkWObj;
        MoveL [[163.969, -10.368, -1.500],[0.000000, 0.000000, -1.000000, 0.000000],[-1,0,-1,0],[9E+09,9E+09,9E+09,9E+09,9E+09,9E+09]],v6,fine,rdkTool,\WObj:=rdkWObj;
        MoveL [[163.969, -6.055, -1.500],[0.000000, 0.000000, -1.000000, 0.000000],[-1,0,-1,0],[9E+09,9E+09,9E+09,9E+09,9E+09,9E+09]],v6,fine,rdkTool,\WObj:=rdkWObj;
        MoveL [[163.969, -6.055, 3.000],[0.000000, 0.000000, -1.000000, 0.000000],[-1,0,-1,0],[9E+09,9E+09,9E+09,9E+09,9E+09,9E+09]],v2,fine,rdkTool,\WObj:=rdkWObj;
        MoveL [[163.969, -6.055, 15.000],[0.000000, 0.000000, -1.000000, 0.000000],[-1,0,-1,0],[9E+09,9E+09,9E+09,9E+09,9E+09,9E+09]],v1000,fine,rdkTool,\WObj:=rdkWObj;
        MoveL [[158.931, 0.624, 15.000],[0.000000, 0.000000, 1.000000, 0.000000],[-1,0,-1,0],[9E+09,9E+09,9E+09,9E+09,9E+09,9E+09]],v1000,fine,rdkTool,\WObj:=rdkWObj;
        MoveL [[158.931, 0.624, 3.000],[0.000000, 0.000000, 1.000000, 0.000000],[-1,0,-1,0],[9E+09,9E+09,9E+09,9E+09,9E+09,9E+09]],v1000,fine,rdkTool,\WObj:=rdkWObj;
        MoveL [[158.931, 0.624, -1.500],[0.000000, 0.000000, 1.000000, 0.000000],[-1,0,-1,0],[9E+09,9E+09,9E+09,9E+09,9E+09,9E+09]],v2,fine,rdkTool,\WObj:=rdkWObj;
        MoveL [[158.931, 16.197, -1.500],[0.000000, 0.000000, -1.000000, 0.000000],[-1,0,-1,0],[9E+09,9E+09,9E+09,9E+09,9E+09,9E+09]],v6,fine,rdkTool,\WObj:=rdkWObj;
        MoveL [[169.007, 16.197, -1.500],[0.000000, 0.000000, -1.000000, 0.000000],[-1,0,-1,0],[9E+09,9E+09,9E+09,9E+09,9E+09,9E+09]],v6,fine,rdkTool,\WObj:=rdkWObj;
        MoveL [[179.083, 16.197, -1.500],[0.000000, 0.000000, 1.000000, 0.000000],[-1,0,-1,0],[9E+09,9E+09,9E+09,9E+09,9E+09,9E+09]],v6,fine,rdkTool,\WObj:=rdkWObj;
        MoveL [[179.083, 13.907, -1.500],[0.000000, 0.000000, 1.000000, 0.000000],[-1,0,-1,0],[9E+09,9E+09,9E+09,9E+09,9E+09,9E+09]],v6,fine,rdkTool,\WObj:=rdkWObj;
        MoveL [[179.083, 11.617, -1.500],[0.000000, 0.000000, 1.000000, 0.000000],[-1,0,-1,0],[9E+09,9E+09,9E+09,9E+09,9E+09,9E+09]],v6,fine,rdkTool,\WObj:=rdkWObj;
        MoveL [[171.509, 11.617, -1.500],[0.000000, 0.000000, -1.000000, 0.000000],[-1,0,-1,0],[9E+09,9E+09,9E+09,9E+09,9E+09,9E+09]],v6,fine,rdkTool,\WObj:=rdkWObj;
        MoveL [[163.934, 11.617, -1.500],[0.000000, 0.000000, -1.000000, 0.000000],[-1,0,-1,0],[9E+09,9E+09,9E+09,9E+09,9E+09,9E+09]],v6,fine,rdkTool,\WObj:=rdkWObj;
        MoveL [[164.066, 7.380, -1.500],[0.000000, 0.000000, -1.000000, 0.000000],[-1,0,-1,0],[9E+09,9E+09,9E+09,9E+09,9E+09,9E+09]],v6,fine,rdkTool,\WObj:=rdkWObj;
        MoveL [[164.198, 3.143, -1.500],[0.000000, 0.000000, 1.000000, 0.000000],[-1,0,-1,0],[9E+09,9E+09,9E+09,9E+09,9E+09,9E+09]],v6,fine,rdkTool,\WObj:=rdkWObj;
        MoveL [[170.495, 3.016, -1.500],[0.000000, 0.000000, -1.000000, 0.000000],[-1,0,-1,0],[9E+09,9E+09,9E+09,9E+09,9E+09,9E+09]],v6,fine,rdkTool,\WObj:=rdkWObj;
        MoveL [[176.793, 2.889, -1.500],[0.000000, 0.000000, -1.000000, 0.000000],[-1,0,-1,0],[9E+09,9E+09,9E+09,9E+09,9E+09,9E+09]],v6,fine,rdkTool,\WObj:=rdkWObj;
        MoveL [[176.793, 0.861, -1.500],[0.000000, 0.000000, 1.000000, 0.000000],[-1,0,-1,0],[9E+09,9E+09,9E+09,9E+09,9E+09,9E+09]],v6,fine,rdkTool,\WObj:=rdkWObj;
        MoveL [[178.992, -12.658, -1.500],[0.000000, 0.000000, -1.000000, 0.000000],[-1,0,-1,0],[9E+09,9E+09,9E+09,9E+09,9E+09,9E+09]],v6,fine,rdkTool,\WObj:=rdkWObj;
        MoveL [[179.129, -14.948, -1.500],[0.000000, 0.000000, -1.000000, 0.000000],[-1,0,-1,0],[9E+09,9E+09,9E+09,9E+09,9E+09,9E+09]],v6,fine,rdkTool,\WObj:=rdkWObj;
        MoveL [[169.030, -14.948, -1.500],[0.000000, 0.000000, 1.000000, 0.000000],[-1,0,-1,0],[9E+09,9E+09,9E+09,9E+09,9E+09,9E+09]],v6,fine,rdkTool,\WObj:=rdkWObj;
        MoveL [[158.931, -14.948, -1.500],[0.000000, 0.000000, -1.000000, 0.000000],[-1,0,-1,0],[9E+09,9E+09,9E+09,9E+09,9E+09,9E+09]],v6,fine,rdkTool,\WObj:=rdkWObj;
        MoveL [[158.931, 0.624, -1.500],[0.000000, 0.000000, 1.000000, 0.000000],[-1,0,-1,0],[9E+09,9E+09,9E+09,9E+09,9E+09,9E+09]],v6,fine,rdkTool,\WObj:=rdkWObj;
        MoveL [[158.931, 0.624, 3.000],[0.000000, 0.000000, 1.000000, 0.000000],[-1,0,-1,0],[9E+09,9E+09,9E+09,9E+09,9E+09,9E+09]],v2,fine,rdkTool,\WObj:=rdkWObj;
        MoveL [[158.931, 0.624, 15.000],[0.000000, 0.000000, 1.000000, 0.000000],[-1,0,-1,0],[9E+09,9E+09,9E+09,9E+09,9E+09,9E+09]],v1000,fine,rdkTool,\WObj:=rdkWObj;
        MoveL [[189.726, 0.739, 15.000],[0.000000, 0.000000, -1.000000, 0.000000],[-1,0,-1,0],[9E+09,9E+09,9E+09,9E+09,9E+09,9E+09]],v1000,fine,rdkTool,\WObj:=rdkWObj;
        MoveL [[189.726, 0.739, 3.000],[0.000000, 0.000000, -1.000000, 0.000000],[-1,0,-1,0],[9E+09,9E+09,9E+09,9E+09,9E+09,9E+09]],v1000,fine,rdkTool,\WObj:=rdkWObj;
        MoveL [[189.726, 0.739, -1.500],[0.000000, 0.000000, -1.000000, 0.000000],[-1,0,-1,0],[9E+09,9E+09,9E+09,9E+09,9E+09,9E+09]],v2,fine,rdkTool,\WObj:=rdkWObj;
        MoveL [[189.846, 17.342, -1.500],[0.000000, 0.000000, 1.000000, 0.000000],[-1,0,-1,0],[9E+09,9E+09,9E+09,9E+09,9E+09,9E+09]],v6,fine,rdkTool,\WObj:=rdkWObj;
        MoveL [[196.030, 17.489, -1.500],[0.000000, 0.000000, 1.000000, 0.000000],[-1,0,-1,0],[9E+09,9E+09,9E+09,9E+09,9E+09,9E+09]],v6,fine,rdkTool,\WObj:=rdkWObj;
        MoveL [[189.726, 0.739, -1.500],[0.000000, 0.000000, -1.000000, 0.000000],[-1,0,-1,0],[9E+09,9E+09,9E+09,9E+09,9E+09,9E+09]],v6,fine,rdkTool,\WObj:=rdkWObj;
        MoveL [[189.726, 0.739, 3.000],[0.000000, 0.000000, -1.000000, 0.000000],[-1,0,-1,0],[9E+09,9E+09,9E+09,9E+09,9E+09,9E+09]],v2,fine,rdkTool,\WObj:=rdkWObj;
        MoveL [[189.726, 0.739, 15.000],[0.000000, 0.000000, -1.000000, 0.000000],[-1,0,-1,0],[9E+09,9E+09,9E+09,9E+09,9E+09,9E+09]],v1000,fine,rdkTool,\WObj:=rdkWObj;
        MoveL [[208.479, -1.926, 15.000],[0.000000, 0.000000, 1.000000, 0.000000],[-1,0,-1,0],[9E+09,9E+09,9E+09,9E+09,9E+09,9E+09]],v1000,fine,rdkTool,\WObj:=rdkWObj;
        MoveL [[208.479, -1.926, 3.000],[0.000000, 0.000000, 1.000000, 0.000000],[-1,0,-1,0],[9E+09,9E+09,9E+09,9E+09,9E+09,9E+09]],v1000,fine,rdkTool,\WObj:=rdkWObj;
        MoveL [[208.479, -1.926, -1.500],[0.000000, 0.000000, 1.000000, 0.000000],[-1,0,-1,0],[9E+09,9E+09,9E+09,9E+09,9E+09,9E+09]],v2,fine,rdkTool,\WObj:=rdkWObj;
        MoveL [[209.697, -1.175, -1.500],[0.000000, 0.000000, 1.000000, 0.000000],[-1,0,-1,0],[9E+09,9E+09,9E+09,9E+09,9E+09,9E+09]],v6,fine,rdkTool,\WObj:=rdkWObj;
        MoveL [[211.621, -8.094, -1.500],[0.000000, 0.000000, 1.000000, 0.000000],[-1,0,-1,0],[9E+09,9E+09,9E+09,9E+09,9E+09,9E+09]],v6,fine,rdkTool,\WObj:=rdkWObj;
        MoveL [[208.479, -1.926, -1.500],[0.000000, 0.000000, 1.000000, 0.000000],[-1,0,-1,0],[9E+09,9E+09,9E+09,9E+09,9E+09,9E+09]],v6,fine,rdkTool,\WObj:=rdkWObj;
        MoveL [[208.479, -1.926, 3.000],[0.000000, 0.000000, 1.000000, 0.000000],[-1,0,-1,0],[9E+09,9E+09,9E+09,9E+09,9E+09,9E+09]],v2,fine,rdkTool,\WObj:=rdkWObj;
        MoveL [[208.479, -1.926, 15.000],[0.000000, 0.000000, 1.000000, 0.000000],[-1,0,-1,0],[9E+09,9E+09,9E+09,9E+09,9E+09,9E+09]],v1000,fine,rdkTool,\WObj:=rdkWObj;
        MoveL [[189.726, 0.739, 15.000],[0.000000, 0.000000, -1.000000, 0.000000],[-1,0,-1,0],[9E+09,9E+09,9E+09,9E+09,9E+09,9E+09]],v1000,fine,rdkTool,\WObj:=rdkWObj;
        MoveL [[189.726, 0.739, 3.000],[0.000000, 0.000000, -1.000000, 0.000000],[-1,0,-1,0],[9E+09,9E+09,9E+09,9E+09,9E+09,9E+09]],v1000,fine,rdkTool,\WObj:=rdkWObj;
        MoveL [[189.726, 0.739, -1.500],[0.000000, 0.000000, -1.000000, 0.000000],[-1,0,-1,0],[9E+09,9E+09,9E+09,9E+09,9E+09,9E+09]],v2,fine,rdkTool,\WObj:=rdkWObj;
        MoveL [[210.760, -15.864, -1.500],[0.000000, 0.000000, -1.000000, 0.000000],[-1,0,-1,0],[9E+09,9E+09,9E+09,9E+09,9E+09,9E+09]],v6,fine,rdkTool,\WObj:=rdkWObj;
        MoveL [[206.712, -15.864, -1.500],[0.000000, 0.000000, 1.000000, 0.000000],[-1,0,-1,0],[9E+09,9E+09,9E+09,9E+09,9E+09,9E+09]],v6,fine,rdkTool,\WObj:=rdkWObj;
        MoveL [[203.670, -9.424, -1.500],[0.000000, 0.000000, 1.000000, 0.000000],[-1,0,-1,0],[9E+09,9E+09,9E+09,9E+09,9E+09,9E+09]],v6,fine,rdkTool,\WObj:=rdkWObj;
        MoveL [[200.628, -2.983, -1.500],[0.000000, 0.000000, -1.000000, 0.000000],[-1,0,-1,0],[9E+09,9E+09,9E+09,9E+09,9E+09,9E+09]],v6,fine,rdkTool,\WObj:=rdkWObj;
        MoveL [[198.901, -3.126, -1.500],[0.000000, 0.000000, -1.000000, 0.000000],[-1,0,-1,0],[9E+09,9E+09,9E+09,9E+09,9E+09,9E+09]],v6,fine,rdkTool,\WObj:=rdkWObj;
        MoveL [[197.175, -3.269, -1.500],[0.000000, 0.000000, -1.000000, 0.000000],[-1,0,-1,0],[9E+09,9E+09,9E+09,9E+09,9E+09,9E+09]],v6,fine,rdkTool,\WObj:=rdkWObj;
        MoveL [[197.047, -9.567, -1.500],[0.000000, 0.000000, -1.000000, 0.000000],[-1,0,-1,0],[9E+09,9E+09,9E+09,9E+09,9E+09,9E+09]],v6,fine,rdkTool,\WObj:=rdkWObj;
        MoveL [[196.920, -15.864, -1.500],[0.000000, 0.000000, -1.000000, 0.000000],[-1,0,-1,0],[9E+09,9E+09,9E+09,9E+09,9E+09,9E+09]],v6,fine,rdkTool,\WObj:=rdkWObj;
        MoveL [[193.263, -15.864, -1.500],[0.000000, 0.000000, 1.000000, 0.000000],[-1,0,-1,0],[9E+09,9E+09,9E+09,9E+09,9E+09,9E+09]],v6,fine,rdkTool,\WObj:=rdkWObj;
        MoveL [[189.606, -15.864, -1.500],[0.000000, 0.000000, -1.000000, 0.000000],[-1,0,-1,0],[9E+09,9E+09,9E+09,9E+09,9E+09,9E+09]],v6,fine,rdkTool,\WObj:=rdkWObj;
        MoveL [[189.726, 0.739, -1.500],[0.000000, 0.000000, -1.000000, 0.000000],[-1,0,-1,0],[9E+09,9E+09,9E+09,9E+09,9E+09,9E+09]],v6,fine,rdkTool,\WObj:=rdkWObj;
        MoveL [[189.726, 0.739, 3.000],[0.000000, 0.000000, -1.000000, 0.000000],[-1,0,-1,0],[9E+09,9E+09,9E+09,9E+09,9E+09,9E+09]],v2,fine,rdkTool,\WObj:=rdkWObj;
        MoveL [[189.726, 0.739, 15.000],[0.000000, 0.000000, -1.000000, 0.000000],[-1,0,-1,0],[9E+09,9E+09,9E+09,9E+09,9E+09,9E+09]],v1000,fine,rdkTool,\WObj:=rdkWObj;
        MoveL [[196.030, -2.124, 15.000],[0.000000, 0.000000, 1.000000, 0.000000],[-1,0,-1,0],[9E+09,9E+09,9E+09,9E+09,9E+09,9E+09]],v1000,fine,rdkTool,\WObj:=rdkWObj;
        MoveL [[196.030, -2.124, 3.000],[0.000000, 0.000000, -1.000000, 0.000000],[-1,0,-1,0],[9E+09,9E+09,9E+09,9E+09,9E+09,9E+09]],v1000,fine,rdkTool,\WObj:=rdkWObj;
        MoveL [[196.030, -2.124, -1.500],[0.000000, 0.000000, -1.000000, 0.000000],[-1,0,-1,0],[9E+09,9E+09,9E+09,9E+09,9E+09,9E+09]],v2,fine,rdkTool,\WObj:=rdkWObj;
        MoveL [[198.784, -2.124, -1.500],[0.000000, 0.000000, -1.000000, 0.000000],[-1,0,-1,0],[9E+09,9E+09,9E+09,9E+09,9E+09,9E+09]],v6,fine,rdkTool,\WObj:=rdkWObj;
        MoveL [[201.539, -2.124, -1.500],[0.000000, 0.000000, -1.000000, 0.000000],[-1,0,-1,0],[9E+09,9E+09,9E+09,9E+09,9E+09,9E+09]],v6,fine,rdkTool,\WObj:=rdkWObj;
        MoveL [[204.624, -8.533, -1.500],[0.000000, 0.000000, 1.000000, 0.000000],[-1,0,-1,0],[9E+09,9E+09,9E+09,9E+09,9E+09,9E+09]],v6,fine,rdkTool,\WObj:=rdkWObj;
        MoveL [[207.709, -14.943, -1.500],[0.000000, 0.000000, -1.000000, 0.000000],[-1,0,-1,0],[9E+09,9E+09,9E+09,9E+09,9E+09,9E+09]],v6,fine,rdkTool,\WObj:=rdkWObj;
        MoveL [[210.749, -14.946, -1.500],[0.000000, 0.000000, 1.000000, 0.000000],[-1,0,-1,0],[9E+09,9E+09,9E+09,9E+09,9E+09,9E+09]],v6,fine,rdkTool,\WObj:=rdkWObj;
        MoveL [[213.788, -14.948, -1.500],[0.000000, 0.000000, 1.000000, 0.000000],[-1,0,-1,0],[9E+09,9E+09,9E+09,9E+09,9E+09,9E+09]],v6,fine,rdkTool,\WObj:=rdkWObj;
        MoveL [[210.405, -8.498, -1.500],[0.000000, 0.000000, 1.000000, 0.000000],[-1,0,-1,0],[9E+09,9E+09,9E+09,9E+09,9E+09,9E+09]],v6,fine,rdkTool,\WObj:=rdkWObj;
        MoveL [[196.030, -8.536, -1.500],[0.000000, 0.000000, 1.000000, 0.000000],[-1,0,-1,0],[9E+09,9E+09,9E+09,9E+09,9E+09,9E+09]],v6,fine,rdkTool,\WObj:=rdkWObj;
        MoveL [[196.030, -2.124, -1.500],[0.000000, 0.000000, -1.000000, 0.000000],[-1,0,-1,0],[9E+09,9E+09,9E+09,9E+09,9E+09,9E+09]],v6,fine,rdkTool,\WObj:=rdkWObj;
        MoveL [[196.030, -2.124, 3.000],[0.000000, 0.000000, -1.000000, 0.000000],[-1,0,-1,0],[9E+09,9E+09,9E+09,9E+09,9E+09,9E+09]],v2,fine,rdkTool,\WObj:=rdkWObj;
        MoveL [[196.030, -2.124, 15.000],[0.000000, 0.000000, 1.000000, 0.000000],[-1,0,-1,0],[9E+09,9E+09,9E+09,9E+09,9E+09,9E+09]],v1000,fine,rdkTool,\WObj:=rdkWObj;
        MoveL [[190.689, 0.857, 15.000],[0.000000, 0.000000, -1.000000, 0.000000],[-1,0,-1,0],[9E+09,9E+09,9E+09,9E+09,9E+09,9E+09]],v1000,fine,rdkTool,\WObj:=rdkWObj;
        MoveL [[190.689, 0.857, 3.000],[0.000000, 0.000000, -1.000000, 0.000000],[-1,0,-1,0],[9E+09,9E+09,9E+09,9E+09,9E+09,9E+09]],v1000,fine,rdkTool,\WObj:=rdkWObj;
        MoveL [[190.689, 0.857, -1.500],[0.000000, 0.000000, -1.000000, 0.000000],[-1,0,-1,0],[9E+09,9E+09,9E+09,9E+09,9E+09,9E+09]],v2,fine,rdkTool,\WObj:=rdkWObj;
        MoveL [[190.762, 15.968, -1.500],[0.000000, 0.000000, -1.000000, 0.000000],[-1,0,-1,0],[9E+09,9E+09,9E+09,9E+09,9E+09,9E+09]],v6,fine,rdkTool,\WObj:=rdkWObj;
        MoveL [[197.633, 16.107, -1.500],[0.000000, 0.000000, -1.000000, 0.000000],[-1,0,-1,0],[9E+09,9E+09,9E+09,9E+09,9E+09,9E+09]],v6,fine,rdkTool,\WObj:=rdkWObj;
        MoveL [[190.689, 0.857, -1.500],[0.000000, 0.000000, -1.000000, 0.000000],[-1,0,-1,0],[9E+09,9E+09,9E+09,9E+09,9E+09,9E+09]],v6,fine,rdkTool,\WObj:=rdkWObj;
        MoveL [[190.689, 0.857, 3.000],[0.000000, 0.000000, -1.000000, 0.000000],[-1,0,-1,0],[9E+09,9E+09,9E+09,9E+09,9E+09,9E+09]],v2,fine,rdkTool,\WObj:=rdkWObj;
        MoveL [[190.689, 0.857, 15.000],[0.000000, 0.000000, -1.000000, 0.000000],[-1,0,-1,0],[9E+09,9E+09,9E+09,9E+09,9E+09,9E+09]],v1000,fine,rdkTool,\WObj:=rdkWObj;
        MoveL [[193.538, -14.948, 15.000],[0.000000, 0.000000, -1.000000, 0.000000],[-1,0,-1,0],[9E+09,9E+09,9E+09,9E+09,9E+09,9E+09]],v1000,fine,rdkTool,\WObj:=rdkWObj;
        MoveL [[193.538, -14.948, 3.000],[0.000000, 0.000000, -1.000000, 0.000000],[-1,0,-1,0],[9E+09,9E+09,9E+09,9E+09,9E+09,9E+09]],v1000,fine,rdkTool,\WObj:=rdkWObj;
        MoveL [[193.538, -14.948, -1.500],[0.000000, 0.000000, -1.000000, 0.000000],[-1,0,-1,0],[9E+09,9E+09,9E+09,9E+09,9E+09,9E+09]],v2,fine,rdkTool,\WObj:=rdkWObj;
        MoveL [[196.030, -8.536, -1.500],[0.000000, 0.000000, 1.000000, 0.000000],[-1,0,-1,0],[9E+09,9E+09,9E+09,9E+09,9E+09,9E+09]],v6,fine,rdkTool,\WObj:=rdkWObj;
        MoveL [[196.030, -14.948, -1.500],[0.000000, 0.000000, 1.000000, 0.000000],[-1,0,-1,0],[9E+09,9E+09,9E+09,9E+09,9E+09,9E+09]],v6,fine,rdkTool,\WObj:=rdkWObj;
        MoveL [[193.538, -14.948, -1.500],[0.000000, 0.000000, -1.000000, 0.000000],[-1,0,-1,0],[9E+09,9E+09,9E+09,9E+09,9E+09,9E+09]],v6,fine,rdkTool,\WObj:=rdkWObj;
        MoveL [[193.538, -14.948, 3.000],[0.000000, 0.000000, -1.000000, 0.000000],[-1,0,-1,0],[9E+09,9E+09,9E+09,9E+09,9E+09,9E+09]],v2,fine,rdkTool,\WObj:=rdkWObj;
        MoveL [[193.538, -14.948, 15.000],[0.000000, 0.000000, -1.000000, 0.000000],[-1,0,-1,0],[9E+09,9E+09,9E+09,9E+09,9E+09,9E+09]],v1000,fine,rdkTool,\WObj:=rdkWObj;
        MoveL [[196.125, 7.302, 15.000],[0.000000, 0.000000, 1.000000, 0.000000],[-1,0,-1,0],[9E+09,9E+09,9E+09,9E+09,9E+09,9E+09]],v1000,fine,rdkTool,\WObj:=rdkWObj;
        MoveL [[196.125, 7.302, 3.000],[0.000000, 0.000000, -1.000000, 0.000000],[-1,0,-1,0],[9E+09,9E+09,9E+09,9E+09,9E+09,9E+09]],v1000,fine,rdkTool,\WObj:=rdkWObj;
        MoveL [[196.125, 7.302, -1.500],[0.000000, 0.000000, -1.000000, 0.000000],[-1,0,-1,0],[9E+09,9E+09,9E+09,9E+09,9E+09,9E+09]],v2,fine,rdkTool,\WObj:=rdkWObj;
        MoveL [[196.259, 11.388, -1.500],[0.000000, 0.000000, -1.000000, 0.000000],[-1,0,-1,0],[9E+09,9E+09,9E+09,9E+09,9E+09,9E+09]],v6,fine,rdkTool,\WObj:=rdkWObj;
        MoveL [[200.513, 11.520, -1.500],[0.000000, 0.000000, 1.000000, 0.000000],[-1,0,-1,0],[9E+09,9E+09,9E+09,9E+09,9E+09,9E+09]],v6,fine,rdkTool,\WObj:=rdkWObj;
        MoveL [[196.125, 7.302, -1.500],[0.000000, 0.000000, -1.000000, 0.000000],[-1,0,-1,0],[9E+09,9E+09,9E+09,9E+09,9E+09,9E+09]],v6,fine,rdkTool,\WObj:=rdkWObj;
        MoveL [[196.125, 7.302, 3.000],[0.000000, 0.000000, -1.000000, 0.000000],[-1,0,-1,0],[9E+09,9E+09,9E+09,9E+09,9E+09,9E+09]],v2,fine,rdkTool,\WObj:=rdkWObj;
        MoveL [[196.125, 7.302, 15.000],[0.000000, 0.000000, 1.000000, 0.000000],[-1,0,-1,0],[9E+09,9E+09,9E+09,9E+09,9E+09,9E+09]],v1000,fine,rdkTool,\WObj:=rdkWObj;
        MoveL [[196.946, 3.372, 15.000],[0.000000, 0.000000, -1.000000, 0.000000],[-1,0,-1,0],[9E+09,9E+09,9E+09,9E+09,9E+09,9E+09]],v1000,fine,rdkTool,\WObj:=rdkWObj;
        MoveL [[196.946, 3.372, 3.000],[0.000000, 0.000000, 1.000000, 0.000000],[-1,0,-1,0],[9E+09,9E+09,9E+09,9E+09,9E+09,9E+09]],v1000,fine,rdkTool,\WObj:=rdkWObj;
        MoveL [[196.946, 3.372, -1.500],[0.000000, 0.000000, -1.000000, 0.000000],[-1,0,-1,0],[9E+09,9E+09,9E+09,9E+09,9E+09,9E+09]],v2,fine,rdkTool,\WObj:=rdkWObj;
        MoveL [[196.946, 7.036, -1.500],[0.000000, 0.000000, -1.000000, 0.000000],[-1,0,-1,0],[9E+09,9E+09,9E+09,9E+09,9E+09,9E+09]],v6,fine,rdkTool,\WObj:=rdkWObj;
        MoveL [[196.946, 10.701, -1.500],[0.000000, 0.000000, -1.000000, 0.000000],[-1,0,-1,0],[9E+09,9E+09,9E+09,9E+09,9E+09,9E+09]],v6,fine,rdkTool,\WObj:=rdkWObj;
        MoveL [[200.416, 10.701, -1.500],[0.000000, 0.000000, -1.000000, 0.000000],[-1,0,-1,0],[9E+09,9E+09,9E+09,9E+09,9E+09,9E+09]],v6,fine,rdkTool,\WObj:=rdkWObj;
        MoveL [[200.416, 3.372, -1.500],[0.000000, 0.000000, -1.000000, 0.000000],[-1,0,-1,0],[9E+09,9E+09,9E+09,9E+09,9E+09,9E+09]],v6,fine,rdkTool,\WObj:=rdkWObj;
        MoveL [[196.946, 3.372, -1.500],[0.000000, 0.000000, -1.000000, 0.000000],[-1,0,-1,0],[9E+09,9E+09,9E+09,9E+09,9E+09,9E+09]],v6,fine,rdkTool,\WObj:=rdkWObj;
        MoveL [[196.946, 3.372, 3.000],[0.000000, 0.000000, 1.000000, 0.000000],[-1,0,-1,0],[9E+09,9E+09,9E+09,9E+09,9E+09,9E+09]],v2,fine,rdkTool,\WObj:=rdkWObj;
        MoveL [[196.946, 3.372, 15.000],[0.000000, 0.000000, -1.000000, 0.000000],[-1,0,-1,0],[9E+09,9E+09,9E+09,9E+09,9E+09,9E+09]],v1000,fine,rdkTool,\WObj:=rdkWObj;
        MoveL [[259.069, -15.864, 15.000],[0.000000, 0.000000, -1.000000, 0.000000],[-1,0,-1,0],[9E+09,9E+09,9E+09,9E+09,9E+09,9E+09]],v1000,fine,rdkTool,\WObj:=rdkWObj;
        MoveL [[259.069, -15.864, 3.000],[0.000000, 0.000000, -1.000000, 0.000000],[-1,0,-1,0],[9E+09,9E+09,9E+09,9E+09,9E+09,9E+09]],v1000,fine,rdkTool,\WObj:=rdkWObj;
        MoveL [[259.069, -15.864, -1.500],[0.000000, 0.000000, 1.000000, 0.000000],[-1,0,-1,0],[9E+09,9E+09,9E+09,9E+09,9E+09,9E+09]],v2,fine,rdkTool,\WObj:=rdkWObj;
        MoveL [[262.414, -15.864, -1.500],[0.000000, 0.000000, -1.000000, 0.000000],[-1,0,-1,0],[9E+09,9E+09,9E+09,9E+09,9E+09,9E+09]],v6,fine,rdkTool,\WObj:=rdkWObj;
        MoveL [[262.542, -10.025, -1.500],[0.000000, 0.000000, 1.000000, 0.000000],[-1,0,-1,0],[9E+09,9E+09,9E+09,9E+09,9E+09,9E+09]],v6,fine,rdkTool,\WObj:=rdkWObj;
        MoveL [[262.671, -4.185, -1.500],[0.000000, 0.000000, -1.000000, 0.000000],[-1,0,-1,0],[9E+09,9E+09,9E+09,9E+09,9E+09,9E+09]],v6,fine,rdkTool,\WObj:=rdkWObj;
        MoveL [[267.306, -3.903, -1.500],[0.000000, 0.000000, 1.000000, 0.000000],[-1,0,-1,0],[9E+09,9E+09,9E+09,9E+09,9E+09,9E+09]],v6,fine,rdkTool,\WObj:=rdkWObj;
        MoveL [[259.069, -15.864, -1.500],[0.000000, 0.000000, 1.000000, 0.000000],[-1,0,-1,0],[9E+09,9E+09,9E+09,9E+09,9E+09,9E+09]],v6,fine,rdkTool,\WObj:=rdkWObj;
        MoveL [[259.069, -15.864, 3.000],[0.000000, 0.000000, -1.000000, 0.000000],[-1,0,-1,0],[9E+09,9E+09,9E+09,9E+09,9E+09,9E+09]],v2,fine,rdkTool,\WObj:=rdkWObj;
        MoveL [[259.069, -15.864, 15.000],[0.000000, 0.000000, -1.000000, 0.000000],[-1,0,-1,0],[9E+09,9E+09,9E+09,9E+09,9E+09,9E+09]],v1000,fine,rdkTool,\WObj:=rdkWObj;
        MoveL [[256.487, 0.624, 15.000],[0.000000, 0.000000, 1.000000, 0.000000],[-1,0,-1,0],[9E+09,9E+09,9E+09,9E+09,9E+09,9E+09]],v1000,fine,rdkTool,\WObj:=rdkWObj;
        MoveL [[256.487, 0.624, 3.000],[0.000000, 0.000000, -1.000000, 0.000000],[-1,0,-1,0],[9E+09,9E+09,9E+09,9E+09,9E+09,9E+09]],v1000,fine,rdkTool,\WObj:=rdkWObj;
        MoveL [[256.487, 0.624, -1.500],[0.000000, 0.000000, 1.000000, 0.000000],[-1,0,-1,0],[9E+09,9E+09,9E+09,9E+09,9E+09,9E+09]],v2,fine,rdkTool,\WObj:=rdkWObj;
        MoveL [[256.487, 16.197, -1.500],[0.000000, 0.000000, -1.000000, 0.000000],[-1,0,-1,0],[9E+09,9E+09,9E+09,9E+09,9E+09,9E+09]],v6,fine,rdkTool,\WObj:=rdkWObj;
        MoveL [[263.701, 16.187, -1.500],[0.000000, 0.000000, -1.000000, 0.000000],[-1,0,-1,0],[9E+09,9E+09,9E+09,9E+09,9E+09,9E+09]],v6,fine,rdkTool,\WObj:=rdkWObj;
        MoveL [[261.526, -9.047, -1.500],[0.000000, 0.000000, -1.000000, 0.000000],[-1,0,-1,0],[9E+09,9E+09,9E+09,9E+09,9E+09,9E+09]],v6,fine,rdkTool,\WObj:=rdkWObj;
        MoveL [[261.526, -14.948, -1.500],[0.000000, 0.000000, 1.000000, 0.000000],[-1,0,-1,0],[9E+09,9E+09,9E+09,9E+09,9E+09,9E+09]],v6,fine,rdkTool,\WObj:=rdkWObj;
        MoveL [[259.006, -14.948, -1.500],[0.000000, 0.000000, 1.000000, 0.000000],[-1,0,-1,0],[9E+09,9E+09,9E+09,9E+09,9E+09,9E+09]],v6,fine,rdkTool,\WObj:=rdkWObj;
        MoveL [[256.487, -14.948, -1.500],[0.000000, 0.000000, -1.000000, 0.000000],[-1,0,-1,0],[9E+09,9E+09,9E+09,9E+09,9E+09,9E+09]],v6,fine,rdkTool,\WObj:=rdkWObj;
        MoveL [[256.487, 0.624, -1.500],[0.000000, 0.000000, 1.000000, 0.000000],[-1,0,-1,0],[9E+09,9E+09,9E+09,9E+09,9E+09,9E+09]],v6,fine,rdkTool,\WObj:=rdkWObj;
        MoveL [[256.487, 0.624, 3.000],[0.000000, 0.000000, -1.000000, 0.000000],[-1,0,-1,0],[9E+09,9E+09,9E+09,9E+09,9E+09,9E+09]],v2,fine,rdkTool,\WObj:=rdkWObj;
        MoveL [[256.487, 0.624, 15.000],[0.000000, 0.000000, 1.000000, 0.000000],[-1,0,-1,0],[9E+09,9E+09,9E+09,9E+09,9E+09,9E+09]],v1000,fine,rdkTool,\WObj:=rdkWObj;
        MoveL [[261.526, 6.807, 15.000],[0.000000, 0.000000, 1.000000, 0.000000],[-1,0,-1,0],[9E+09,9E+09,9E+09,9E+09,9E+09,9E+09]],v1000,fine,rdkTool,\WObj:=rdkWObj;
        MoveL [[261.526, 6.807, 3.000],[0.000000, 0.000000, -1.000000, 0.000000],[-1,0,-1,0],[9E+09,9E+09,9E+09,9E+09,9E+09,9E+09]],v1000,fine,rdkTool,\WObj:=rdkWObj;
        MoveL [[261.526, 6.807, -1.500],[0.000000, 0.000000, -1.000000, 0.000000],[-1,0,-1,0],[9E+09,9E+09,9E+09,9E+09,9E+09,9E+09]],v2,fine,rdkTool,\WObj:=rdkWObj;
        MoveL [[261.526, 11.617, -1.500],[0.000000, 0.000000, 1.000000, 0.000000],[-1,0,-1,0],[9E+09,9E+09,9E+09,9E+09,9E+09,9E+09]],v6,fine,rdkTool,\WObj:=rdkWObj;
        MoveL [[265.626, 11.617, -1.500],[0.000000, 0.000000, -1.000000, 0.000000],[-1,0,-1,0],[9E+09,9E+09,9E+09,9E+09,9E+09,9E+09]],v6,fine,rdkTool,\WObj:=rdkWObj;
        MoveL [[261.526, 6.807, -1.500],[0.000000, 0.000000, -1.000000, 0.000000],[-1,0,-1,0],[9E+09,9E+09,9E+09,9E+09,9E+09,9E+09]],v6,fine,rdkTool,\WObj:=rdkWObj;
        MoveL [[261.526, 6.807, 3.000],[0.000000, 0.000000, -1.000000, 0.000000],[-1,0,-1,0],[9E+09,9E+09,9E+09,9E+09,9E+09,9E+09]],v2,fine,rdkTool,\WObj:=rdkWObj;
        MoveL [[261.526, 6.807, 15.000],[0.000000, 0.000000, 1.000000, 0.000000],[-1,0,-1,0],[9E+09,9E+09,9E+09,9E+09,9E+09,9E+09]],v1000,fine,rdkTool,\WObj:=rdkWObj;
        MoveL [[261.526, 1.998, 15.000],[0.000000, 0.000000, -1.000000, 0.000000],[-1,0,-1,0],[9E+09,9E+09,9E+09,9E+09,9E+09,9E+09]],v1000,fine,rdkTool,\WObj:=rdkWObj;
        MoveL [[261.526, 1.998, 3.000],[0.000000, 0.000000, 1.000000, 0.000000],[-1,0,-1,0],[9E+09,9E+09,9E+09,9E+09,9E+09,9E+09]],v1000,fine,rdkTool,\WObj:=rdkWObj;
        MoveL [[261.526, 1.998, -1.500],[0.000000, 0.000000, -1.000000, 0.000000],[-1,0,-1,0],[9E+09,9E+09,9E+09,9E+09,9E+09,9E+09]],v2,fine,rdkTool,\WObj:=rdkWObj;
        MoveL [[261.526, 6.807, -1.500],[0.000000, 0.000000, -1.000000, 0.000000],[-1,0,-1,0],[9E+09,9E+09,9E+09,9E+09,9E+09,9E+09]],v6,fine,rdkTool,\WObj:=rdkWObj;
        MoveL [[265.678, 1.998, -1.500],[0.000000, 0.000000, 1.000000, 0.000000],[-1,0,-1,0],[9E+09,9E+09,9E+09,9E+09,9E+09,9E+09]],v6,fine,rdkTool,\WObj:=rdkWObj;
        MoveL [[261.526, 1.998, -1.500],[0.000000, 0.000000, -1.000000, 0.000000],[-1,0,-1,0],[9E+09,9E+09,9E+09,9E+09,9E+09,9E+09]],v6,fine,rdkTool,\WObj:=rdkWObj;
        MoveL [[261.526, 1.998, 3.000],[0.000000, 0.000000, 1.000000, 0.000000],[-1,0,-1,0],[9E+09,9E+09,9E+09,9E+09,9E+09,9E+09]],v2,fine,rdkTool,\WObj:=rdkWObj;
        MoveL [[261.526, 1.998, 15.000],[0.000000, 0.000000, -1.000000, 0.000000],[-1,0,-1,0],[9E+09,9E+09,9E+09,9E+09,9E+09,9E+09]],v1000,fine,rdkTool,\WObj:=rdkWObj;
        MoveL [[262.534, 7.311, 15.000],[0.000000, 0.000000, -1.000000, 0.000000],[-1,0,-1,0],[9E+09,9E+09,9E+09,9E+09,9E+09,9E+09]],v1000,fine,rdkTool,\WObj:=rdkWObj;
        MoveL [[262.534, 7.311, 3.000],[0.000000, 0.000000, -1.000000, 0.000000],[-1,0,-1,0],[9E+09,9E+09,9E+09,9E+09,9E+09,9E+09]],v1000,fine,rdkTool,\WObj:=rdkWObj;
        MoveL [[262.534, 7.311, -1.500],[0.000000, 0.000000, -1.000000, 0.000000],[-1,0,-1,0],[9E+09,9E+09,9E+09,9E+09,9E+09,9E+09]],v2,fine,rdkTool,\WObj:=rdkWObj;
        MoveL [[262.671, 10.472, -1.500],[0.000000, 0.000000, -1.000000, 0.000000],[-1,0,-1,0],[9E+09,9E+09,9E+09,9E+09,9E+09,9E+09]],v6,fine,rdkTool,\WObj:=rdkWObj;
        MoveL [[266.006, 10.606, -1.500],[0.000000, 0.000000, -1.000000, 0.000000],[-1,0,-1,0],[9E+09,9E+09,9E+09,9E+09,9E+09,9E+09]],v6,fine,rdkTool,\WObj:=rdkWObj;
        MoveL [[262.534, 7.311, -1.500],[0.000000, 0.000000, -1.000000, 0.000000],[-1,0,-1,0],[9E+09,9E+09,9E+09,9E+09,9E+09,9E+09]],v6,fine,rdkTool,\WObj:=rdkWObj;
        MoveL [[262.534, 7.311, 3.000],[0.000000, 0.000000, -1.000000, 0.000000],[-1,0,-1,0],[9E+09,9E+09,9E+09,9E+09,9E+09,9E+09]],v2,fine,rdkTool,\WObj:=rdkWObj;
        MoveL [[262.534, 7.311, 15.000],[0.000000, 0.000000, -1.000000, 0.000000],[-1,0,-1,0],[9E+09,9E+09,9E+09,9E+09,9E+09,9E+09]],v1000,fine,rdkTool,\WObj:=rdkWObj;
        MoveL [[297.707, 17.461, 15.000],[0.000000, 0.000000, -1.000000, 0.000000],[-1,0,-1,0],[9E+09,9E+09,9E+09,9E+09,9E+09,9E+09]],v1000,fine,rdkTool,\WObj:=rdkWObj;
        MoveL [[297.707, 17.461, 3.000],[0.000000, 0.000000, 1.000000, 0.000000],[-1,0,-1,0],[9E+09,9E+09,9E+09,9E+09,9E+09,9E+09]],v1000,fine,rdkTool,\WObj:=rdkWObj;
        MoveL [[297.707, 17.461, -1.500],[0.000000, 0.000000, -1.000000, 0.000000],[-1,0,-1,0],[9E+09,9E+09,9E+09,9E+09,9E+09,9E+09]],v2,fine,rdkTool,\WObj:=rdkWObj;
        MoveL [[300.225, 17.342, -1.500],[0.000000, 0.000000, -1.000000, 0.000000],[-1,0,-1,0],[9E+09,9E+09,9E+09,9E+09,9E+09,9E+09]],v6,fine,rdkTool,\WObj:=rdkWObj;
        MoveL [[301.218, 14.594, -1.500],[0.000000, 0.000000, 1.000000, 0.000000],[-1,0,-1,0],[9E+09,9E+09,9E+09,9E+09,9E+09,9E+09]],v6,fine,rdkTool,\WObj:=rdkWObj;
        MoveL [[297.707, 17.461, -1.500],[0.000000, 0.000000, -1.000000, 0.000000],[-1,0,-1,0],[9E+09,9E+09,9E+09,9E+09,9E+09,9E+09]],v6,fine,rdkTool,\WObj:=rdkWObj;
        MoveL [[297.707, 17.461, 3.000],[0.000000, 0.000000, 1.000000, 0.000000],[-1,0,-1,0],[9E+09,9E+09,9E+09,9E+09,9E+09,9E+09]],v2,fine,rdkTool,\WObj:=rdkWObj;
        MoveL [[297.707, 17.461, 15.000],[0.000000, 0.000000, -1.000000, 0.000000],[-1,0,-1,0],[9E+09,9E+09,9E+09,9E+09,9E+09,9E+09]],v1000,fine,rdkTool,\WObj:=rdkWObj;
        MoveL [[286.382, -15.864, 15.000],[0.000000, 0.000000, -1.000000, 0.000000],[-1,0,-1,0],[9E+09,9E+09,9E+09,9E+09,9E+09,9E+09]],v1000,fine,rdkTool,\WObj:=rdkWObj;
        MoveL [[286.382, -15.864, 3.000],[0.000000, 0.000000, -1.000000, 0.000000],[-1,0,-1,0],[9E+09,9E+09,9E+09,9E+09,9E+09,9E+09]],v1000,fine,rdkTool,\WObj:=rdkWObj;
        MoveL [[286.382, -15.864, -1.500],[0.000000, 0.000000, -1.000000, 0.000000],[-1,0,-1,0],[9E+09,9E+09,9E+09,9E+09,9E+09,9E+09]],v2,fine,rdkTool,\WObj:=rdkWObj;
        MoveL [[290.170, -15.864, -1.500],[0.000000, 0.000000, 1.000000, 0.000000],[-1,0,-1,0],[9E+09,9E+09,9E+09,9E+09,9E+09,9E+09]],v6,fine,rdkTool,\WObj:=rdkWObj;
        MoveL [[291.077, -13.231, -1.500],[0.000000, 0.000000, -1.000000, 0.000000],[-1,0,-1,0],[9E+09,9E+09,9E+09,9E+09,9E+09,9E+09]],v6,fine,rdkTool,\WObj:=rdkWObj;
        MoveL [[291.983, -10.597, -1.500],[0.000000, 0.000000, -1.000000, 0.000000],[-1,0,-1,0],[9E+09,9E+09,9E+09,9E+09,9E+09,9E+09]],v6,fine,rdkTool,\WObj:=rdkWObj;
        MoveL [[297.328, -10.468, -1.500],[0.000000, 0.000000, -1.000000, 0.000000],[-1,0,-1,0],[9E+09,9E+09,9E+09,9E+09,9E+09,9E+09]],v6,fine,rdkTool,\WObj:=rdkWObj;
        MoveL [[302.674, -10.340, -1.500],[0.000000, 0.000000, 1.000000, 0.000000],[-1,0,-1,0],[9E+09,9E+09,9E+09,9E+09,9E+09,9E+09]],v6,fine,rdkTool,\WObj:=rdkWObj;
        MoveL [[303.512, -12.987, -1.500],[0.000000, 0.000000, 1.000000, 0.000000],[-1,0,-1,0],[9E+09,9E+09,9E+09,9E+09,9E+09,9E+09]],v6,fine,rdkTool,\WObj:=rdkWObj;
        MoveL [[304.350, -15.635, -1.500],[0.000000, 0.000000, 1.000000, 0.000000],[-1,0,-1,0],[9E+09,9E+09,9E+09,9E+09,9E+09,9E+09]],v6,fine,rdkTool,\WObj:=rdkWObj;
        MoveL [[308.128, -15.768, -1.500],[0.000000, 0.000000, 1.000000, 0.000000],[-1,0,-1,0],[9E+09,9E+09,9E+09,9E+09,9E+09,9E+09]],v6,fine,rdkTool,\WObj:=rdkWObj;
        MoveL [[286.382, -15.864, -1.500],[0.000000, 0.000000, -1.000000, 0.000000],[-1,0,-1,0],[9E+09,9E+09,9E+09,9E+09,9E+09,9E+09]],v6,fine,rdkTool,\WObj:=rdkWObj;
        MoveL [[286.382, -15.864, 3.000],[0.000000, 0.000000, -1.000000, 0.000000],[-1,0,-1,0],[9E+09,9E+09,9E+09,9E+09,9E+09,9E+09]],v2,fine,rdkTool,\WObj:=rdkWObj;
        MoveL [[286.382, -15.864, 15.000],[0.000000, 0.000000, -1.000000, 0.000000],[-1,0,-1,0],[9E+09,9E+09,9E+09,9E+09,9E+09,9E+09]],v1000,fine,rdkTool,\WObj:=rdkWObj;
        MoveL [[290.172, -11.971, 15.000],[0.000000, 0.000000, 1.000000, 0.000000],[-1,0,-1,0],[9E+09,9E+09,9E+09,9E+09,9E+09,9E+09]],v1000,fine,rdkTool,\WObj:=rdkWObj;
        MoveL [[290.172, -11.971, 3.000],[0.000000, 0.000000, 1.000000, 0.000000],[-1,0,-1,0],[9E+09,9E+09,9E+09,9E+09,9E+09,9E+09]],v1000,fine,rdkTool,\WObj:=rdkWObj;
        MoveL [[290.172, -11.971, -1.500],[0.000000, 0.000000, -1.000000, 0.000000],[-1,0,-1,0],[9E+09,9E+09,9E+09,9E+09,9E+09,9E+09]],v2,fine,rdkTool,\WObj:=rdkWObj;
        MoveL [[291.196, -9.223, -1.500],[0.000000, 0.000000, 1.000000, 0.000000],[-1,0,-1,0],[9E+09,9E+09,9E+09,9E+09,9E+09,9E+09]],v6,fine,rdkTool,\WObj:=rdkWObj;
        MoveL [[296.399, -9.209, -1.500],[0.000000, 0.000000, -1.000000, 0.000000],[-1,0,-1,0],[9E+09,9E+09,9E+09,9E+09,9E+09,9E+09]],v6,fine,rdkTool,\WObj:=rdkWObj;
        MoveL [[290.172, -11.971, -1.500],[0.000000, 0.000000, -1.000000, 0.000000],[-1,0,-1,0],[9E+09,9E+09,9E+09,9E+09,9E+09,9E+09]],v6,fine,rdkTool,\WObj:=rdkWObj;
        MoveL [[290.172, -11.971, 3.000],[0.000000, 0.000000, 1.000000, 0.000000],[-1,0,-1,0],[9E+09,9E+09,9E+09,9E+09,9E+09,9E+09]],v2,fine,rdkTool,\WObj:=rdkWObj;
        MoveL [[290.172, -11.971, 15.000],[0.000000, 0.000000, 1.000000, 0.000000],[-1,0,-1,0],[9E+09,9E+09,9E+09,9E+09,9E+09,9E+09]],v1000,fine,rdkTool,\WObj:=rdkWObj;
        MoveL [[304.477, -12.129, 15.000],[0.000000, 0.000000, -1.000000, 0.000000],[-1,0,-1,0],[9E+09,9E+09,9E+09,9E+09,9E+09,9E+09]],v1000,fine,rdkTool,\WObj:=rdkWObj;
        MoveL [[304.477, -12.129, 3.000],[0.000000, 0.000000, -1.000000, 0.000000],[-1,0,-1,0],[9E+09,9E+09,9E+09,9E+09,9E+09,9E+09]],v1000,fine,rdkTool,\WObj:=rdkWObj;
        MoveL [[304.477, -12.129, -1.500],[0.000000, 0.000000, -1.000000, 0.000000],[-1,0,-1,0],[9E+09,9E+09,9E+09,9E+09,9E+09,9E+09]],v2,fine,rdkTool,\WObj:=rdkWObj;
        MoveL [[307.974, -14.858, -1.500],[0.000000, 0.000000, -1.000000, 0.000000],[-1,0,-1,0],[9E+09,9E+09,9E+09,9E+09,9E+09,9E+09]],v6,fine,rdkTool,\WObj:=rdkWObj;
        MoveL [[305.338, -14.719, -1.500],[0.000000, 0.000000, -1.000000, 0.000000],[-1,0,-1,0],[9E+09,9E+09,9E+09,9E+09,9E+09,9E+09]],v6,fine,rdkTool,\WObj:=rdkWObj;
        MoveL [[304.477, -12.129, -1.500],[0.000000, 0.000000, -1.000000, 0.000000],[-1,0,-1,0],[9E+09,9E+09,9E+09,9E+09,9E+09,9E+09]],v6,fine,rdkTool,\WObj:=rdkWObj;
        MoveL [[304.477, -12.129, 3.000],[0.000000, 0.000000, -1.000000, 0.000000],[-1,0,-1,0],[9E+09,9E+09,9E+09,9E+09,9E+09,9E+09]],v2,fine,rdkTool,\WObj:=rdkWObj;
        MoveL [[304.477, -12.129, 15.000],[0.000000, 0.000000, -1.000000, 0.000000],[-1,0,-1,0],[9E+09,9E+09,9E+09,9E+09,9E+09,9E+09]],v1000,fine,rdkTool,\WObj:=rdkWObj;
        MoveL [[289.725, 1.197, 15.000],[0.000000, 0.000000, 1.000000, 0.000000],[-1,0,-1,0],[9E+09,9E+09,9E+09,9E+09,9E+09,9E+09]],v1000,fine,rdkTool,\WObj:=rdkWObj;
        MoveL [[289.725, 1.197, 3.000],[0.000000, 0.000000, -1.000000, 0.000000],[-1,0,-1,0],[9E+09,9E+09,9E+09,9E+09,9E+09,9E+09]],v1000,fine,rdkTool,\WObj:=rdkWObj;
        MoveL [[289.725, 1.197, -1.500],[0.000000, 0.000000, -1.000000, 0.000000],[-1,0,-1,0],[9E+09,9E+09,9E+09,9E+09,9E+09,9E+09]],v2,fine,rdkTool,\WObj:=rdkWObj;
        MoveL [[295.153, 16.197, -1.500],[0.000000, 0.000000, 1.000000, 0.000000],[-1,0,-1,0],[9E+09,9E+09,9E+09,9E+09,9E+09,9E+09]],v6,fine,rdkTool,\WObj:=rdkWObj;
        MoveL [[297.245, 16.197, -1.500],[0.000000, 0.000000, -1.000000, 0.000000],[-1,0,-1,0],[9E+09,9E+09,9E+09,9E+09,9E+09,9E+09]],v6,fine,rdkTool,\WObj:=rdkWObj;
        MoveL [[299.337, 16.197, -1.500],[0.000000, 0.000000, 1.000000, 0.000000],[-1,0,-1,0],[9E+09,9E+09,9E+09,9E+09,9E+09,9E+09]],v6,fine,rdkTool,\WObj:=rdkWObj;
        MoveL [[300.882, 11.960, -1.500],[0.000000, 0.000000, -1.000000, 0.000000],[-1,0,-1,0],[9E+09,9E+09,9E+09,9E+09,9E+09,9E+09]],v6,fine,rdkTool,\WObj:=rdkWObj;
        MoveL [[289.725, 1.197, -1.500],[0.000000, 0.000000, -1.000000, 0.000000],[-1,0,-1,0],[9E+09,9E+09,9E+09,9E+09,9E+09,9E+09]],v6,fine,rdkTool,\WObj:=rdkWObj;
        MoveL [[289.725, 1.197, 3.000],[0.000000, 0.000000, -1.000000, 0.000000],[-1,0,-1,0],[9E+09,9E+09,9E+09,9E+09,9E+09,9E+09]],v2,fine,rdkTool,\WObj:=rdkWObj;
        MoveL [[289.725, 1.197, 15.000],[0.000000, 0.000000, 1.000000, 0.000000],[-1,0,-1,0],[9E+09,9E+09,9E+09,9E+09,9E+09,9E+09]],v1000,fine,rdkTool,\WObj:=rdkWObj;
        MoveL [[286.500, -14.858, 15.000],[0.000000, 0.000000, -1.000000, 0.000000],[-1,0,-1,0],[9E+09,9E+09,9E+09,9E+09,9E+09,9E+09]],v1000,fine,rdkTool,\WObj:=rdkWObj;
        MoveL [[286.500, -14.858, 3.000],[0.000000, 0.000000, -1.000000, 0.000000],[-1,0,-1,0],[9E+09,9E+09,9E+09,9E+09,9E+09,9E+09]],v1000,fine,rdkTool,\WObj:=rdkWObj;
        MoveL [[286.500, -14.858, -1.500],[0.000000, 0.000000, 1.000000, 0.000000],[-1,0,-1,0],[9E+09,9E+09,9E+09,9E+09,9E+09,9E+09]],v2,fine,rdkTool,\WObj:=rdkWObj;
        MoveL [[290.172, -11.971, -1.500],[0.000000, 0.000000, -1.000000, 0.000000],[-1,0,-1,0],[9E+09,9E+09,9E+09,9E+09,9E+09,9E+09]],v6,fine,rdkTool,\WObj:=rdkWObj;
        MoveL [[289.148, -14.719, -1.500],[0.000000, 0.000000, 1.000000, 0.000000],[-1,0,-1,0],[9E+09,9E+09,9E+09,9E+09,9E+09,9E+09]],v6,fine,rdkTool,\WObj:=rdkWObj;
        MoveL [[286.500, -14.858, -1.500],[0.000000, 0.000000, 1.000000, 0.000000],[-1,0,-1,0],[9E+09,9E+09,9E+09,9E+09,9E+09,9E+09]],v6,fine,rdkTool,\WObj:=rdkWObj;
        MoveL [[286.500, -14.858, 3.000],[0.000000, 0.000000, -1.000000, 0.000000],[-1,0,-1,0],[9E+09,9E+09,9E+09,9E+09,9E+09,9E+09]],v2,fine,rdkTool,\WObj:=rdkWObj;
        MoveL [[286.500, -14.858, 15.000],[0.000000, 0.000000, -1.000000, 0.000000],[-1,0,-1,0],[9E+09,9E+09,9E+09,9E+09,9E+09,9E+09]],v1000,fine,rdkTool,\WObj:=rdkWObj;
        MoveL [[294.084, -3.956, 15.000],[0.000000, 0.000000, -1.000000, 0.000000],[-1,0,-1,0],[9E+09,9E+09,9E+09,9E+09,9E+09,9E+09]],v1000,fine,rdkTool,\WObj:=rdkWObj;
        MoveL [[294.084, -3.956, 3.000],[0.000000, 0.000000, 1.000000, 0.000000],[-1,0,-1,0],[9E+09,9E+09,9E+09,9E+09,9E+09,9E+09]],v1000,fine,rdkTool,\WObj:=rdkWObj;
        MoveL [[294.084, -3.956, -1.500],[0.000000, 0.000000, 1.000000, 0.000000],[-1,0,-1,0],[9E+09,9E+09,9E+09,9E+09,9E+09,9E+09]],v2,fine,rdkTool,\WObj:=rdkWObj;
        MoveL [[295.667, 0.418, -1.500],[0.000000, 0.000000, 1.000000, 0.000000],[-1,0,-1,0],[9E+09,9E+09,9E+09,9E+09,9E+09,9E+09]],v6,fine,rdkTool,\WObj:=rdkWObj;
        MoveL [[297.301, -3.956, -1.500],[0.000000, 0.000000, -1.000000, 0.000000],[-1,0,-1,0],[9E+09,9E+09,9E+09,9E+09,9E+09,9E+09]],v6,fine,rdkTool,\WObj:=rdkWObj;
        MoveL [[294.084, -3.956, -1.500],[0.000000, 0.000000, 1.000000, 0.000000],[-1,0,-1,0],[9E+09,9E+09,9E+09,9E+09,9E+09,9E+09]],v6,fine,rdkTool,\WObj:=rdkWObj;
        MoveL [[294.084, -3.956, 3.000],[0.000000, 0.000000, 1.000000, 0.000000],[-1,0,-1,0],[9E+09,9E+09,9E+09,9E+09,9E+09,9E+09]],v2,fine,rdkTool,\WObj:=rdkWObj;
        MoveL [[294.084, -3.956, 15.000],[0.000000, 0.000000, -1.000000, 0.000000],[-1,0,-1,0],[9E+09,9E+09,9E+09,9E+09,9E+09,9E+09]],v1000,fine,rdkTool,\WObj:=rdkWObj;
        MoveL [[351.863, 0.739, 15.000],[0.000000, 0.000000, -1.000000, 0.000000],[-1,0,-1,0],[9E+09,9E+09,9E+09,9E+09,9E+09,9E+09]],v1000,fine,rdkTool,\WObj:=rdkWObj;
        MoveL [[351.863, 0.739, 3.000],[0.000000, 0.000000, -1.000000, 0.000000],[-1,0,-1,0],[9E+09,9E+09,9E+09,9E+09,9E+09,9E+09]],v1000,fine,rdkTool,\WObj:=rdkWObj;
        MoveL [[351.863, 0.739, -1.500],[0.000000, 0.000000, -1.000000, 0.000000],[-1,0,-1,0],[9E+09,9E+09,9E+09,9E+09,9E+09,9E+09]],v2,fine,rdkTool,\WObj:=rdkWObj;
        MoveL [[351.983, 17.342, -1.500],[0.000000, 0.000000, -1.000000, 0.000000],[-1,0,-1,0],[9E+09,9E+09,9E+09,9E+09,9E+09,9E+09]],v6,fine,rdkTool,\WObj:=rdkWObj;
        MoveL [[362.975, 17.342, -1.500],[0.000000, 0.000000, 1.000000, 0.000000],[-1,0,-1,0],[9E+09,9E+09,9E+09,9E+09,9E+09,9E+09]],v6,fine,rdkTool,\WObj:=rdkWObj;
        MoveL [[373.968, 17.342, -1.500],[0.000000, 0.000000, 1.000000, 0.000000],[-1,0,-1,0],[9E+09,9E+09,9E+09,9E+09,9E+09,9E+09]],v6,fine,rdkTool,\WObj:=rdkWObj;
        MoveL [[373.968, 14.136, -1.500],[0.000000, 0.000000, 1.000000, 0.000000],[-1,0,-1,0],[9E+09,9E+09,9E+09,9E+09,9E+09,9E+09]],v6,fine,rdkTool,\WObj:=rdkWObj;
        MoveL [[373.968, 10.930, -1.500],[0.000000, 0.000000, -1.000000, 0.000000],[-1,0,-1,0],[9E+09,9E+09,9E+09,9E+09,9E+09,9E+09]],v6,fine,rdkTool,\WObj:=rdkWObj;
        MoveL [[366.525, 10.804, -1.500],[0.000000, 0.000000, -1.000000, 0.000000],[-1,0,-1,0],[9E+09,9E+09,9E+09,9E+09,9E+09,9E+09]],v6,fine,rdkTool,\WObj:=rdkWObj;
        MoveL [[359.082, 10.678, -1.500],[0.000000, 0.000000, 1.000000, 0.000000],[-1,0,-1,0],[9E+09,9E+09,9E+09,9E+09,9E+09,9E+09]],v6,fine,rdkTool,\WObj:=rdkWObj;
        MoveL [[359.082, 7.496, -1.500],[0.000000, 0.000000, -1.000000, 0.000000],[-1,0,-1,0],[9E+09,9E+09,9E+09,9E+09,9E+09,9E+09]],v6,fine,rdkTool,\WObj:=rdkWObj;
        MoveL [[359.082, 4.314, -1.500],[0.000000, 0.000000, -1.000000, 0.000000],[-1,0,-1,0],[9E+09,9E+09,9E+09,9E+09,9E+09,9E+09]],v6,fine,rdkTool,\WObj:=rdkWObj;
        MoveL [[365.380, 4.187, -1.500],[0.000000, 0.000000, -1.000000, 0.000000],[-1,0,-1,0],[9E+09,9E+09,9E+09,9E+09,9E+09,9E+09]],v6,fine,rdkTool,\WObj:=rdkWObj;
        MoveL [[371.678, 4.059, -1.500],[0.000000, 0.000000, -1.000000, 0.000000],[-1,0,-1,0],[9E+09,9E+09,9E+09,9E+09,9E+09,9E+09]],v6,fine,rdkTool,\WObj:=rdkWObj;
        MoveL [[371.678, 0.853, -1.500],[0.000000, 0.000000, 1.000000, 0.000000],[-1,0,-1,0],[9E+09,9E+09,9E+09,9E+09,9E+09,9E+09]],v6,fine,rdkTool,\WObj:=rdkWObj;
        MoveL [[371.678, -2.353, -1.500],[0.000000, 0.000000, -1.000000, 0.000000],[-1,0,-1,0],[9E+09,9E+09,9E+09,9E+09,9E+09,9E+09]],v6,fine,rdkTool,\WObj:=rdkWObj;
        MoveL [[365.495, -2.582, -1.500],[0.000000, 0.000000, -1.000000, 0.000000],[-1,0,-1,0],[9E+09,9E+09,9E+09,9E+09,9E+09,9E+09]],v6,fine,rdkTool,\WObj:=rdkWObj;
        MoveL [[359.311, -2.811, -1.500],[0.000000, 0.000000, 1.000000, 0.000000],[-1,0,-1,0],[9E+09,9E+09,9E+09,9E+09,9E+09,9E+09]],v6,fine,rdkTool,\WObj:=rdkWObj;
        MoveL [[359.311, -6.017, -1.500],[0.000000, 0.000000, 1.000000, 0.000000],[-1,0,-1,0],[9E+09,9E+09,9E+09,9E+09,9E+09,9E+09]],v6,fine,rdkTool,\WObj:=rdkWObj;
        MoveL [[359.311, -9.223, -1.500],[0.000000, 0.000000, -1.000000, 0.000000],[-1,0,-1,0],[9E+09,9E+09,9E+09,9E+09,9E+09,9E+09]],v6,fine,rdkTool,\WObj:=rdkWObj;
        MoveL [[366.754, -9.349, -1.500],[0.000000, 0.000000, -1.000000, 0.000000],[-1,0,-1,0],[9E+09,9E+09,9E+09,9E+09,9E+09,9E+09]],v6,fine,rdkTool,\WObj:=rdkWObj;
        MoveL [[374.197, -9.475, -1.500],[0.000000, 0.000000, -1.000000, 0.000000],[-1,0,-1,0],[9E+09,9E+09,9E+09,9E+09,9E+09,9E+09]],v6,fine,rdkTool,\WObj:=rdkWObj;
        MoveL [[374.197, -12.669, -1.500],[0.000000, 0.000000, -1.000000, 0.000000],[-1,0,-1,0],[9E+09,9E+09,9E+09,9E+09,9E+09,9E+09]],v6,fine,rdkTool,\WObj:=rdkWObj;
        MoveL [[374.197, -15.864, -1.500],[0.000000, 0.000000, 1.000000, 0.000000],[-1,0,-1,0],[9E+09,9E+09,9E+09,9E+09,9E+09,9E+09]],v6,fine,rdkTool,\WObj:=rdkWObj;
        MoveL [[362.970, -15.864, -1.500],[0.000000, 0.000000, -1.000000, 0.000000],[-1,0,-1,0],[9E+09,9E+09,9E+09,9E+09,9E+09,9E+09]],v6,fine,rdkTool,\WObj:=rdkWObj;
        MoveL [[351.743, -15.864, -1.500],[0.000000, 0.000000, -1.000000, 0.000000],[-1,0,-1,0],[9E+09,9E+09,9E+09,9E+09,9E+09,9E+09]],v6,fine,rdkTool,\WObj:=rdkWObj;
        MoveL [[351.863, 0.739, -1.500],[0.000000, 0.000000, -1.000000, 0.000000],[-1,0,-1,0],[9E+09,9E+09,9E+09,9E+09,9E+09,9E+09]],v6,fine,rdkTool,\WObj:=rdkWObj;
        MoveL [[351.863, 0.739, 3.000],[0.000000, 0.000000, -1.000000, 0.000000],[-1,0,-1,0],[9E+09,9E+09,9E+09,9E+09,9E+09,9E+09]],v2,fine,rdkTool,\WObj:=rdkWObj;
        MoveL [[351.863, 0.739, 15.000],[0.000000, 0.000000, -1.000000, 0.000000],[-1,0,-1,0],[9E+09,9E+09,9E+09,9E+09,9E+09,9E+09]],v1000,fine,rdkTool,\WObj:=rdkWObj;
        MoveL [[358.133, -10.368, 15.000],[0.000000, 0.000000, -1.000000, 0.000000],[-1,0,-1,0],[9E+09,9E+09,9E+09,9E+09,9E+09,9E+09]],v1000,fine,rdkTool,\WObj:=rdkWObj;
        MoveL [[358.133, -10.368, 3.000],[0.000000, 0.000000, -1.000000, 0.000000],[-1,0,-1,0],[9E+09,9E+09,9E+09,9E+09,9E+09,9E+09]],v1000,fine,rdkTool,\WObj:=rdkWObj;
        MoveL [[358.133, -10.368, -1.500],[0.000000, 0.000000, -1.000000, 0.000000],[-1,0,-1,0],[9E+09,9E+09,9E+09,9E+09,9E+09,9E+09]],v2,fine,rdkTool,\WObj:=rdkWObj;
        MoveL [[358.264, -5.955, -1.500],[0.000000, 0.000000, -1.000000, 0.000000],[-1,0,-1,0],[9E+09,9E+09,9E+09,9E+09,9E+09,9E+09]],v6,fine,rdkTool,\WObj:=rdkWObj;
        MoveL [[358.395, -1.543, -1.500],[0.000000, 0.000000, -1.000000, 0.000000],[-1,0,-1,0],[9E+09,9E+09,9E+09,9E+09,9E+09,9E+09]],v6,fine,rdkTool,\WObj:=rdkWObj;
        MoveL [[364.120, -1.539, -1.500],[0.000000, 0.000000, -1.000000, 0.000000],[-1,0,-1,0],[9E+09,9E+09,9E+09,9E+09,9E+09,9E+09]],v6,fine,rdkTool,\WObj:=rdkWObj;
        MoveL [[372.823, -12.658, -1.500],[0.000000, 0.000000, -1.000000, 0.000000],[-1,0,-1,0],[9E+09,9E+09,9E+09,9E+09,9E+09,9E+09]],v6,fine,rdkTool,\WObj:=rdkWObj;
        MoveL [[372.823, -10.368, -1.500],[0.000000, 0.000000, -1.000000, 0.000000],[-1,0,-1,0],[9E+09,9E+09,9E+09,9E+09,9E+09,9E+09]],v6,fine,rdkTool,\WObj:=rdkWObj;
        MoveL [[365.478, -10.368, -1.500],[0.000000, 0.000000, -1.000000, 0.000000],[-1,0,-1,0],[9E+09,9E+09,9E+09,9E+09,9E+09,9E+09]],v6,fine,rdkTool,\WObj:=rdkWObj;
        MoveL [[358.133, -10.368, -1.500],[0.000000, 0.000000, -1.000000, 0.000000],[-1,0,-1,0],[9E+09,9E+09,9E+09,9E+09,9E+09,9E+09]],v6,fine,rdkTool,\WObj:=rdkWObj;
        MoveL [[358.133, -10.368, 3.000],[0.000000, 0.000000, -1.000000, 0.000000],[-1,0,-1,0],[9E+09,9E+09,9E+09,9E+09,9E+09,9E+09]],v2,fine,rdkTool,\WObj:=rdkWObj;
        MoveL [[358.133, -10.368, 15.000],[0.000000, 0.000000, -1.000000, 0.000000],[-1,0,-1,0],[9E+09,9E+09,9E+09,9E+09,9E+09,9E+09]],v1000,fine,rdkTool,\WObj:=rdkWObj;
        MoveL [[358.132, 11.617, 15.000],[0.000000, 0.000000, -1.000000, 0.000000],[-1,0,-1,0],[9E+09,9E+09,9E+09,9E+09,9E+09,9E+09]],v1000,fine,rdkTool,\WObj:=rdkWObj;
        MoveL [[358.132, 11.617, 3.000],[0.000000, 0.000000, -1.000000, 0.000000],[-1,0,-1,0],[9E+09,9E+09,9E+09,9E+09,9E+09,9E+09]],v1000,fine,rdkTool,\WObj:=rdkWObj;
        MoveL [[358.132, 11.617, -1.500],[0.000000, 0.000000, -1.000000, 0.000000],[-1,0,-1,0],[9E+09,9E+09,9E+09,9E+09,9E+09,9E+09]],v2,fine,rdkTool,\WObj:=rdkWObj;
        MoveL [[365.477, 11.617, -1.500],[0.000000, 0.000000, -1.000000, 0.000000],[-1,0,-1,0],[9E+09,9E+09,9E+09,9E+09,9E+09,9E+09]],v6,fine,rdkTool,\WObj:=rdkWObj;
        MoveL [[372.823, 11.617, -1.500],[0.000000, 0.000000, -1.000000, 0.000000],[-1,0,-1,0],[9E+09,9E+09,9E+09,9E+09,9E+09,9E+09]],v6,fine,rdkTool,\WObj:=rdkWObj;
        MoveL [[372.858, 13.105, -1.500],[0.000000, 0.000000, -1.000000, 0.000000],[-1,0,-1,0],[9E+09,9E+09,9E+09,9E+09,9E+09,9E+09]],v6,fine,rdkTool,\WObj:=rdkWObj;
        MoveL [[370.991, 0.889, -1.500],[0.000000, 0.000000, 1.000000, 0.000000],[-1,0,-1,0],[9E+09,9E+09,9E+09,9E+09,9E+09,9E+09]],v6,fine,rdkTool,\WObj:=rdkWObj;
        MoveL [[370.991, 2.888, -1.500],[0.000000, 0.000000, -1.000000, 0.000000],[-1,0,-1,0],[9E+09,9E+09,9E+09,9E+09,9E+09,9E+09]],v6,fine,rdkTool,\WObj:=rdkWObj;
        MoveL [[364.693, 3.016, -1.500],[0.000000, 0.000000, -1.000000, 0.000000],[-1,0,-1,0],[9E+09,9E+09,9E+09,9E+09,9E+09,9E+09]],v6,fine,rdkTool,\WObj:=rdkWObj;
        MoveL [[358.395, 3.143, -1.500],[0.000000, 0.000000, -1.000000, 0.000000],[-1,0,-1,0],[9E+09,9E+09,9E+09,9E+09,9E+09,9E+09]],v6,fine,rdkTool,\WObj:=rdkWObj;
        MoveL [[358.264, 7.380, -1.500],[0.000000, 0.000000, 1.000000, 0.000000],[-1,0,-1,0],[9E+09,9E+09,9E+09,9E+09,9E+09,9E+09]],v6,fine,rdkTool,\WObj:=rdkWObj;
        MoveL [[358.132, 11.617, -1.500],[0.000000, 0.000000, -1.000000, 0.000000],[-1,0,-1,0],[9E+09,9E+09,9E+09,9E+09,9E+09,9E+09]],v6,fine,rdkTool,\WObj:=rdkWObj;
        MoveL [[358.132, 11.617, 3.000],[0.000000, 0.000000, -1.000000, 0.000000],[-1,0,-1,0],[9E+09,9E+09,9E+09,9E+09,9E+09,9E+09]],v2,fine,rdkTool,\WObj:=rdkWObj;
        MoveL [[358.132, 11.617, 15.000],[0.000000, 0.000000, -1.000000, 0.000000],[-1,0,-1,0],[9E+09,9E+09,9E+09,9E+09,9E+09,9E+09]],v1000,fine,rdkTool,\WObj:=rdkWObj;
        MoveL [[352.670, 0.930, 15.000],[0.000000, 0.000000, -1.000000, 0.000000],[-1,0,-1,0],[9E+09,9E+09,9E+09,9E+09,9E+09,9E+09]],v1000,fine,rdkTool,\WObj:=rdkWObj;
        MoveL [[352.670, 0.930, 3.000],[0.000000, 0.000000, -1.000000, 0.000000],[-1,0,-1,0],[9E+09,9E+09,9E+09,9E+09,9E+09,9E+09]],v1000,fine,rdkTool,\WObj:=rdkWObj;
        MoveL [[352.670, 0.930, -1.500],[0.000000, 0.000000, 1.000000, 0.000000],[-1,0,-1,0],[9E+09,9E+09,9E+09,9E+09,9E+09,9E+09]],v2,fine,rdkTool,\WObj:=rdkWObj;
        MoveL [[352.670, 16.197, -1.500],[0.000000, 0.000000, -1.000000, 0.000000],[-1,0,-1,0],[9E+09,9E+09,9E+09,9E+09,9E+09,9E+09]],v6,fine,rdkTool,\WObj:=rdkWObj;
        MoveL [[362.935, 16.197, -1.500],[0.000000, 0.000000, -1.000000, 0.000000],[-1,0,-1,0],[9E+09,9E+09,9E+09,9E+09,9E+09,9E+09]],v6,fine,rdkTool,\WObj:=rdkWObj;
        MoveL [[352.670, 0.930, -1.500],[0.000000, 0.000000, 1.000000, 0.000000],[-1,0,-1,0],[9E+09,9E+09,9E+09,9E+09,9E+09,9E+09]],v6,fine,rdkTool,\WObj:=rdkWObj;
        MoveL [[352.670, 0.930, 3.000],[0.000000, 0.000000, -1.000000, 0.000000],[-1,0,-1,0],[9E+09,9E+09,9E+09,9E+09,9E+09,9E+09]],v2,fine,rdkTool,\WObj:=rdkWObj;
        MoveL [[352.670, 0.930, 15.000],[0.000000, 0.000000, -1.000000, 0.000000],[-1,0,-1,0],[9E+09,9E+09,9E+09,9E+09,9E+09,9E+09]],v1000,fine,rdkTool,\WObj:=rdkWObj;
        MoveL [[363.052, -14.948, 15.000],[0.000000, 0.000000, 1.000000, 0.000000],[-1,0,-1,0],[9E+09,9E+09,9E+09,9E+09,9E+09,9E+09]],v1000,fine,rdkTool,\WObj:=rdkWObj;
        MoveL [[363.052, -14.948, 3.000],[0.000000, 0.000000, 1.000000, 0.000000],[-1,0,-1,0],[9E+09,9E+09,9E+09,9E+09,9E+09,9E+09]],v1000,fine,rdkTool,\WObj:=rdkWObj;
        MoveL [[363.052, -14.948, -1.500],[0.000000, 0.000000, 1.000000, 0.000000],[-1,0,-1,0],[9E+09,9E+09,9E+09,9E+09,9E+09,9E+09]],v2,fine,rdkTool,\WObj:=rdkWObj;
        MoveL [[372.823, -12.658, -1.500],[0.000000, 0.000000, -1.000000, 0.000000],[-1,0,-1,0],[9E+09,9E+09,9E+09,9E+09,9E+09,9E+09]],v6,fine,rdkTool,\WObj:=rdkWObj;
        MoveL [[372.823, -14.948, -1.500],[0.000000, 0.000000, -1.000000, 0.000000],[-1,0,-1,0],[9E+09,9E+09,9E+09,9E+09,9E+09,9E+09]],v6,fine,rdkTool,\WObj:=rdkWObj;
        MoveL [[363.052, -14.948, -1.500],[0.000000, 0.000000, 1.000000, 0.000000],[-1,0,-1,0],[9E+09,9E+09,9E+09,9E+09,9E+09,9E+09]],v6,fine,rdkTool,\WObj:=rdkWObj;
        MoveL [[363.052, -14.948, 3.000],[0.000000, 0.000000, 1.000000, 0.000000],[-1,0,-1,0],[9E+09,9E+09,9E+09,9E+09,9E+09,9E+09]],v2,fine,rdkTool,\WObj:=rdkWObj;
        MoveL [[363.052, -14.948, 15.000],[0.000000, 0.000000, 1.000000, 0.000000],[-1,0,-1,0],[9E+09,9E+09,9E+09,9E+09,9E+09,9E+09]],v1000,fine,rdkTool,\WObj:=rdkWObj;
        MoveL [[48.091, 158.568, 15.000],[0.000000, 0.000000, -1.000000, 0.000000],[-1,0,-1,0],[9E+09,9E+09,9E+09,9E+09,9E+09,9E+09]],v1000,fine,rdkTool,\WObj:=rdkWObj;
        MoveL [[48.091, 158.568, 3.000],[0.000000, 0.000000, 1.000000, 0.000000],[-1,0,-1,0],[9E+09,9E+09,9E+09,9E+09,9E+09,9E+09]],v1000,fine,rdkTool,\WObj:=rdkWObj;
        MoveL [[48.091, 158.568, -1.500],[0.000000, 0.000000, -1.000000, 0.000000],[-1,0,-1,0],[9E+09,9E+09,9E+09,9E+09,9E+09,9E+09]],v2,fine,rdkTool,\WObj:=rdkWObj;
        MoveL [[48.091, 242.313, -1.500],[0.000000, 0.000000, -1.000000, 0.000000],[-1,0,-1,0],[9E+09,9E+09,9E+09,9E+09,9E+09,9E+09]],v6,fine,rdkTool,\WObj:=rdkWObj;
        MoveL [[49.056, 243.186, -1.500],[0.000000, 0.000000, 1.000000, 0.000000],[-1,0,-1,0],[9E+09,9E+09,9E+09,9E+09,9E+09,9E+09]],v6,fine,rdkTool,\WObj:=rdkWObj;
        MoveL [[48.091, 158.568, -1.500],[0.000000, 0.000000, -1.000000, 0.000000],[-1,0,-1,0],[9E+09,9E+09,9E+09,9E+09,9E+09,9E+09]],v6,fine,rdkTool,\WObj:=rdkWObj;
        MoveL [[48.091, 158.568, 3.000],[0.000000, 0.000000, 1.000000, 0.000000],[-1,0,-1,0],[9E+09,9E+09,9E+09,9E+09,9E+09,9E+09]],v2,fine,rdkTool,\WObj:=rdkWObj;
        MoveL [[48.091, 158.568, 15.000],[0.000000, 0.000000, -1.000000, 0.000000],[-1,0,-1,0],[9E+09,9E+09,9E+09,9E+09,9E+09,9E+09]],v1000,fine,rdkTool,\WObj:=rdkWObj;
        MoveL [[146.458, 188.101, 15.000],[0.000000, 0.000000, 1.000000, 0.000000],[-1,0,-1,0],[9E+09,9E+09,9E+09,9E+09,9E+09,9E+09]],v1000,fine,rdkTool,\WObj:=rdkWObj;
        MoveL [[146.458, 188.101, 3.000],[0.000000, 0.000000, 1.000000, 0.000000],[-1,0,-1,0],[9E+09,9E+09,9E+09,9E+09,9E+09,9E+09]],v1000,fine,rdkTool,\WObj:=rdkWObj;
        MoveL [[146.458, 188.101, -1.500],[0.000000, 0.000000, -1.000000, 0.000000],[-1,0,-1,0],[9E+09,9E+09,9E+09,9E+09,9E+09,9E+09]],v2,fine,rdkTool,\WObj:=rdkWObj;
        MoveL [[145.055, 212.455, -1.500],[0.000000, 0.000000, -1.000000, 0.000000],[-1,0,-1,0],[9E+09,9E+09,9E+09,9E+09,9E+09,9E+09]],v6,fine,rdkTool,\WObj:=rdkWObj;
        MoveL [[146.292, 207.875, -1.500],[0.000000, 0.000000, -1.000000, 0.000000],[-1,0,-1,0],[9E+09,9E+09,9E+09,9E+09,9E+09,9E+09]],v6,fine,rdkTool,\WObj:=rdkWObj;
        MoveL [[146.458, 188.101, -1.500],[0.000000, 0.000000, -1.000000, 0.000000],[-1,0,-1,0],[9E+09,9E+09,9E+09,9E+09,9E+09,9E+09]],v6,fine,rdkTool,\WObj:=rdkWObj;
        MoveL [[146.458, 188.101, 3.000],[0.000000, 0.000000, 1.000000, 0.000000],[-1,0,-1,0],[9E+09,9E+09,9E+09,9E+09,9E+09,9E+09]],v2,fine,rdkTool,\WObj:=rdkWObj;
        MoveL [[146.458, 188.101, 15.000],[0.000000, 0.000000, 1.000000, 0.000000],[-1,0,-1,0],[9E+09,9E+09,9E+09,9E+09,9E+09,9E+09]],v1000,fine,rdkTool,\WObj:=rdkWObj;
        MoveL [[143.129, 79.826, 15.000],[0.000000, 0.000000, -1.000000, 0.000000],[-1,0,-1,0],[9E+09,9E+09,9E+09,9E+09,9E+09,9E+09]],v1000,fine,rdkTool,\WObj:=rdkWObj;
        MoveL [[143.129, 79.826, 3.000],[0.000000, 0.000000, -1.000000, 0.000000],[-1,0,-1,0],[9E+09,9E+09,9E+09,9E+09,9E+09,9E+09]],v1000,fine,rdkTool,\WObj:=rdkWObj;
        MoveL [[143.129, 79.826, -1.500],[0.000000, 0.000000, -1.000000, 0.000000],[-1,0,-1,0],[9E+09,9E+09,9E+09,9E+09,9E+09,9E+09]],v2,fine,rdkTool,\WObj:=rdkWObj;
        MoveL [[139.392, 89.576, -1.500],[0.000000, 0.000000, -1.000000, 0.000000],[-1,0,-1,0],[9E+09,9E+09,9E+09,9E+09,9E+09,9E+09]],v6,fine,rdkTool,\WObj:=rdkWObj;
        MoveL [[185.495, 79.994, -1.500],[0.000000, 0.000000, -1.000000, 0.000000],[-1,0,-1,0],[9E+09,9E+09,9E+09,9E+09,9E+09,9E+09]],v6,fine,rdkTool,\WObj:=rdkWObj;
        MoveL [[143.129, 79.826, -1.500],[0.000000, 0.000000, -1.000000, 0.000000],[-1,0,-1,0],[9E+09,9E+09,9E+09,9E+09,9E+09,9E+09]],v6,fine,rdkTool,\WObj:=rdkWObj;
        MoveL [[143.129, 79.826, 3.000],[0.000000, 0.000000, -1.000000, 0.000000],[-1,0,-1,0],[9E+09,9E+09,9E+09,9E+09,9E+09,9E+09]],v2,fine,rdkTool,\WObj:=rdkWObj;
        MoveL [[143.129, 79.826, 15.000],[0.000000, 0.000000, -1.000000, 0.000000],[-1,0,-1,0],[9E+09,9E+09,9E+09,9E+09,9E+09,9E+09]],v1000,fine,rdkTool,\WObj:=rdkWObj;
        MoveL [[197.633, 158.727, 15.000],[0.000000, 0.000000, 1.000000, 0.000000],[-1,0,-1,0],[9E+09,9E+09,9E+09,9E+09,9E+09,9E+09]],v1000,fine,rdkTool,\WObj:=rdkWObj;
        MoveL [[197.633, 158.727, 3.000],[0.000000, 0.000000, -1.000000, 0.000000],[-1,0,-1,0],[9E+09,9E+09,9E+09,9E+09,9E+09,9E+09]],v1000,fine,rdkTool,\WObj:=rdkWObj;
        MoveL [[197.633, 158.727, -1.500],[0.000000, 0.000000, -1.000000, 0.000000],[-1,0,-1,0],[9E+09,9E+09,9E+09,9E+09,9E+09,9E+09]],v2,fine,rdkTool,\WObj:=rdkWObj;
        MoveL [[197.633, 216.429, -1.500],[0.000000, 0.000000, 1.000000, 0.000000],[-1,0,-1,0],[9E+09,9E+09,9E+09,9E+09,9E+09,9E+09]],v6,fine,rdkTool,\WObj:=rdkWObj;
        MoveL [[198.714, 217.305, -1.500],[0.000000, 0.000000, -1.000000, 0.000000],[-1,0,-1,0],[9E+09,9E+09,9E+09,9E+09,9E+09,9E+09]],v6,fine,rdkTool,\WObj:=rdkWObj;
        MoveL [[197.633, 158.727, -1.500],[0.000000, 0.000000, -1.000000, 0.000000],[-1,0,-1,0],[9E+09,9E+09,9E+09,9E+09,9E+09,9E+09]],v6,fine,rdkTool,\WObj:=rdkWObj;
        MoveL [[197.633, 158.727, 3.000],[0.000000, 0.000000, -1.000000, 0.000000],[-1,0,-1,0],[9E+09,9E+09,9E+09,9E+09,9E+09,9E+09]],v2,fine,rdkTool,\WObj:=rdkWObj;
        MoveL [[197.633, 158.727, 15.000],[0.000000, 0.000000, 1.000000, 0.000000],[-1,0,-1,0],[9E+09,9E+09,9E+09,9E+09,9E+09,9E+09]],v1000,fine,rdkTool,\WObj:=rdkWObj;
        MoveL [[235.190, 134.135, 15.000],[0.000000, 0.000000, -1.000000, 0.000000],[-1,0,-1,0],[9E+09,9E+09,9E+09,9E+09,9E+09,9E+09]],v1000,fine,rdkTool,\WObj:=rdkWObj;
        MoveL [[235.190, 134.135, 3.000],[0.000000, 0.000000, 1.000000, 0.000000],[-1,0,-1,0],[9E+09,9E+09,9E+09,9E+09,9E+09,9E+09]],v1000,fine,rdkTool,\WObj:=rdkWObj;
        MoveL [[235.190, 134.135, -1.500],[0.000000, 0.000000, 1.000000, 0.000000],[-1,0,-1,0],[9E+09,9E+09,9E+09,9E+09,9E+09,9E+09]],v2,fine,rdkTool,\WObj:=rdkWObj;
        MoveL [[234.955, 166.654, -1.500],[0.000000, 0.000000, -1.000000, 0.000000],[-1,0,-1,0],[9E+09,9E+09,9E+09,9E+09,9E+09,9E+09]],v6,fine,rdkTool,\WObj:=rdkWObj;
        MoveL [[241.820, 166.748, -1.500],[0.000000, 0.000000, -1.000000, 0.000000],[-1,0,-1,0],[9E+09,9E+09,9E+09,9E+09,9E+09,9E+09]],v6,fine,rdkTool,\WObj:=rdkWObj;
        MoveL [[241.831, 133.866, -1.500],[0.000000, 0.000000, -1.000000, 0.000000],[-1,0,-1,0],[9E+09,9E+09,9E+09,9E+09,9E+09,9E+09]],v6,fine,rdkTool,\WObj:=rdkWObj;
        MoveL [[238.510, 134.001, -1.500],[0.000000, 0.000000, -1.000000, 0.000000],[-1,0,-1,0],[9E+09,9E+09,9E+09,9E+09,9E+09,9E+09]],v6,fine,rdkTool,\WObj:=rdkWObj;
        MoveL [[235.190, 134.135, -1.500],[0.000000, 0.000000, 1.000000, 0.000000],[-1,0,-1,0],[9E+09,9E+09,9E+09,9E+09,9E+09,9E+09]],v6,fine,rdkTool,\WObj:=rdkWObj;
        MoveL [[235.190, 134.135, 3.000],[0.000000, 0.000000, 1.000000, 0.000000],[-1,0,-1,0],[9E+09,9E+09,9E+09,9E+09,9E+09,9E+09]],v2,fine,rdkTool,\WObj:=rdkWObj;
        MoveL [[235.190, 134.135, 15.000],[0.000000, 0.000000, -1.000000, 0.000000],[-1,0,-1,0],[9E+09,9E+09,9E+09,9E+09,9E+09,9E+09]],v1000,fine,rdkTool,\WObj:=rdkWObj;
        MoveL [[204.732, 105.967, 15.000],[0.000000, 0.000000, -1.000000, 0.000000],[-1,0,-1,0],[9E+09,9E+09,9E+09,9E+09,9E+09,9E+09]],v1000,fine,rdkTool,\WObj:=rdkWObj;
        MoveL [[204.732, 105.967, 3.000],[0.000000, 0.000000, -1.000000, 0.000000],[-1,0,-1,0],[9E+09,9E+09,9E+09,9E+09,9E+09,9E+09]],v1000,fine,rdkTool,\WObj:=rdkWObj;
